release/datafiles/colormanagement/luts/AgX_Base_sRGB.cube
TITLE "AgX_Formation sRGB"
# AgX Base sRGB Formation LUT
# This LUT expects input to be E Gamut Log2 encoding from -10 stops to +15 stops
# But the end image formation will be from -10 to 6.5 encoded in power 2.4
#  rotate = [3.0, -1, -2.0], inset = [0.4, 0.22, 0.13], outset = [0.4, 0.22, 0.04]
# The image formed has 40% per-channel shifts
LUT_3D_SIZE 37
0.0000005 0.0000000 0.0000018
0.0081573 0.0011301 0.0000000
0.0175951 0.0029558 0.0000000
0.0286142 0.0055295 0.0000000
0.0415834 0.0089300 0.0000000
0.0569854 0.0132297 0.0000000
0.0753240 0.0173279 0.0000000
0.0980847 0.0222719 0.0000000
0.1263032 0.0282709 0.0000000
0.1613808 0.0355662 0.0000000
0.2052085 0.0444965 0.0000000
0.2602560 0.0555401 0.0000000
0.3295491 0.0693852 0.0000000
0.4162767 0.0870518 0.0000000
0.5223971 0.1100992 0.0000000
0.6436918 0.1411215 0.0000000
0.7648490 0.1839257 0.0000000
0.8826563 0.2400192 0.0000000
0.9525446 0.3650527 0.2597600
1.0000000 0.4842427 0.4090096
1.0000000 0.5851515 0.5348571
1.0000000 0.6636839 0.6274005
1.0000000 0.7255934 0.6983970
1.0000000 0.7746288 0.7537242
1.0000000 0.8157187 0.7995592
1.0000000 0.8647685 0.8536284
1.0000000 0.8983450 0.8903410
1.0000000 0.9219594 0.9160265
1.0000000 0.9389449 0.9344339
1.0000000 0.9514113 0.9479065
1.0000000 0.9607320 0.9579574
1.0000000 0.9678207 0.9655879
1.0000000 0.9732975 0.9714745
1.0000000 0.9775906 0.9760827
1.0000000 0.9810008 0.9797391
1.0000000 0.9837428 0.9826761
1.0000000 0.9859722 0.9850619
0.0000000 0.0075729 0.0037610
0.0083389 0.0079693 0.0000000
0.0179483 0.0113644 0.0000000
0.0290087 0.0142976 0.0000000
0.0419534 0.0172661 0.0000000
0.0572805 0.0205881 0.0000000
0.0756473 0.0238423 0.0000000
0.0983308 0.0278751 0.0000000
0.1264631 0.0329710 0.0000000
0.1614778 0.0394374 0.0000000
0.2052671 0.0476452 0.0000000
0.2602933 0.0580790 0.0000000
0.3295747 0.0714173 0.0000000
0.4162940 0.0886611 0.0000000
0.5224051 0.1113477 0.0000000
0.6436844 0.1420477 0.0000000
0.7648235 0.1845625 0.0000000
0.8826168 0.2404358 0.0000000
0.9525210 0.3652285 0.2597584
1.0000000 0.4843218 0.4090100
1.0000000 0.5851879 0.5348613
1.0000000 0.6637015 0.6274037
1.0000000 0.7256021 0.6983990
1.0000000 0.7746332 0.7537254
1.0000000 0.8157211 0.7995600
1.0000000 0.8647696 0.8536288
1.0000000 0.8983455 0.8903412
1.0000000 0.9219596 0.9160266
1.0000000 0.9389451 0.9344340
1.0000000 0.9514114 0.9479065
1.0000000 0.9607320 0.9579574
1.0000000 0.9678207 0.9655879
1.0000000 0.9732975 0.9714745
1.0000000 0.9775906 0.9760827
1.0000000 0.9810008 0.9797391
1.0000000 0.9837428 0.9826761
1.0000000 0.9859722 0.9850619
0.0000000 0.0163873 0.0079969
0.0102214 0.0163137 0.0000000
0.0177677 0.0169966 0.0000000
0.0290045 0.0207538 0.0000000
0.0420800 0.0242226 0.0000000
0.0575099 0.0275998 0.0000000
0.0760050 0.0308191 0.0000000
0.0986446 0.0344864 0.0000000
0.1266854 0.0389920 0.0000000
0.1616201 0.0447385 0.0000000
0.2053561 0.0521836 0.0000000
0.2603514 0.0618786 0.0000000
0.3296151 0.0745402 0.0000000
0.4163215 0.0911801 0.0000000
0.5224179 0.1133267 0.0000000
0.6436724 0.1435282 0.0000000
0.7647824 0.1855861 0.0000000
0.8825530 0.2411076 0.0000000
0.9524829 0.3655126 0.2597557
1.0000000 0.4844498 0.4090108
1.0000000 0.5852468 0.5348680
1.0000000 0.6637300 0.6274090
1.0000000 0.7256163 0.6984024
1.0000000 0.7746404 0.7537274
1.0000000 0.8157249 0.7995613
1.0000000 0.8647713 0.8536295
1.0000000 0.8983463 0.8903415
1.0000000 0.9219600 0.9160268
1.0000000 0.9389452 0.9344340
1.0000000 0.9514115 0.9479066
1.0000000 0.9607320 0.9579575
1.0000000 0.9678207 0.9655879
1.0000000 0.9732975 0.9714745
1.0000000 0.9775906 0.9760827
1.0000000 0.9810008 0.9797391
1.0000000 0.9837428 0.9826761
1.0000000 0.9859722 0.9850619
0.0000000 0.0266915 0.0127531
0.0092661 0.0263646 0.0000000
0.0199297 0.0266354 0.0000000
0.0286230 0.0273992 0.0000000
0.0418951 0.0314396 0.0000000
0.0576521 0.0352304 0.0000000
0.0763376 0.0387252 0.0000000
0.0989975 0.0423579 0.0000000
0.1269680 0.0465563 0.0000000
0.1618166 0.0517662 0.0000000
0.2054861 0.0585046 0.0000000
0.2604395 0.0673969 0.0000000
0.3296778 0.0792285 0.0000000
0.4163647 0.0950571 0.0000000
0.5224380 0.1164280 0.0000000
0.6436527 0.1458783 0.0000000
0.7647159 0.1872249 0.0000000
0.8824498 0.2421885 0.0000000
0.9524212 0.3659713 0.2597514
1.0000000 0.4846568 0.4090121
1.0000000 0.5853421 0.5348789
1.0000000 0.6637762 0.6274176
1.0000000 0.7256393 0.6984079
1.0000000 0.7746520 0.7537307
1.0000000 0.8157310 0.7995635
1.0000000 0.8647741 0.8536306
1.0000000 0.8983476 0.8903421
1.0000000 0.9219606 0.9160270
1.0000000 0.9389455 0.9344342
1.0000000 0.9514116 0.9479066
1.0000000 0.9607321 0.9579575
1.0000000 0.9678208 0.9655880
1.0000000 0.9732976 0.9714745
1.0000000 0.9775906 0.9760827
1.0000000 0.9810008 0.9797391
1.0000000 0.9837428 0.9826761
1.0000000 0.9859722 0.9850619
0.0000000 0.0387993 0.0180920
0.0000000 0.0383631 0.0082275
0.0203683 0.0384295 0.0000000
0.0307822 0.0387107 0.0000000
0.0415456 0.0397823 0.0000000
0.0576424 0.0440922 0.0000000
0.0765477 0.0479673 0.0000000
0.0993144 0.0517823 0.0000000
0.1272771 0.0559251 0.0000000
0.1620617 0.0608278 0.0000000
0.2056634 0.0670144 0.0000000
0.2605673 0.0751449 0.0000000
0.3297725 0.0860635 0.0000000
0.4164315 0.1008889 0.0000000
0.5224691 0.1212091 0.0000000
0.6436205 0.1495688 0.0000000
0.7646085 0.1898323 0.0000000
0.8822833 0.2439214 0.0000000
0.9523215 0.3667111 0.2597446
1.0000000 0.4849912 0.4090143
1.0000000 0.5854963 0.5348964
1.0000000 0.6638509 0.6274315
1.0000000 0.7256764 0.6984167
1.0000000 0.7746707 0.7537359
1.0000000 0.8157410 0.7995670
1.0000000 0.8647786 0.8536323
1.0000000 0.8983497 0.8903429
1.0000000 0.9219616 0.9160274
1.0000000 0.9389460 0.9344344
1.0000000 0.9514119 0.9479067
1.0000000 0.9607322 0.9579575
1.0000000 0.9678208 0.9655880
1.0000000 0.9732976 0.9714745
1.0000000 0.9775907 0.9760827
1.0000000 0.9810008 0.9797391
1.0000000 0.9837428 0.9826761
1.0000000 0.9859722 0.9850619
0.0000000 0.0531568 0.0241682
0.0000000 0.0528778 0.0178913
0.0169276 0.0527819 0.0000000
0.0313708 0.0531008 0.0000000
0.0436925 0.0536596 0.0000000
0.0572891 0.0548527 0.0000000
0.0764722 0.0590343 0.0000000
0.0994543 0.0631343 0.0000000
0.1275207 0.0674232 0.0000000
0.1623130 0.0722622 0.0000000
0.2058778 0.0781276 0.0000000
0.2607395 0.0856562 0.0000000
0.3299093 0.0957001 0.0000000
0.4165316 0.1094111 0.0000000
0.5225157 0.1284163 0.0000000
0.6435672 0.1552750 0.0000000
0.7644349 0.1939412 0.0000000
0.8820149 0.2466843 0.0000000
0.9521605 0.3679019 0.2597343
1.0000000 0.4855313 0.4090177
1.0000000 0.5857454 0.5349249
1.0000000 0.6639716 0.6274539
1.0000000 0.7257364 0.6984311
1.0000000 0.7747010 0.7537443
1.0000000 0.8157571 0.7995727
1.0000000 0.8647859 0.8536351
1.0000000 0.8983531 0.8903443
1.0000000 0.9219632 0.9160281
1.0000000 0.9389468 0.9344347
1.0000000 0.9514122 0.9479069
1.0000000 0.9607324 0.9579576
1.0000000 0.9678209 0.9655880
1.0000000 0.9732976 0.9714745
1.0000000 0.9775907 0.9760827
1.0000000 0.9810008 0.9797391
1.0000000 0.9837428 0.9826761
1.0000000 0.9859722 0.9850619
0.0000000 0.0709322 0.0323807
0.0000000 0.0707127 0.0279671
0.0000000 0.0704423 0.0163904
0.0276085 0.0705015 0.0000000
0.0436156 0.0708138 0.0000000
0.0587780 0.0713657 0.0000000
0.0758011 0.0725704 0.0000000
0.0991764 0.0769261 0.0000000
0.1275170 0.0814811 0.0000000
0.1624584 0.0864755 0.0000000
0.2060762 0.0922885 0.0000000
0.2609407 0.0994755 0.0000000
0.3300913 0.1088272 0.0000000
0.4166740 0.1214579 0.0000000
0.5225821 0.1389754 0.0000000
0.6434779 0.1639094 0.0000000
0.7641551 0.2003257 0.0000000
0.8815832 0.2510525 0.0000000
0.9519005 0.3698122 0.2597189
1.0000000 0.4864022 0.4090235
1.0000000 0.5861479 0.5349710
1.0000000 0.6641669 0.6274902
1.0000000 0.7258335 0.6984542
1.0000000 0.7747500 0.7537580
1.0000000 0.8157831 0.7995818
1.0000000 0.8647977 0.8536396
1.0000000 0.8983585 0.8903465
1.0000000 0.9219658 0.9160292
1.0000000 0.9389481 0.9344352
1.0000000 0.9514129 0.9479072
1.0000000 0.9607327 0.9579578
1.0000000 0.9678211 0.9655881
1.0000000 0.9732977 0.9714745
1.0000000 0.9775907 0.9760828
1.0000000 0.9810008 0.9797391
1.0000000 0.9837428 0.9826761
1.0000000 0.9859723 0.9850619
0.0000000 0.0921681 0.0422537
0.0000000 0.0920114 0.0390151
0.0000000 0.0917993 0.0325597
0.0000000 0.0915586 0.0097951
0.0388264 0.0917067 0.0000000
0.0578705 0.0920204 0.0000000
0.0767156 0.0925876 0.0000000
0.0980576 0.0938687 0.0000000
0.1269502 0.0986969 0.0000000
0.1622723 0.1039978 0.0000000
0.2061217 0.1100174 0.0000000
0.2611046 0.1171809 0.0000000
0.3302966 0.1261498 0.0000000
0.4168572 0.1379106 0.0000000
0.5226669 0.1539417 0.0000000
0.6433258 0.1766161 0.0000000
0.7637047 0.2100494 0.0000000
0.8808916 0.2578705 0.0000000
0.9514817 0.3728608 0.2596978
0.9998397 0.4878119 0.4090861
1.0000000 0.5867973 0.5350455
1.0000000 0.6644823 0.6275489
1.0000000 0.7259904 0.6984917
1.0000000 0.7748293 0.7537801
1.0000000 0.8158253 0.7995966
1.0000000 0.8648167 0.8536468
1.0000000 0.8983674 0.8903501
1.0000000 0.9219700 0.9160309
1.0000000 0.9389501 0.9344361
1.0000000 0.9514139 0.9479076
1.0000000 0.9607332 0.9579580
1.0000000 0.9678213 0.9655882
1.0000000 0.9732979 0.9714746
1.0000000 0.9775908 0.9760828
1.0000000 0.9810009 0.9797391
1.0000000 0.9837428 0.9826761
1.0000000 0.9859723 0.9850619
0.0000000 0.1179538 0.0543139
0.0000000 0.1178506 0.0519019
0.0000000 0.1177035 0.0475425
0.0000000 0.1175144 0.0385907
0.0168674 0.1173574 0.0000000
0.0515862 0.1175248 0.0000000
0.0748962 0.1178568 0.0000000
0.0984607 0.1184722 0.0000000
0.1252763 0.1199120 0.0000000
0.1613569 0.1255621 0.0000000
0.2057370 0.1319836 0.0000000
0.2610627 0.1394418 0.0000000
0.3304405 0.1484138 0.0000000
0.4170467 0.1596713 0.0000000
0.5227498 0.1744319 0.0000000
0.6430611 0.1947078 0.0000000
0.7629818 0.2244691 0.0000000
0.8797898 0.2683164 0.0000000
0.9508085 0.3776865 0.2596729
0.9993877 0.4900794 0.4092536
1.0000000 0.5878434 0.5351662
1.0000000 0.6649915 0.6276439
1.0000000 0.7262441 0.6985523
1.0000000 0.7749575 0.7538159
1.0000000 0.8158934 0.7996205
1.0000000 0.8648476 0.8536586
1.0000000 0.8983817 0.8903559
1.0000000 0.9219768 0.9160338
1.0000000 0.9389534 0.9344375
1.0000000 0.9514155 0.9479083
1.0000000 0.9607340 0.9579583
1.0000000 0.9678217 0.9655884
1.0000000 0.9732981 0.9714747
1.0000000 0.9775909 0.9760828
1.0000000 0.9810009 0.9797391
1.0000000 0.9837428 0.9826761
1.0000000 0.9859723 0.9850619
0.0000000 0.1497006 0.0692437
0.0000000 0.1496387 0.0674347
0.0000000 0.1495478 0.0643169
0.0000000 0.1494238 0.0586366
0.0000000 0.1492822 0.0467413
0.0271325 0.1492264 0.0000000
0.0666780 0.1494115 0.0000000
0.0956421 0.1497870 0.0000000
0.1252438 0.1504963 0.0000000
0.1590289 0.1522034 0.0000000
0.2044279 0.1591068 0.0000000
0.2604723 0.1671102 0.0000000
0.3303108 0.1764756 0.0000000
0.4171258 0.1876885 0.0000000
0.5227605 0.2015803 0.0000000
0.6425875 0.2195673 0.0000000
0.7618259 0.2451619 0.0000000
0.8780502 0.2839159 0.0000000
0.9497309 0.3852305 0.2596568
0.9986620 0.4936875 0.4095289
1.0000000 0.5895239 0.5353614
1.0000000 0.6658120 0.6277976
1.0000000 0.7266535 0.6986503
1.0000000 0.7751647 0.7538738
1.0000000 0.8160036 0.7996593
1.0000000 0.8648975 0.8536777
1.0000000 0.8984050 0.8903652
1.0000000 0.9219878 0.9160384
1.0000000 0.9389587 0.9344398
1.0000000 0.9514181 0.9479094
1.0000000 0.9607353 0.9579589
1.0000000 0.9678224 0.9655887
1.0000000 0.9732984 0.9714748
1.0000000 0.9775911 0.9760829
1.0000000 0.9810010 0.9797392
1.0000000 0.9837429 0.9826761
1.0000000 0.9859723 0.9850619
0.0000000 0.1892372 0.0879227
0.0000000 0.1892054 0.0865596
0.0000000 0.1891580 0.0842698
0.0000000 0.1890922 0.0803129
0.0000000 0.1890133 0.0730685
0.0000000 0.1889565 0.0577262
0.0369460 0.1890351 0.0000000
0.0850039 0.1892561 0.0000000
0.1213330 0.1897085 0.0000000
0.1586622 0.1905713 0.0000000
0.2013427 0.1926832 0.0000000
0.2587182 0.2013461 0.0000000
0.3294760 0.2114113 0.0000000
0.4168140 0.2230344 0.0000000
0.5225154 0.2365542 0.0000000
0.6417178 0.2525614 0.0000000
0.7599866 0.2737762 0.0000000
0.8753393 0.3064533 0.0000000
0.9480171 0.3968064 0.2596915
0.9975027 0.4993726 0.4099850
1.0000000 0.5922114 0.5356776
1.0000000 0.6671310 0.6280458
1.0000000 0.7273135 0.6988088
1.0000000 0.7754992 0.7539674
1.0000000 0.8161817 0.7997219
1.0000000 0.8649781 0.8537085
1.0000000 0.8984425 0.8903804
1.0000000 0.9220057 0.9160459
1.0000000 0.9389673 0.9344435
1.0000000 0.9514223 0.9479113
1.0000000 0.9607374 0.9579598
1.0000000 0.9678235 0.9655891
1.0000000 0.9732989 0.9714751
1.0000000 0.9775913 0.9760830
1.0000000 0.9810012 0.9797392
1.0000000 0.9837430 0.9826761
1.0000000 0.9859723 0.9850620
0.0000000 0.2388784 0.1114490
0.0000000 0.2388675 0.1104170
0.0000000 0.2388517 0.1087090
0.0000000 0.2388312 0.1058367
0.0000000 0.2388108 0.1008643
0.0000000 0.2388106 0.0917336
0.0000000 0.2388960 0.0722832
0.0477097 0.2391775 0.0000000
0.1077072 0.2394541 0.0000000
0.1535442 0.2400197 0.0000000
0.2007467 0.2411018 0.0000000
0.2547399 0.2437693 0.0000000
0.3271621 0.2546594 0.0000000
0.4155499 0.2670219 0.0000000
0.5216117 0.2806230 0.0000000
0.6400903 0.2950081 0.0000000
0.7570754 0.3118583 0.0000000
0.8711934 0.3377479 0.0000000
0.9453177 0.4141038 0.2598977
0.9956644 0.5081975 0.4107491
1.0000000 0.5964802 0.5361894
1.0000000 0.6692430 0.6284467
1.0000000 0.7283749 0.6990646
1.0000000 0.7760385 0.7541185
1.0000000 0.8164691 0.7998231
1.0000000 0.8651085 0.8537584
1.0000000 0.8985032 0.8904049
1.0000000 0.9220345 0.9160579
1.0000000 0.9389812 0.9344494
1.0000000 0.9514292 0.9479142
1.0000000 0.9607408 0.9579613
1.0000000 0.9678252 0.9655899
1.0000000 0.9732998 0.9714755
1.0000000 0.9775918 0.9760832
1.0000000 0.9810014 0.9797393
1.0000000 0.9837431 0.9826762
1.0000000 0.9859724 0.9850620
0.0000000 0.3013530 0.1410707
0.0000000 0.3013561 0.1402851
0.0000000 0.3013618 0.1389961
0.0000000 0.3013735 0.1368613
0.0000000 0.3013981 0.1332682
0.0000000 0.3014532 0.1270386
0.0000000 0.3015818 0.1155737
0.0000000 0.3018936 0.0910576
0.0606564 0.3024840 0.0000000
0.1362671 0.3028238 0.0000000
0.1942189 0.3035213 0.0000000
0.2539057 0.3048623 0.0000000
0.3220456 0.3081797 0.0000000
0.4123418 0.3213376 0.0000000
0.5192816 0.3352454 0.0000000
0.6370369 0.3481812 0.0000000
0.7524939 0.3607041 0.0000000
0.8650156 0.3793044 0.0000000
0.9411262 0.4390443 0.2605859
0.9927817 0.5215986 0.4120465
1.0000000 0.6031896 0.5370181
1.0000000 0.6726035 0.6290932
1.0000000 0.7300754 0.6994774
1.0000000 0.7769059 0.7543626
1.0000000 0.8169325 0.7999866
1.0000000 0.8653189 0.8538389
1.0000000 0.8986013 0.8904445
1.0000000 0.9220811 0.9160774
1.0000000 0.9390038 0.9344591
1.0000000 0.9514402 0.9479190
1.0000000 0.9607463 0.9579637
1.0000000 0.9678280 0.9655911
1.0000000 0.9733012 0.9714761
1.0000000 0.9775925 0.9760836
1.0000000 0.9810018 0.9797395
1.0000000 0.9837433 0.9826763
1.0000000 0.9859725 0.9850620
0.0000000 0.3793016 0.1778595
0.0000000 0.3793132 0.1772571
0.0000000 0.3793323 0.1762739
0.0000000 0.3793643 0.1746598
0.0000000 0.3794186 0.1719848
0.0000000 0.3795136 0.1674780
0.0000000 0.3796853 0.1596510
0.0000000 0.3800106 0.1452053
0.0000000 0.3806633 0.1141428
0.0780389 0.3816844 0.0000000
0.1725496 0.3820454 0.0000000
0.2454835 0.3828155 0.0000000
0.3204905 0.3843342 0.0000000
0.4055376 0.3881368 0.0000000
0.5142167 0.4021103 0.0000000
0.6314115 0.4132668 0.0000000
0.7453415 0.4211961 0.0000000
0.8562109 0.4316106 0.0000000
0.9347436 0.4734443 0.2624852
0.9883330 0.5413307 0.4142796
1.0000000 0.6135718 0.5383592
1.0000000 0.6778998 0.6301337
1.0000000 0.7327838 0.7001418
1.0000000 0.7782960 0.7547560
1.0000000 0.8176779 0.8002503
1.0000000 0.8656582 0.8539690
1.0000000 0.8987596 0.8905085
1.0000000 0.9221564 0.9161090
1.0000000 0.9390402 0.9344747
1.0000000 0.9514581 0.9479268
1.0000000 0.9607553 0.9579677
1.0000000 0.9678325 0.9655931
1.0000000 0.9733035 0.9714771
1.0000000 0.9775937 0.9760841
1.0000000 0.9810024 0.9797398
1.0000000 0.9837436 0.9826764
1.0000000 0.9859727 0.9850621
0.0000000 0.4736560 0.2217136
0.0000000 0.4736717 0.2212470
0.0000000 0.4736971 0.2204877
0.0000000 0.4737387 0.2192479
0.0000000 0.4738073 0.2172114
0.0000000 0.4739214 0.2138334
0.0000000 0.4741144 0.2081330
0.0000000 0.4744483 0.1982061
0.0000000 0.4750457 0.1797907
0.0000000 0.4761667 0.1396721
0.1044133 0.4776476 0.0000000
0.2186968 0.4778394 0.0000000
0.3089062 0.4783885 0.0000000
0.4013624 0.4796326 0.0000000
0.5043606 0.4829440 0.0000000
0.6214679 0.4910262 0.0000000
0.7344939 0.4930881 0.0000000
0.8441882 0.4941828 0.0000000
0.9252582 0.5185798 0.2671253
0.9816156 0.5692343 0.4181540
1.0000000 0.6292886 0.5405271
1.0000000 0.6861289 0.6318026
1.0000000 0.7370588 0.7012083
1.0000000 0.7805115 0.7553887
1.0000000 0.8188725 0.8006750
1.0000000 0.8662041 0.8541789
1.0000000 0.8990150 0.8906119
1.0000000 0.9222781 0.9161600
1.0000000 0.9390991 0.9345000
1.0000000 0.9514870 0.9479394
1.0000000 0.9607697 0.9579740
1.0000000 0.9678397 0.9655963
1.0000000 0.9733072 0.9714788
1.0000000 0.9775956 0.9760849
1.0000000 0.9810034 0.9797402
1.0000000 0.9837441 0.9826767
1.0000000 0.9859730 0.9850622
0.0000000 0.5779505 0.2678325
0.0000000 0.5779652 0.2674637
0.0000000 0.5779891 0.2668648
0.0000000 0.5780278 0.2658899
0.0000000 0.5780911 0.2642968
0.0000000 0.5781950 0.2616773
0.0000000 0.5783668 0.2573241
0.0000000 0.5786547 0.2499548
0.0000000 0.5791464 0.2370471
0.0000000 0.5800113 0.2128074
0.0000000 0.5815994 0.1579332
0.1489422 0.5829659 0.0000000
0.2766971 0.5822700 0.0000000
0.3830428 0.5814682 0.0000000
0.4910357 0.5807094 0.0000000
0.6052854 0.5802633 0.0000000
0.7186599 0.5748758 0.0000000
0.8278622 0.5666470 0.0000000
0.9115339 0.5749024 0.2772645
0.9717446 0.6068295 0.4248419
1.0000000 0.6524065 0.5440185
1.0000000 0.6986590 0.6344658
1.0000000 0.7437161 0.7029120
1.0000000 0.7840116 0.7564024
1.0000000 0.8207760 0.8013568
1.0000000 0.8670791 0.8545165
1.0000000 0.8994258 0.8907786
1.0000000 0.9224742 0.9162422
1.0000000 0.9391942 0.9345407
1.0000000 0.9515338 0.9479598
1.0000000 0.9607930 0.9579842
1.0000000 0.9678515 0.9656015
1.0000000 0.9733133 0.9714814
1.0000000 0.9775987 0.9760863
1.0000000 0.9810050 0.9797410
1.0000000 0.9837450 0.9826770
1.0000000 0.9859734 0.9850624
0.0000000 0.6745669 0.3038124
0.0000000 0.6745794 0.3035107
0.0000000 0.6745996 0.3030210
0.0000000 0.6746326 0.3022253
0.0000000 0.6746861 0.3009289
0.0000000 0.6747734 0.2988075
0.0000000 0.6749164 0.2953108
0.0000000 0.6751525 0.2894757
0.0000000 0.6755468 0.2795241
0.0000000 0.6762176 0.2618423
0.0000000 0.6773907 0.2275281
0.0000000 0.6795309 0.1384414
0.2177161 0.6794147 0.0000000
0.3460787 0.6773547 0.0000000
0.4603901 0.6747069 0.0000000
0.5747493 0.6716232 0.0000000
0.6948600 0.6666988 0.0000000
0.8050446 0.6488935 0.0000000
0.8921994 0.6420677 0.2969053
0.9576794 0.6549053 0.4360916
1.0000000 0.6852808 0.5495961
1.0000000 0.7172327 0.6386809
1.0000000 0.7538855 0.7056144
1.0000000 0.7894693 0.7580174
1.0000000 0.8237822 0.8024464
1.0000000 0.8684737 0.8550583
1.0000000 0.9000843 0.8910468
1.0000000 0.9227897 0.9163749
1.0000000 0.9393475 0.9346066
1.0000000 0.9516093 0.9479927
1.0000000 0.9608306 0.9580008
1.0000000 0.9678705 0.9656100
1.0000000 0.9733230 0.9714857
1.0000000 0.9776038 0.9760886
1.0000000 0.9810076 0.9797421
1.0000000 0.9837464 0.9826777
1.0000000 0.9859742 0.9850628
0.0000000 0.7588036 0.3235298
0.0000000 0.7588147 0.3232724
0.0000000 0.7588326 0.3228549
0.0000000 0.7588616 0.3221772
0.0000000 0.7589088 0.3210748
0.0000000 0.7589854 0.3192759
0.0000000 0.7591102 0.3163245
0.0000000 0.7593144 0.3114384
0.0000000 0.7596507 0.3032220
0.0000000 0.7602101 0.2890099
0.0000000 0.7611559 0.2630111
0.0000000 0.7627952 0.2083986
0.1248199 0.7647088 0.0000000
0.2952013 0.7623839 0.0000000
0.4147909 0.7592646 0.0000000
0.5286992 0.7552203 0.0000000
0.6465041 0.7499278 0.0000000
0.7709676 0.7407122 0.1524441
0.8657705 0.7189437 0.3297751
0.9382874 0.7133134 0.4540958
0.9914632 0.7269049 0.5591412
1.0000000 0.7438908 0.6452716
1.0000000 0.7690248 0.7098564
1.0000000 0.7978220 0.7605690
1.0000000 0.8284675 0.8041753
1.0000000 0.8706777 0.8559229
1.0000000 0.9011341 0.8914767
1.0000000 0.9232956 0.9165882
1.0000000 0.9395941 0.9347127
1.0000000 0.9517310 0.9480457
1.0000000 0.9608914 0.9580275
1.0000000 0.9679013 0.9656236
1.0000000 0.9733387 0.9714927
1.0000000 0.9776119 0.9760922
1.0000000 0.9810119 0.9797440
1.0000000 0.9837486 0.9826786
1.0000000 0.9859753 0.9850633
0.0000000 0.8316571 0.3252281
0.0000000 0.8316666 0.3250096
0.0000000 0.8316821 0.3246556
0.0000000 0.8317071 0.3240813
0.0000000 0.8317475 0.3231487
0.0000000 0.8318131 0.3216305
0.0000000 0.8319196 0.3191496
0.0000000 0.8320926 0.3150699
0.0000000 0.8323744 0.3082874
0.0000000 0.8328357 0.2967915
0.0000000 0.8335953 0.2765716
0.0000000 0.8348599 0.2379659
0.0000000 0.8370008 0.1396251
0.2274556 0.8363092 0.0000000
0.3561543 0.8334521 0.0000000
0.4735467 0.8290590 0.1021417
0.5938807 0.8223649 0.2010126
0.7141695 0.8141597 0.2873827
0.8312585 0.8031537 0.3764657
0.9125428 0.7808766 0.4809365
0.9731436 0.7763359 0.5744695
1.0000000 0.7808654 0.6553977
1.0000000 0.7908642 0.7164177
1.0000000 0.8102877 0.7645518
1.0000000 0.8356308 0.8068901
1.0000000 0.8741154 0.8572922
1.0000000 0.9027935 0.8921622
1.0000000 0.9241021 0.9169301
1.0000000 0.9399895 0.9348833
1.0000000 0.9519268 0.9481313
1.0000000 0.9609895 0.9580707
1.0000000 0.9679509 0.9656455
1.0000000 0.9733641 0.9715040
1.0000000 0.9776250 0.9760980
1.0000000 0.9810187 0.9797471
1.0000000 0.9837522 0.9826803
1.0000000 0.9859773 0.9850641
0.0000000 0.8948368 0.3268581
0.0000000 0.8948441 0.3266963
0.0000000 0.8948558 0.3264341
0.0000000 0.8948747 0.3260092
0.0000000 0.8949054 0.3253198
0.0000000 0.8949550 0.3241994
0.0000000 0.8950355 0.3223739
0.0000000 0.8951658 0.3193865
0.0000000 0.8953773 0.3144609
0.0000000 0.8957210 0.3062346
0.0000000 0.8962808 0.2921697
0.1256643 0.8962562 0.2832319
0.2201474 0.8950339 0.2887256
0.3020345 0.8931702 0.2974768
0.3856521 0.8904077 0.3111794
0.4746551 0.8864606 0.3319991
0.5700295 0.8810723 0.3621922
0.6713236 0.8741234 0.4033102
0.7766937 0.8658370 0.4552912
0.8801318 0.8550692 0.5176959
0.9492875 0.8342219 0.5966954
1.0000000 0.8305644 0.6705989
1.0000000 0.8213020 0.7263672
1.0000000 0.8283212 0.7706662
1.0000000 0.8462996 0.8110892
1.0000000 0.8793772 0.8594362
1.0000000 0.9053827 0.8932461
1.0000000 0.9253770 0.9174747
1.0000000 0.9406200 0.9351566
1.0000000 0.9522409 0.9482688
1.0000000 0.9611473 0.9581403
1.0000000 0.9680309 0.9656810
1.0000000 0.9734051 0.9715222
1.0000000 0.9776462 0.9761074
1.0000000 0.9810298 0.9797520
1.0000000 0.9837581 0.9826829
1.0000000 0.9859804 0.9850655
0.3466935 0.9394467 0.4459835
0.3468183 0.9394425 0.4459954
0.3470202 0.9394358 0.4460147
0.3473463 0.9394248 0.4460458
0.3478730 0.9394071 0.4460963
0.3487221 0.9393786 0.4461779
0.3500881 0.9393324 0.4463100
0.3522780 0.9392579 0.4465237
0.3557690 0.9391377 0.4468694
0.3612861 0.9389446 0.4474287
0.3698908 0.9386354 0.4483331
0.3830533 0.9381433 0.4497947
0.4026470 0.9373676 0.4521531
0.4307845 0.9361626 0.4559468
0.4694510 0.9343296 0.4620093
0.5200129 0.9316218 0.4715719
0.5828113 0.9277720 0.4862977
0.6570173 0.9225558 0.5080941
0.7406701 0.9159060 0.5385496
0.8305991 0.9081097 0.5780818
0.9200284 0.8982010 0.6265783
0.9786884 0.8795900 0.6888914
1.0000000 0.8623104 0.7410752
1.0000000 0.8535152 0.7798491
1.0000000 0.8616715 0.8174524
1.0000000 0.8872255 0.8627386
1.0000000 0.9093474 0.8949392
1.0000000 0.9273667 0.9183349
1.0000000 0.9416168 0.9355919
1.0000000 0.9527416 0.9484891
1.0000000 0.9614002 0.9582522
1.0000000 0.9681597 0.9657382
1.0000000 0.9734712 0.9715516
1.0000000 0.9776805 0.9761227
1.0000000 0.9810477 0.9797600
1.0000000 0.9837675 0.9826871
1.0000000 0.9859854 0.9850677
0.5120028 0.9717218 0.5705578
0.5120458 0.9717194 0.5705636
0.5121154 0.9717155 0.5705730
0.5122279 0.9717092 0.5705882
0.5124099 0.9716990 0.5706128
0.5127041 0.9716824 0.5706526
0.5131791 0.9716557 0.5707171
0.5139455 0.9716125 0.5708214
0.5151792 0.9715428 0.5709902
0.5171595 0.9714305 0.5712631
0.5203222 0.9712499 0.5717046
