release/datafiles/colormanagement/luts/AgX_Base_sRGB.cube
TITLE "AgX_Formation sRGB"
# AgX Base sRGB Formation LUT
# This LUT expects input to be E Gamut Log2 encoding from -10 stops to +15 stops
# But the end image formation will be from -10 to 6.5 encoded in power 2.4
#  rotate = [3.0, -1, -2.0], inset = [0.4, 0.22, 0.13], outset = [0.4, 0.22, 0.04]
# The image formed has 40% per-channel shifts
LUT_3D_SIZE 7
0.0000005 0.0000000 0.0000018
0.0753240 0.0173279 0.0000000
0.3295491 0.0693852 0.0000000
0.9525446 0.3650527 0.2597600
1.0000000 0.8157187 0.7995592
1.0000000 0.9607320 0.9579574
1.0000000 0.9859722 0.9850619
0.0000000 0.0709322 0.0323807
0.0758011 0.0725704 0.0000000
0.3300913 0.1088272 0.0000000
0.9519005 0.3698122 0.2597189
1.0000000 0.8157831 0.7995818
1.0000000 0.9607327 0.9579578
1.0000000 0.9859723 0.9850619
0.0000000 0.3013530 0.1410707
0.0000000 0.3015818 0.1155737
0.3220456 0.3081797 0.0000000
0.9411262 0.4390443 0.2605859
1.0000000 0.8169325 0.7999866
1.0000000 0.9607463 0.9579637
1.0000000 0.9859725 0.9850620
0.0000000 0.8316571 0.3252281
0.0000000 0.8319196 0.3191496
0.0000000 0.8370008 0.1396251
0.8312585 0.8031537 0.3764657
1.0000000 0.8356308 0.8068901
1.0000000 0.9609895 0.9580707
1.0000000 0.9859773 0.9850641
0.7774161 1.0000000 0.7991647
0.7775212 1.0000000 0.7991890
0.7793936 1.0000000 0.7996242
0.8091785 1.0000000 0.8071828
1.0000000 0.9898478 0.8823808
1.0000000 0.9649652 0.9598649
1.0000000 0.9860618 0.9851018
0.9592484 1.0000000 0.9630876
0.9592494 1.0000000 0.9630879
0.9592665 1.0000000 0.9630927
0.9595721 1.0000000 0.9631783
0.9645277 1.0000000 0.9646372
1.0000000 0.9978895 0.9771700
1.0000000 0.9874501 0.9857330
0.9858248 1.0000000 0.9872359
0.9858248 1.0000000 0.9872359
0.9858251 1.0000000 0.9872360
0.9858308 1.0000000 0.9872376
0.9859331 1.0000000 0.9872660
0.9876005 1.0000000 0.9877490
1.0000000 0.9992307 0.9917906
0.0000000 0.0245534 0.0566949
0.0738625 0.0000000 0.0671625
0.3247178 0.0000000 0.0709858
0.9533867 0.3605614 0.2603313
1.0000000 0.8156650 0.7995485
1.0000000 0.9607313 0.9579572
1.0000000 0.9859722 0.9850619
0.0000000 0.0737776 0.0736158
0.0660524 0.0660521 0.0660583
0.3340192 0.0702752 0.0000000
0.9527315 0.3654532 0.2602709
1.0000000 0.8157294 0.7995711
1.0000000 0.9607320 0.9579575
1.0000000 0.9859722 0.9850619
0.0000000 0.2989219 0.1596481
0.0000000 0.2986888 0.1398111
0.3175574 0.3038835 0.0000000
0.9417860 0.4362082 0.2608413
1.0000000 0.8168795 0.7999758
1.0000000 0.9607457 0.9579635
1.0000000 0.9859725 0.9850620
0.0000000 0.8312531 0.3311542
0.0000000 0.8315137 0.3252344
0.0000000 0.8365631 0.1580742
0.8310797 0.8029658 0.3759216
1.0000000 0.8355870 0.8068785
1.0000000 0.9609888 0.9580705
1.0000000 0.9859772 0.9850641
0.7773008 1.0000000 0.7991314
0.7774059 1.0000000 0.7991557
0.7792802 1.0000000 0.7995910
0.8090913 1.0000000 0.8071523
1.0000000 0.9898472 0.8823729
1.0000000 0.9649647 0.9598647
1.0000000 0.9860618 0.9851018
0.9592474 1.0000000 0.9630873
0.9592484 1.0000000 0.9630876
0.9592655 1.0000000 0.9630924
0.9595711 1.0000000 0.9631780
0.9645269 1.0000000 0.9646370
1.0000000 0.9978895 0.9771699
1.0000000 0.9874501 0.9857330
0.9858247 1.0000000 0.9872359
0.9858248 1.0000000 0.9872359
0.9858251 1.0000000 0.9872360
0.9858308 1.0000000 0.9872376
0.9859331 1.0000000 0.9872660
0.9876004 1.0000000 0.9877490
1.0000000 0.9992307 0.9917906
0.0000000 0.1000722 0.2357097
0.0310847 0.0726444 0.2578440
0.3227469 0.0000000 0.2937590
0.9718481 0.2399774 0.2758004
1.0000000 0.8146945 0.7993577
1.0000000 0.9607191 0.9579528
1.0000000 0.9859720 0.9850618
0.0000000 0.1277455 0.2442855
0.0000000 0.1091976 0.2575316
0.3250296 0.0000000 0.2958371
0.9709398 0.2504178 0.2753289
1.0000000 0.8147596 0.7993803
1.0000000 0.9607199 0.9579531
1.0000000 0.9859720 0.9850618
0.0000000 0.3078472 0.3073764
0.0000000 0.3049892 0.3045235
0.2838594 0.2838583 0.2838815
0.9560038 0.3725253 0.2692724
1.0000000 0.8159216 0.7997841
1.0000000 0.9607335 0.9579591
1.0000000 0.9859723 0.9850619
0.0000000 0.8243079 0.4205791
0.0000000 0.8245252 0.4164412
0.0000000 0.8289057 0.3253513
0.8277974 0.7995189 0.3658800
1.0000000 0.8347973 0.8066720
1.0000000 0.9609768 0.9580661
1.0000000 0.9859770 0.9850640
0.7752075 1.0000000 0.7985312
0.7753145 1.0000000 0.7985556
0.7772231 1.0000000 0.7989937
0.8075125 1.0000000 0.8066029
1.0000000 0.9898358 0.8822294
1.0000000 0.9649549 0.9598608
1.0000000 0.9860616 0.9851017
0.9592292 1.0000000 0.9630816
0.9592302 1.0000000 0.9630819
0.9592473 1.0000000 0.9630866
0.9595532 1.0000000 0.9631723
0.9645127 1.0000000 0.9646320
1.0000000 0.9978894 0.9771691
1.0000000 0.9874499 0.9857329
0.9858244 1.0000000 0.9872358
0.9858244 1.0000000 0.9872358
0.9858247 1.0000000 0.9872359
0.9858305 1.0000000 0.9872375
0.9859328 1.0000000 0.9872659
0.9876002 1.0000000 0.9877489
1.0000000 0.9992307 0.9917906
0.0000000 0.3491016 0.7849561
0.0000000 0.3456528 0.7896872
0.2898690 0.3288442 0.8122165
0.8910924 0.4446981 0.8228119
1.0000000 0.7949353 0.7966888
1.0000000 0.9604990 0.9578733
1.0000000 0.9859676 0.9850601
0.0000000 0.3537086 0.7826341
0.0000000 0.3503869 0.7872307
0.2833615 0.3303617 0.8133791
0.8911803 0.4449139 0.8229084
1.0000000 0.7950171 0.7967097
1.0000000 0.9604998 0.9578736
1.0000000 0.9859676 0.9850601
0.0000000 0.4274842 0.7628935
0.0000000 0.4249639 0.7637430
0.0000000 0.3718621 0.8242637
0.8927403 0.4487494 0.8246237
1.0000000 0.7964739 0.7970845
1.0000000 0.9605135 0.9578796
1.0000000 0.9859679 0.9850602
0.0000000 0.8239454 0.8193445
0.0000000 0.8238099 0.8192102
0.0000000 0.8213408 0.8167646
0.7853074 0.7853064 0.7853274
1.0000000 0.8192801 0.8035061
1.0000000 0.9607596 0.9579872
1.0000000 0.9859726 0.9850623
0.7281307 1.0000000 0.7870076
0.7282919 1.0000000 0.7870347
0.7311518 1.0000000 0.7875204
0.7738707 1.0000000 0.7960247
1.0000000 0.9896259 0.8795716
1.0000000 0.9647771 0.9597898
1.0000000 0.9860573 0.9851000
0.9588999 1.0000000 0.9629783
0.9589009 1.0000000 0.9629785
0.9589183 1.0000000 0.9629834
0.9592288 1.0000000 0.9630698
0.9642561 1.0000000 0.9645417
1.0000000 0.9978880 0.9771534
1.0000000 0.9874463 0.9857314
0.9858184 1.0000000 0.9872340
0.9858185 1.0000000 0.9872340
0.9858188 1.0000000 0.9872341
0.9858245 1.0000000 0.9872357
0.9859269 1.0000000 0.9872641
0.9875955 1.0000000 0.9877473
1.0000000 0.9992307 0.9917904
0.7289017 0.7887888 1.0000000
0.7292172 0.7888780 1.0000000
0.7347672 0.7904579 1.0000000
0.8055039 0.8110428 1.0000000
1.0000000 0.8670202 0.9735845
1.0000000 0.9559389 0.9563863
1.0000000 0.9858884 0.9850291
0.7286621 0.7887553 1.0000000
0.7289781 0.7888445 1.0000000
0.7345386 0.7904261 1.0000000
0.8054227 0.8110654 1.0000000
1.0000000 0.8670245 0.9735853
1.0000000 0.9559399 0.9563867
1.0000000 0.9858884 0.9850291
0.7242555 0.7881326 1.0000000
0.7245828 0.7882236 1.0000000
0.7303377 0.7898357 1.0000000
0.8039457 0.8114719 1.0000000
1.0000000 0.8671018 0.9735995
1.0000000 0.9559575 0.9563934
1.0000000 0.9858887 0.9850292
0.6434444 0.7866188 1.0000000
0.6434718 0.7865417 1.0000000
0.6439781 0.7851440 1.0000000
0.7513779 0.8052714 1.0000000
1.0000000 0.8684701 0.9738505
1.0000000 0.9562714 0.9565129
1.0000000 0.9858935 0.9850313
0.7699081 1.0000000 0.9973652
0.7698964 1.0000000 0.9973651
0.7696865 1.0000000 0.9973631
0.7658301 1.0000000 0.9973266
0.9999934 0.9999931 1.0000000
1.0000000 0.9612173 0.9584806
1.0000000 0.9859791 0.9850693
0.9517160 1.0000000 0.9609182
0.9517173 1.0000000 0.9609185
0.9517418 1.0000000 0.9609243
0.9521768 1.0000000 0.9610276
0.9588913 1.0000000 0.9627631
1.0000000 0.9978619 0.9768658
1.0000000 0.9873824 0.9857046
0.9857101 1.0000000 0.9872013
0.9857101 1.0000000 0.9872014
0.9857104 1.0000000 0.9872014
0.9857163 1.0000000 0.9872030
0.9858201 1.0000000 0.9872317
0.9875104 1.0000000 0.9877191
1.0000000 0.9992303 0.9917866
0.9492707 0.9585576 1.0000000
0.9492737 0.9585588 1.0000000
0.9493283 0.9585802 1.0000000
0.9502892 0.9589590 1.0000000
0.9627567 0.9637442 1.0000000
1.0000000 0.9733790 0.9943975
1.0000000 0.9842372 0.9844252
0.9492685 0.9585571 1.0000000
0.9492715 0.9585583 1.0000000
0.9493261 0.9585797 1.0000000
0.9502871 0.9589585 1.0000000
0.9627560 0.9637444 1.0000000
1.0000000 0.9733790 0.9943975
1.0000000 0.9842372 0.9844252
0.9492289 0.9585477 1.0000000
0.9492319 0.9585489 1.0000000
0.9492866 0.9585704 1.0000000
0.9502492 0.9589496 1.0000000
0.9627432 0.9637482 1.0000000
1.0000000 0.9733795 0.9943976
1.0000000 0.9842376 0.9844253
0.9485021 0.9583745 1.0000000
0.9485052 0.9583757 1.0000000
0.9485615 0.9583977 1.0000000
0.9495536 0.9587857 1.0000000
0.9625116 0.9638169 1.0000000
1.0000000 0.9733888 0.9943995
1.0000000 0.9842437 0.9844278
0.9360754 0.9570688 1.0000000
0.9360756 0.9570680 1.0000000
0.9360777 0.9570541 1.0000000
0.9361190 0.9568022 1.0000000
0.9536557 0.9620969 1.0000000
1.0000000 0.9735542 0.9944340
1.0000000 0.9843536 0.9844717
0.9592722 1.0000000 0.9994935
0.9592721 1.0000000 0.9994935
0.9592710 1.0000000 0.9994935
0.9592514 1.0000000 0.9994932
0.9588938 1.0000000 0.9994889
0.9999987 0.9999986 1.0000000
1.0000000 0.9860934 0.9851917
0.9833637 1.0000000 0.9865458
0.9833637 1.0000000 0.9865458
0.9833642 1.0000000 0.9865459
0.9833722 1.0000000 0.9865478
0.9835151 1.0000000 0.9865823
0.9857403 1.0000000 0.9871595
1.0000000 0.9992238 0.9917162
0.9836821 0.9865193 1.0000000
0.9836821 0.9865193 1.0000000
0.9836830 0.9865197 1.0000000
0.9836992 0.9865261 1.0000000
0.9839845 0.9866397 1.0000000
0.9877323 0.9880669 1.0000000
1.0000000 0.9905226 0.9979932
0.9836820 0.9865193 1.0000000
0.9836821 0.9865193 1.0000000
0.9836830 0.9865197 1.0000000
0.9836992 0.9865261 1.0000000
0.9839844 0.9866397 1.0000000
0.9877323 0.9880669 1.0000000
1.0000000 0.9905226 0.9979932
0.9836813 0.9865191 1.0000000
0.9836814 0.9865191 1.0000000
0.9836823 0.9865194 1.0000000
0.9836984 0.9865259 1.0000000
0.9839837 0.9866395 1.0000000
0.9877320 0.9880669 1.0000000
1.0000000 0.9905226 0.9979932
0.9836684 0.9865153 1.0000000
0.9836684 0.9865153 1.0000000
0.9836693 0.9865157 1.0000000
0.9836855 0.9865221 1.0000000
0.9839713 0.9866359 1.0000000
0.9877275 0.9880675 1.0000000
1.0000000 0.9905228 0.9979932
0.9834311 0.9864459 1.0000000
0.9834311 0.9864459 1.0000000
0.9834321 0.9864463 1.0000000
0.9834488 0.9864529 1.0000000
0.9837435 0.9865696 1.0000000
0.9876449 0.9880785 1.0000000
1.0000000 0.9905251 0.9979937
0.9793384 0.9857626 1.0000000
0.9793384 0.9857626 1.0000000
0.9793385 0.9857623 1.0000000
0.9793386 0.9857576 1.0000000
0.9793421 0.9856712 1.0000000
0.9846498 0.9873128 1.0000000
1.0000000 0.9905655 0.9980023
0.9858211 1.0000000 0.9998282
0.9858211 1.0000000 0.9998282
0.9858211 1.0000000 0.9998282
0.9858208 1.0000000 0.9998282
0.9858162 1.0000000 0.9998282
0.9857321 1.0000000 0.9998272
0.9999995 0.9999995 1.0000000
