release/datafiles/colormanagement/luts/AgX_Base_sRGB.cube
TITLE "AgX_Formation sRGB"
# AgX Base sRGB Formation LUT
# This LUT expects input to be E Gamut Log2 encoding from -10 stops to +15 stops
# But the end image formation will be from -10 to 6.5 encoded in power 2.4
#  rotate = [3.0, -1, -2.0], inset = [0.4, 0.22, 0.13], outset = [0.4, 0.22, 0.04]
# The image formed has 40% per-channel shifts
LUT_3D_SIZE 5
0.0000005 0.0000000 0.0000018
0.1613808 0.0355662 0.0000000
0.9525446 0.3650527 0.2597600
1.0000000 0.9219594 0.9160265
1.0000000 0.9859722 0.9850619
0.0000000 0.1497006 0.0692437
0.1590289 0.1522034 0.0000000
0.9497309 0.3852305 0.2596568
1.0000000 0.9219878 0.9160384
1.0000000 0.9859723 0.9850619
0.0000000 0.8316571 0.3252281
0.0000000 0.8328357 0.2967915
0.8312585 0.8031537 0.3764657
1.0000000 0.9241021 0.9169301
1.0000000 0.9859773 0.9850641
0.9156989 1.0000000 0.9234803
0.9157371 1.0000000 0.9234907
0.9185679 1.0000000 0.9242703
1.0000000 0.9958107 0.9538670
1.0000000 0.9863453 0.9852287
0.9858248 1.0000000 0.9872359
0.9858248 1.0000000 0.9872359
0.9858308 1.0000000 0.9872376
0.9862753 1.0000000 0.9873621
1.0000000 0.9992307 0.9917906
0.0000000 0.0498476 0.1161452
0.1583627 0.0000000 0.1440833
0.9564056 0.3440191 0.2625011
1.0000000 0.9219346 0.9160186
1.0000000 0.9859722 0.9850619
0.0000000 0.1538622 0.1535858
0.1395984 0.1395978 0.1396094
0.9533685 0.3668211 0.2620147
1.0000000 0.9219631 0.9160306
1.0000000 0.9859722 0.9850619
0.0000000 0.8298789 0.3505124
0.0000000 0.8310206 0.3252563
0.8304636 0.8023183 0.3740444
1.0000000 0.9240786 0.9169224
1.0000000 0.9859772 0.9850641
0.9156578 1.0000000 0.9234673
0.9156960 1.0000000 0.9234777
0.9185294 1.0000000 0.9242577
1.0000000 0.9958105 0.9538647
1.0000000 0.9863453 0.9852287
0.9858247 1.0000000 0.9872359
0.9858248 1.0000000 0.9872359
0.9858307 1.0000000 0.9872376
0.9862752 1.0000000 0.9873621
1.0000000 0.9992307 0.9917906
0.0000000 0.3491016 0.7849561
0.0383449 0.3328572 0.8066227
0.8910924 0.4446981 0.8228119
1.0000000 0.9199970 0.9154228
1.0000000 0.9859676 0.9850601
0.0000000 0.3688126 0.7752796
0.0000000 0.3547150 0.7948403
0.8914810 0.4456521 0.8232387
1.0000000 0.9200269 0.9154349
1.0000000 0.9859677 0.9850601
0.0000000 0.8239454 0.8193445
0.0000000 0.8233436 0.8187484
0.7853074 0.7853064 0.7853274
1.0000000 0.9222458 0.9163375
1.0000000 0.9859726 0.9850623
0.9123939 1.0000000 0.9224596
0.9124351 1.0000000 0.9224703
0.9154777 1.0000000 0.9232796
1.0000000 0.9957947 0.9536840
1.0000000 0.9863410 0.9852270
0.9858184 1.0000000 0.9872340
0.9858185 1.0000000 0.9872340
0.9858245 1.0000000 0.9872357
0.9862694 1.0000000 0.9873603
1.0000000 0.9992307 0.9917904
0.8888875 0.9104221 1.0000000
0.8890192 0.9104713 1.0000000
0.8982821 0.9139865 1.0000000
1.0000000 0.9462443 0.9888352
1.0000000 0.9856083 0.9849209
0.8887997 0.9104075 1.0000000
0.8889316 0.9104568 1.0000000
0.8982092 0.9139755 1.0000000
1.0000000 0.9462457 0.9888355
1.0000000 0.9856084 0.9849210
0.8814089 0.9090907 1.0000000
0.8815608 0.9091451 1.0000000
0.8921432 0.9129891 1.0000000
1.0000000 0.9463508 0.9888567
1.0000000 0.9856136 0.9849232
0.9152709 1.0000000 0.9989501
0.9152678 1.0000000 0.9989500
0.9150326 1.0000000 0.9989473
0.9999974 0.9999973 1.0000000
1.0000000 0.9860013 0.9850930
0.9853239 1.0000000 0.9870866
0.9853240 1.0000000 0.9870866
0.9853304 1.0000000 0.9870884
0.9858050 1.0000000 0.9872181
1.0000000 0.9992291 0.9917733
0.9836821 0.9865193 1.0000000
0.9836823 0.9865194 1.0000000
0.9836992 0.9865261 1.0000000
0.9848956 0.9870045 1.0000000
1.0000000 0.9905226 0.9979932
0.9836819 0.9865192 1.0000000
0.9836821 0.9865193 1.0000000
0.9836990 0.9865260 1.0000000
0.9848955 0.9870045 1.0000000
1.0000000 0.9905226 0.9979932
0.9836684 0.9865153 1.0000000
0.9836686 0.9865154 1.0000000
0.9836855 0.9865221 1.0000000
0.9848840 0.9870012 1.0000000
1.0000000 0.9905228 0.9979932
0.9825395 0.9861804 1.0000000
0.9825397 0.9861805 1.0000000
0.9825593 0.9861882 1.0000000
0.9839354 0.9867269 1.0000000
1.0000000 0.9905328 0.9979953
0.9858211 1.0000000 0.9998282
0.9858211 1.0000000 0.9998282
0.9858208 1.0000000 0.9998282
0.9858003 1.0000000 0.9998280
0.9999995 0.9999995 1.0000000
