release/datafiles/colormanagement/luts/AgX_Base_Rec2020.cube
TITLE "AgX_Formation Rec.2020"
# AgX Base Rec.2020 Formation LUT
# This LUT expects input to be E Gamut Log2 encoding from -10 stops to +15 stops
# But the end image formation will be from -10 to 6.5 encoded in power 2.4
#  rotate = [3.0, -1, -2.0], inset = [0.4, 0.22, 0.13], outset = [0.4, 0.22, 0.04]
# The image formed has 40% per-channel shifts
LUT_3D_SIZE 5
0.0000005 0.0000000 0.0000018
0.1406683 0.0453283 0.0000000
0.8022633 0.4457525 0.3046013
1.0000000 0.9521240 0.9417171
1.0000000 0.9920453 0.9904691
0.0553528 0.1431063 0.0000000
0.1518780 0.1496308 0.0000000
0.8023145 0.4594688 0.3066681
1.0000000 0.9521437 0.9417229
1.0000000 0.9920453 0.9904691
0.4625786 0.8123527 0.2637923
0.4758657 0.8119029 0.2662138
0.8090496 0.8019573 0.4516200
1.0000000 0.9535974 0.9421623
1.0000000 0.9920483 0.9904699
0.9504323 1.0000000 0.9356659
0.9504539 1.0000000 0.9356738
0.9520563 1.0000000 0.9362690
1.0000000 0.9989454 0.9613864
1.0000000 0.9922679 0.9905275
0.9916726 1.0000000 0.9894265
0.9916727 1.0000000 0.9894265
0.9916761 1.0000000 0.9894277
0.9919284 1.0000000 0.9895159
1.0000000 0.9998063 0.9931780
0.0170646 0.0381671 0.1197218
0.1355409 0.0417696 0.1415701
0.8031686 0.4322170 0.3046031
1.0000000 0.9521069 0.9417143
1.0000000 0.9920453 0.9904691
0.0000000 0.1420146 0.1471371
0.1395987 0.1395980 0.1396082
0.8031347 0.4471600 0.3064865
1.0000000 0.9521265 0.9417202
1.0000000 0.9920453 0.9904691
0.4470904 0.8122763 0.2602658
0.4617419 0.8117832 0.2625646
0.8082235 0.8011203 0.4497464
1.0000000 0.9535812 0.9421594
1.0000000 0.9920483 0.9904699
0.9504090 1.0000000 0.9356558
0.9504306 1.0000000 0.9356637
0.9520344 1.0000000 0.9362591
1.0000000 0.9989454 0.9613844
1.0000000 0.9922679 0.9905275
0.9916726 1.0000000 0.9894265
0.9916726 1.0000000 0.9894265
0.9916760 1.0000000 0.9894276
0.9919284 1.0000000 0.9895159
1.0000000 0.9998063 0.9931780
0.2636589 0.3353747 0.7719993
0.2860616 0.3349266 0.7741570
0.7794674 0.5016919 0.8002792
1.0000000 0.9507623 0.9415156
1.0000000 0.9920425 0.9904686
0.2459523 0.3435720 0.7776504
0.2707030 0.3425009 0.7796155
0.7799247 0.5025028 0.8007210
1.0000000 0.9507830 0.9415214
1.0000000 0.9920426 0.9904686
0.3982377 0.8002232 0.8197234
0.3970576 0.7996293 0.8191413
0.7853079 0.7853067 0.7853252
1.0000000 0.9523156 0.9419535
1.0000000 0.9920455 0.9904694
0.9485589 1.0000000 0.9348711
0.9485822 1.0000000 0.9348793
0.9503025 1.0000000 0.9354945
1.0000000 0.9989413 0.9612320
1.0000000 0.9922653 0.9905270
0.9916690 1.0000000 0.9894251
0.9916691 1.0000000 0.9894251
0.9916725 1.0000000 0.9894263
0.9919250 1.0000000 0.9895146
1.0000000 0.9998063 0.9931778
0.9081712 0.9172234 1.0000000
0.9082665 0.9172740 1.0000000
0.9149837 0.9208807 1.0000000
0.9967543 0.9637231 1.0000000
1.0000000 0.9918272 0.9904310
0.9081127 0.9172056 1.0000000
0.9082082 0.9172563 1.0000000
0.9149355 0.9208670 1.0000000
0.9967544 0.9637241 1.0000000
1.0000000 0.9918273 0.9904310
0.9031733 0.9156328 1.0000000
0.9032824 0.9156891 1.0000000
0.9109015 0.9196591 1.0000000
0.9967608 0.9637982 1.0000000
1.0000000 0.9918304 0.9904318
0.9499978 0.9966875 1.0000000
0.9499960 0.9966874 1.0000000
0.9498597 0.9966787 1.0000000
0.9999978 0.9999976 1.0000000
1.0000000 0.9920621 0.9904894
0.9913879 1.0000000 0.9893190
0.9913880 1.0000000 0.9893190
0.9913916 1.0000000 0.9893202
0.9916610 1.0000000 0.9894117
1.0000000 0.9998059 0.9931636
0.9867159 0.9878679 1.0000000
0.9867160 0.9878680 1.0000000
0.9867281 0.9878745 1.0000000
0.9875799 0.9883401 1.0000000
0.9994296 0.9938450 1.0000000
0.9867158 0.9878678 1.0000000
0.9867159 0.9878679 1.0000000
0.9867279 0.9878745 1.0000000
0.9875798 0.9883401 1.0000000
0.9994296 0.9938450 1.0000000
0.9867065 0.9878638 1.0000000
0.9867067 0.9878639 1.0000000
0.9867187 0.9878705 1.0000000
0.9875720 0.9883367 1.0000000
0.9994296 0.9938451 1.0000000
0.9859315 0.9875222 1.0000000
0.9859317 0.9875223 1.0000000
0.9859456 0.9875298 1.0000000
0.9869226 0.9880558 1.0000000
0.9994302 0.9938517 1.0000000
0.9915059 0.9994109 1.0000000
0.9915059 0.9994109 1.0000000
0.9915057 0.9994109 1.0000000
0.9914935 0.9994100 1.0000000
0.9999996 0.9999996 1.0000000
