release/datafiles/colormanagement/luts/AgX_Base_Rec2020.cube
TITLE "AgX_Formation Rec.2020"
# AgX Base Rec.2020 Formation LUT
# This LUT expects input to be E Gamut Log2 encoding from -10 stops to +15 stops
# But the end image formation will be from -10 to 6.5 encoded in power 2.4
#  rotate = [3.0, -1, -2.0], inset = [0.4, 0.22, 0.13], outset = [0.4, 0.22, 0.04]
# The image formed has 40% per-channel shifts
LUT_3D_SIZE 7
0.0000005 0.0000000 0.0000018
0.0672304 0.0139305 0.0000000
0.2852124 0.0995636 0.0000000
0.8022633 0.4457525 0.3046013
1.0000000 0.8733796 0.8428653
1.0000000 0.9770053 0.9722264
1.0000000 0.9920453 0.9904691
0.0221421 0.0670487 0.0000000
0.0716228 0.0705070 0.0000000
0.2870930 0.1264491 0.0000000
0.8022745 0.4489467 0.3050640
1.0000000 0.8734332 0.8428817
1.0000000 0.9770058 0.9722265
1.0000000 0.9920453 0.9904691
0.1176122 0.2913776 0.0000000
0.1408402 0.2918971 0.0000000
0.3093591 0.3048236 0.0000000
0.8025058 0.4980614 0.3137016
1.0000000 0.8743886 0.8431767
1.0000000 0.9770144 0.9722290
1.0000000 0.9920455 0.9904692
0.4625786 0.8123527 0.2637923
0.4656730 0.8122485 0.2643286
0.5132679 0.8106146 0.2748310
0.8090496 0.8019573 0.4516200
1.0000000 0.8896839 0.8482328
1.0000000 0.9771685 0.9722727
1.0000000 0.9920483 0.9904699
0.8705752 1.0000000 0.8274402
0.8706321 1.0000000 0.8274607
0.8716462 1.0000000 0.8278273
0.8879265 1.0000000 0.8341964
1.0000000 0.9974148 0.9004589
1.0000000 0.9796737 0.9730227
1.0000000 0.9920988 0.9904830
0.9760369 1.0000000 0.9692350
0.9760374 1.0000000 0.9692352
0.9760471 1.0000000 0.9692387
0.9762207 1.0000000 0.9693014
0.9790377 1.0000000 0.9703782
1.0000000 0.9994698 0.9809720
1.0000000 0.9929257 0.9907088
0.9916726 1.0000000 0.9894265
0.9916726 1.0000000 0.9894265
0.9916728 1.0000000 0.9894265
0.9916761 1.0000000 0.9894277
0.9917341 1.0000000 0.9894478
0.9926813 1.0000000 0.9897927
1.0000000 0.9998063 0.9931780
0.0000000 0.0157193 0.0594228
0.0643463 0.0000000 0.0674084
0.2884570 0.0465028 0.0000000
0.8024538 0.4428149 0.3045744
1.0000000 0.8733347 0.8428599
1.0000000 0.9770049 0.9722263
1.0000000 0.9920453 0.9904691
0.0000000 0.0667081 0.0692134
0.0660526 0.0660522 0.0660577
0.2890854 0.1009473 0.0000000
0.8024608 0.4460711 0.3050280
1.0000000 0.8733883 0.8428764
1.0000000 0.9770054 0.9722265
1.0000000 0.9920453 0.9904691
0.0790664 0.2883981 0.0000000
0.1165350 0.2887543 0.0000000
0.3050133 0.3005402 0.0000000
0.8026261 0.4959918 0.3135305
1.0000000 0.8743443 0.8431712
1.0000000 0.9770140 0.9722289
1.0000000 0.9920455 0.9904692
0.4592270 0.8123308 0.2629855
0.4623900 0.8122244 0.2635156
0.5108826 0.8105581 0.2739492
0.8088638 0.8017691 0.4511986
1.0000000 0.8896485 0.8482257
1.0000000 0.9771680 0.9722726
1.0000000 0.9920483 0.9904699
0.8705126 1.0000000 0.8274118
0.8705695 1.0000000 0.8274323
0.8715845 1.0000000 0.8277990
0.8878783 1.0000000 0.8341704
1.0000000 0.9974146 0.9004520
1.0000000 0.9796733 0.9730226
1.0000000 0.9920988 0.9904830
0.9760363 1.0000000 0.9692348
0.9760368 1.0000000 0.9692350
0.9760466 1.0000000 0.9692385
0.9762201 1.0000000 0.9693012
0.9790372 1.0000000 0.9703780
1.0000000 0.9994698 0.9809720
1.0000000 0.9929257 0.9907088
0.9916726 1.0000000 0.9894265
0.9916726 1.0000000 0.9894265
0.9916728 1.0000000 0.9894265
0.9916760 1.0000000 0.9894277
0.9917341 1.0000000 0.9894478
0.9926813 1.0000000 0.9897927
1.0000000 0.9998063 0.9931780
0.0558875 0.0844551 0.2396698
0.0814673 0.0774478 0.2467569
0.2752472 0.0956182 0.2873486
0.8074546 0.3749456 0.3072164
1.0000000 0.8725222 0.8427664
1.0000000 0.9769971 0.9722250
1.0000000 0.9920451 0.9904691
0.0209460 0.1048420 0.2556626
0.0620683 0.0926520 0.2617205
0.2771964 0.0963160 0.2893834
0.8073601 0.3799548 0.3074493
1.0000000 0.8725765 0.8427827
1.0000000 0.9769976 0.9722251
1.0000000 0.9920451 0.9904691
0.0324087 0.2890984 0.2994508
0.0318976 0.2863437 0.2965992
0.2838600 0.2838586 0.2838791
0.8059347 0.4517124 0.3125867
1.0000000 0.8735439 0.8430756
1.0000000 0.9770063 0.9722276
1.0000000 0.9920453 0.9904691
0.3805416 0.8124502 0.2498268
0.3856727 0.8122969 0.2501973
0.4589700 0.8098882 0.2584969
0.8054547 0.7983154 0.4434665
1.0000000 0.8890092 0.8481012
1.0000000 0.9771604 0.9722713
1.0000000 0.9920481 0.9904699
0.8693764 1.0000000 0.8268994
0.8694343 1.0000000 0.8269200
0.8704665 1.0000000 0.8272890
0.8870048 1.0000000 0.8337012
1.0000000 0.9974117 0.9003286
1.0000000 0.9796672 0.9730212
1.0000000 0.9920986 0.9904830
0.9760260 1.0000000 0.9692305
0.9760265 1.0000000 0.9692307
0.9760362 1.0000000 0.9692342
0.9762099 1.0000000 0.9692969
0.9790291 1.0000000 0.9703742
1.0000000 0.9994697 0.9809713
1.0000000 0.9929255 0.9907088
0.9916724 1.0000000 0.9894264
0.9916724 1.0000000 0.9894264
0.9916726 1.0000000 0.9894265
0.9916759 1.0000000 0.9894276
0.9917339 1.0000000 0.9894477
0.9926811 1.0000000 0.9897927
1.0000000 0.9998063 0.9931780
0.2636589 0.3353747 0.7719993
0.2688660 0.3352235 0.7725048
0.3513380 0.3382584 0.7798489
0.7794674 0.5016919 0.8002792
1.0000000 0.8556828 0.8421203
1.0000000 0.9768571 0.9722009
1.0000000 0.9920425 0.9904686
0.2599406 0.3371845 0.7732694
0.2652644 0.3370020 0.7737649
0.3488756 0.3392904 0.7809648
0.7795708 0.5018753 0.8003791
1.0000000 0.8557533 0.8421333
1.0000000 0.9768576 0.9722010
1.0000000 0.9920425 0.9904686
0.1948338 0.3841307 0.7950783
0.1951423 0.3815467 0.7956732
0.2926963 0.3645393 0.8014010
0.7814093 0.5051381 0.8021548
1.0000000 0.8570061 0.8423669
1.0000000 0.9768663 0.9722034
1.0000000 0.9920427 0.9904687
0.3982377 0.8002232 0.8197234
0.3979717 0.8000895 0.8195923
0.3931501 0.7976515 0.8172020
0.7853079 0.7853067 0.7853252
1.0000000 0.8762569 0.8465455
1.0000000 0.9770223 0.9722471
1.0000000 0.9920455 0.9904694
0.8442531 1.0000000 0.8170740
0.8443374 1.0000000 0.8170967
0.8458350 1.0000000 0.8175040
0.8685802 1.0000000 0.8246628
1.0000000 0.9973570 0.8980422
1.0000000 0.9795553 0.9729962
1.0000000 0.9920960 0.9904825
0.9758386 1.0000000 0.9691531
0.9758391 1.0000000 0.9691533
0.9758490 1.0000000 0.9691569
0.9760253 1.0000000 0.9692201
0.9788828 1.0000000 0.9703054
1.0000000 0.9994694 0.9809582
1.0000000 0.9929234 0.9907083
0.9916690 1.0000000 0.9894251
0.9916690 1.0000000 0.9894251
0.9916692 1.0000000 0.9894252
0.9916725 1.0000000 0.9894263
0.9917306 1.0000000 0.9894464
0.9926785 1.0000000 0.9897915
1.0000000 0.9998063 0.9931778
0.7730347 0.7985064 1.0000000
0.7732559 0.7986064 1.0000000
0.7771555 0.8003763 1.0000000
0.8275366 0.8234075 1.0000000
0.9918391 0.9044784 1.0000000
1.0000000 0.9739347 0.9718398
1.0000000 0.9919951 0.9904600
0.7728775 0.7984619 1.0000000
0.7730991 0.7985620 1.0000000
0.7770052 0.8003340 1.0000000
0.8274917 0.8234230 1.0000000
0.9918394 0.9044818 1.0000000
1.0000000 0.9739353 0.9718399
1.0000000 0.9919951 0.9904600
0.7699883 0.7976392 1.0000000
0.7702169 0.7977414 1.0000000
0.7742446 0.7995513 1.0000000
0.8266744 0.8237016 1.0000000
0.9918442 0.9045427 1.0000000
1.0000000 0.9739466 0.9718422
1.0000000 0.9919953 0.9904601
0.7218979 0.7920605 1.0000000
0.7218855 0.7919899 1.0000000
0.7216683 0.7907095 1.0000000
0.7919939 0.8149171 1.0000000
0.9919295 0.9056206 1.0000000
1.0000000 0.9741482 0.9718827
1.0000000 0.9919981 0.9904608
0.8692622 0.9918698 1.0000000
0.8692560 0.9918694 1.0000000
0.8691452 0.9918632 1.0000000
0.8671123 0.9917489 1.0000000
0.9999943 0.9999939 1.0000000
1.0000000 0.9773032 0.9725897
1.0000000 0.9920493 0.9904739
0.9717586 1.0000000 0.9676343
0.9717593 1.0000000 0.9676345
0.9717732 1.0000000 0.9676386
0.9720194 1.0000000 0.9677117
0.9758267 1.0000000 0.9689622
1.0000000 0.9994628 0.9807173
1.0000000 0.9928854 0.9906998
0.9916074 1.0000000 0.9894015
0.9916074 1.0000000 0.9894015
0.9916076 1.0000000 0.9894016
0.9916109 1.0000000 0.9894027
0.9916699 1.0000000 0.9894230
0.9926300 1.0000000 0.9897707
1.0000000 0.9998063 0.9931746
0.9584625 0.9623070 1.0000000
0.9584647 0.9623081 1.0000000
0.9585038 0.9623295 1.0000000
0.9591944 0.9627059 1.0000000
0.9681172 0.9674730 1.0000000
0.9984007 0.9824486 1.0000000
1.0000000 0.9910029 0.9903174
0.9584610 0.9623064 1.0000000
0.9584632 0.9623076 1.0000000
0.9585023 0.9623289 1.0000000
0.9591930 0.9627054 1.0000000
0.9681168 0.9674732 1.0000000
0.9984007 0.9824487 1.0000000
1.0000000 0.9910029 0.9903174
0.9584341 0.9622962 1.0000000
0.9584363 0.9622974 1.0000000
0.9584756 0.9623188 1.0000000
0.9591673 0.9626957 1.0000000
0.9681099 0.9674757 1.0000000
0.9984007 0.9824490 1.0000000
1.0000000 0.9910031 0.9903175
0.9579412 0.9621082 1.0000000
0.9579435 0.9621094 1.0000000
0.9579839 0.9621313 1.0000000
0.9586961 0.9625175 1.0000000
0.9679843 0.9675214 1.0000000
0.9984012 0.9824553 1.0000000
1.0000000 0.9910068 0.9903182
0.9499620 0.9603150 1.0000000
0.9499619 0.9603144 1.0000000
0.9499595 0.9603025 1.0000000
0.9499176 0.9600886 1.0000000
0.9620812 0.9655697 1.0000000
0.9984111 0.9825668 1.0000000
1.0000000 0.9910728 0.9903310
0.9757394 0.9983532 1.0000000
0.9757394 0.9983532 1.0000000
0.9757387 0.9983532 1.0000000
0.9757272 0.9983524 1.0000000
0.9755158 0.9983383 1.0000000
0.9999989 0.9999988 1.0000000
1.0000000 0.9921153 0.9905536
0.9902753 1.0000000 0.9889367
0.9902753 1.0000000 0.9889367
0.9902756 1.0000000 0.9889367
0.9902801 1.0000000 0.9889381
0.9903611 1.0000000 0.9889616
0.9916230 1.0000000 0.9893630
1.0000000 0.9998046 0.9931160
0.9867159 0.9878679 1.0000000
0.9867159 0.9878679 1.0000000
0.9867166 0.9878683 1.0000000
0.9867281 0.9878745 1.0000000
0.9869311 0.9879851 1.0000000
0.9895815 0.9893831 1.0000000
0.9994296 0.9938450 1.0000000
0.9867159 0.9878679 1.0000000
0.9867159 0.9878679 1.0000000
0.9867165 0.9878683 1.0000000
0.9867280 0.9878745 1.0000000
0.9869310 0.9879851 1.0000000
0.9895815 0.9893831 1.0000000
0.9994296 0.9938450 1.0000000
0.9867154 0.9878677 1.0000000
0.9867154 0.9878677 1.0000000
0.9867160 0.9878680 1.0000000
0.9867276 0.9878743 1.0000000
0.9869306 0.9879849 1.0000000
0.9895813 0.9893831 1.0000000
0.9994296 0.9938450 1.0000000
0.9867065 0.9878638 1.0000000
0.9867065 0.9878638 1.0000000
0.9867072 0.9878642 1.0000000
0.9867187 0.9878705 1.0000000
0.9869221 0.9879812 1.0000000
0.9895787 0.9893834 1.0000000
0.9994296 0.9938451 1.0000000
0.9865438 0.9877928 1.0000000
0.9865439 0.9877928 1.0000000
0.9865445 0.9877932 1.0000000
0.9865564 0.9877996 1.0000000
0.9867660 0.9879134 1.0000000
0.9895308 0.9893882 1.0000000
0.9994298 0.9938466 1.0000000
0.9838670 0.9870005 1.0000000
0.9838670 0.9870005 1.0000000
0.9838669 0.9870003 1.0000000
0.9838658 0.9869963 1.0000000
0.9838463 0.9869239 1.0000000
0.9875055 0.9885857 1.0000000
0.9994322 0.9938730 1.0000000
0.9915059 0.9994109 1.0000000
0.9915059 0.9994109 1.0000000
0.9915059 0.9994109 1.0000000
0.9915057 0.9994109 1.0000000
0.9915030 0.9994107 1.0000000
0.9914528 0.9994072 1.0000000
0.9999996 0.9999996 1.0000000
