release/datafiles/colormanagement/luts/AgX_Base_Rec2020.cube
TITLE "AgX_Formation Rec.2020"
# AgX Base Rec.2020 Formation LUT
# This LUT expects input to be E Gamut Log2 encoding from -10 stops to +15 stops
# But the end image formation will be from -10 to 6.5 encoded in power 2.4
#  rotate = [3.0, -1, -2.0], inset = [0.4, 0.22, 0.13], outset = [0.4, 0.22, 0.04]
# The image formed has 40% per-channel shifts
LUT_3D_SIZE 37
0.0000005 0.0000000 0.0000018
0.0072582 0.0000000 0.0000000
0.0157169 0.0000000 0.0000000
0.0256237 0.0000000 0.0000000
0.0373049 0.0009924 0.0000000
0.0511912 0.0071185 0.0000000
0.0672304 0.0139305 0.0000000
0.0867738 0.0226074 0.0000000
0.1108151 0.0329844 0.0000000
0.1406683 0.0453283 0.0000000
0.1780871 0.0600782 0.0000000
0.2253477 0.0778577 0.0000000
0.2852124 0.0995636 0.0000000
0.3604946 0.1265608 0.0000000
0.4525355 0.1610737 0.0000000
0.5557943 0.2070519 0.0000000
0.6519836 0.2698987 0.0000000
0.7343312 0.3505771 0.1712758
0.8022633 0.4457525 0.3046013
0.8572968 0.5438525 0.4361830
0.9018482 0.6343963 0.5526010
0.9382129 0.7130539 0.6497098
0.9682100 0.7795955 0.7297506
0.9932351 0.8351963 0.7954112
1.0000000 0.8733796 0.8428653
1.0000000 0.9115980 0.8912919
1.0000000 0.9359344 0.9216807
1.0000000 0.9521240 0.9417171
1.0000000 0.9632865 0.9554486
1.0000000 0.9712192 0.9651640
1.0000000 0.9770053 0.9722264
1.0000000 0.9813224 0.9774814
1.0000000 0.9846083 0.9814719
1.0000000 0.9871535 0.9845570
1.0000000 0.9891562 0.9869804
1.0000000 0.9907541 0.9889112
1.0000000 0.9920453 0.9904691
0.0015066 0.0069848 0.0000000
0.0077091 0.0075680 0.0000000
0.0160045 0.0107452 0.0000000
0.0258007 0.0133037 0.0000000
0.0374105 0.0156617 0.0000000
0.0512172 0.0181977 0.0000000
0.0673604 0.0219790 0.0000000
0.0869332 0.0281645 0.0000000
0.1109666 0.0368592 0.0000000
0.1407999 0.0481001 0.0000000
0.1781970 0.0621160 0.0000000
0.2254376 0.0793931 0.0000000
0.2852846 0.1007425 0.0000000
0.3605508 0.1274738 0.0000000
0.4525764 0.1617740 0.0000000
0.5558181 0.2075640 0.0000000
0.6519940 0.2702382 0.0000000
0.7343345 0.3507857 0.1712951
0.8022637 0.4458700 0.3046181
0.8572964 0.5439126 0.4361949
0.9018478 0.6344264 0.5526076
0.9382127 0.7130689 0.6497133
0.9682099 0.7796030 0.7297524
0.9932350 0.8352001 0.7954121
1.0000000 0.8733816 0.8428659
1.0000000 0.9115989 0.8912921
1.0000000 0.9359348 0.9216808
1.0000000 0.9521242 0.9417171
1.0000000 0.9632866 0.9554486
1.0000000 0.9712192 0.9651640
1.0000000 0.9770053 0.9722264
1.0000000 0.9813225 0.9774814
1.0000000 0.9846083 0.9814719
1.0000000 0.9871535 0.9845570
1.0000000 0.9891562 0.9869804
1.0000000 0.9907541 0.9889112
1.0000000 0.9920453 0.9904691
0.0037013 0.0152133 0.0000000
0.0109930 0.0155151 0.0000000
0.0164873 0.0161989 0.0000000
0.0261115 0.0197705 0.0000000
0.0376038 0.0229483 0.0000000
0.0513319 0.0259744 0.0000000
0.0675865 0.0295328 0.0000000
0.0871868 0.0346713 0.0000000
0.1112059 0.0420645 0.0000000
0.1410089 0.0521297 0.0000000
0.1783726 0.0652134 0.0000000
0.2255819 0.0817866 0.0000000
0.2854008 0.1026073 0.0000000
0.3606415 0.1289309 0.0000000
0.4526425 0.1628976 0.0000000
0.5558565 0.2083885 0.0000000
0.6520107 0.2707862 0.0000000
0.7343399 0.3511227 0.1713263
0.8022643 0.4460599 0.3046453
0.8572959 0.5440099 0.4362143
0.9018472 0.6344751 0.5526182
0.9382122 0.7130932 0.6497189
0.9682096 0.7796152 0.7297553
0.9932348 0.8352062 0.7954136
1.0000000 0.8733847 0.8428668
1.0000000 0.9116002 0.8912925
1.0000000 0.9359353 0.9216810
1.0000000 0.9521245 0.9417172
1.0000000 0.9632867 0.9554486
1.0000000 0.9712193 0.9651640
1.0000000 0.9770054 0.9722264
1.0000000 0.9813225 0.9774814
1.0000000 0.9846083 0.9814719
1.0000000 0.9871535 0.9845570
1.0000000 0.9891562 0.9869804
1.0000000 0.9907541 0.9889112
1.0000000 0.9920453 0.9904691
0.0067240 0.0249108 0.0000000
0.0141863 0.0250939 0.0000000
0.0200852 0.0254121 0.0000000
0.0266383 0.0261875 0.0000000
0.0379460 0.0300685 0.0000000
0.0516773 0.0337790 0.0000000
0.0679794 0.0376056 0.0000000
0.0875877 0.0423464 0.0000000
0.1115797 0.0488354 0.0000000
0.1413374 0.0577877 0.0000000
0.1786511 0.0697962 0.0000000
0.2258123 0.0854487 0.0000000
0.2855872 0.1055212 0.0000000
0.3607874 0.1312379 0.0000000
0.4527491 0.1646916 0.0000000
0.5559186 0.2097122 0.0000000
0.6520377 0.2716691 0.0000000
0.7343485 0.3516668 0.1713769
0.8022654 0.4463669 0.3046894
0.8572951 0.5441671 0.4362455
0.9018463 0.6345538 0.5526353
0.9382115 0.7131324 0.6497279
0.9682092 0.7796348 0.7297599
0.9932346 0.8352161 0.7954160
1.0000000 0.8733899 0.8428684
1.0000000 0.9116023 0.8912932
1.0000000 0.9359363 0.9216812
1.0000000 0.9521249 0.9417173
1.0000000 0.9632869 0.9554487
1.0000000 0.9712194 0.9651641
1.0000000 0.9770054 0.9722264
1.0000000 0.9813225 0.9774814
1.0000000 0.9846083 0.9814719
1.0000000 0.9871535 0.9845570
1.0000000 0.9891562 0.9869804
1.0000000 0.9907542 0.9889112
1.0000000 0.9920453 0.9904691
0.0107286 0.0363829 0.0000000
0.0176603 0.0364887 0.0000000
0.0238749 0.0366844 0.0000000
0.0305166 0.0370272 0.0000000
0.0387954 0.0381542 0.0000000
0.0524303 0.0425216 0.0000000
0.0686533 0.0467412 0.0000000
0.0882166 0.0514519 0.0000000
0.1121559 0.0574161 0.0000000
0.1418471 0.0654524 0.0000000
0.1790879 0.0763594 0.0000000
0.2261773 0.0909136 0.0000000
0.2858847 0.1099944 0.0000000
0.3610213 0.1348471 0.0000000
0.4529205 0.1675340 0.0000000
0.5560185 0.2118276 0.0000000
0.6520813 0.2730880 0.0000000
0.7343625 0.3525440 0.1714589
0.8022671 0.4468625 0.3047608
0.8572937 0.5444213 0.4362961
0.9018447 0.6346810 0.5526631
0.9382104 0.7131959 0.6497425
0.9682085 0.7796665 0.7297675
0.9932342 0.8352321 0.7954198
1.0000000 0.8733981 0.8428709
1.0000000 0.9116058 0.8912942
1.0000000 0.9359378 0.9216817
1.0000000 0.9521256 0.9417175
1.0000000 0.9632872 0.9554488
1.0000000 0.9712195 0.9651641
1.0000000 0.9770055 0.9722264
1.0000000 0.9813225 0.9774814
1.0000000 0.9846083 0.9814719
1.0000000 0.9871535 0.9845570
1.0000000 0.9891562 0.9869804
1.0000000 0.9907542 0.9889112
1.0000000 0.9920453 0.9904691
0.0158467 0.0500629 0.0000000
0.0218240 0.0501944 0.0000000
0.0280398 0.0504289 0.0000000
0.0350466 0.0508380 0.0000000
0.0433568 0.0515347 0.0000000
0.0538265 0.0529622 0.0000000
0.0697827 0.0574847 0.0000000
0.0891969 0.0623394 0.0000000
0.1130318 0.0680945 0.0000000
0.1426246 0.0755013 0.0000000
0.1797631 0.0854311 0.0000000
0.2267490 0.0988195 0.0000000
0.2863557 0.1166986 0.0000000
0.3613945 0.1403974 0.0000000
0.4531953 0.1719855 0.0000000
0.5561792 0.2151835 0.0000000
0.6521514 0.2753591 0.0000000
0.7343850 0.3539551 0.1715919
0.8022699 0.4476615 0.3048765
0.8572915 0.5448318 0.4363780
0.9018422 0.6348868 0.5527080
0.9382086 0.7132986 0.6497661
0.9682074 0.7797179 0.7297796
0.9932336 0.8352579 0.7954260
1.0000000 0.8734115 0.8428751
1.0000000 0.9116114 0.8912959
1.0000000 0.9359402 0.9216824
1.0000000 0.9521267 0.9417179
1.0000000 0.9632877 0.9554489
1.0000000 0.9712198 0.9651642
1.0000000 0.9770056 0.9722265
1.0000000 0.9813226 0.9774814
1.0000000 0.9846083 0.9814719
1.0000000 0.9871536 0.9845570
1.0000000 0.9891562 0.9869804
1.0000000 0.9907542 0.9889112
1.0000000 0.9920453 0.9904691
0.0221421 0.0670487 0.0000000
0.0271917 0.0671376 0.0000000
0.0331140 0.0672941 0.0000000
0.0401218 0.0675689 0.0000000
0.0485169 0.0680461 0.0000000
0.0587293 0.0688619 0.0000000
0.0716228 0.0705070 0.0000000
0.0907187 0.0755076 0.0000000
0.1143508 0.0812591 0.0000000
0.1437909 0.0883389 0.0000000
0.1807880 0.0975471 0.0000000
0.2276312 0.1098666 0.0000000
0.2870930 0.1264491 0.0000000
0.3619849 0.1487353 0.0000000
0.4536333 0.1788413 0.0000000
0.5564363 0.2204491 0.0000000
0.6522640 0.2789706 0.0000000
0.7344213 0.3562169 0.1718081
0.8022745 0.4489467 0.3050640
0.8572880 0.5454937 0.4365104
0.9018381 0.6352190 0.5527807
0.9382057 0.7134646 0.6498043
0.9682056 0.7798010 0.7297993
0.9932326 0.8352998 0.7954361
1.0000000 0.8734332 0.8428817
1.0000000 0.9116204 0.8912987
1.0000000 0.9359442 0.9216836
1.0000000 0.9521285 0.9417184
1.0000000 0.9632886 0.9554492
1.0000000 0.9712202 0.9651643
1.0000000 0.9770058 0.9722265
1.0000000 0.9813227 0.9774814
1.0000000 0.9846084 0.9814719
1.0000000 0.9871536 0.9845570
1.0000000 0.9891562 0.9869804
1.0000000 0.9907542 0.9889112
1.0000000 0.9920453 0.9904691
0.0308164 0.0874613 0.0000000
0.0347265 0.0875240 0.0000000
0.0398556 0.0876322 0.0000000
0.0463920 0.0878208 0.0000000
0.0545599 0.0881499 0.0000000
0.0646725 0.0887214 0.0000000
0.0771897 0.0897012 0.0000000
0.0930729 0.0916578 0.0000000
0.1163328 0.0974709 0.0000000
0.1455191 0.1044638 0.0000000
0.1823148 0.1132676 0.0000000
0.2289664 0.1247775 0.0000000
0.2882288 0.1401537 0.0000000
0.3629081 0.1608962 0.0000000
0.4543255 0.1891597 0.0000000
0.5568451 0.2285794 0.0000000
0.6524440 0.2846574 0.0000000
0.7344795 0.3598215 0.1721604
0.8022820 0.4510063 0.3053683
0.8572824 0.5465590 0.4367248
0.9018315 0.6357549 0.5528982
0.9382010 0.7137327 0.6498661
0.9682028 0.7799353 0.7298312
0.9932310 0.8353674 0.7954524
1.0000000 0.8734683 0.8428925
1.0000000 0.9116351 0.8913032
1.0000000 0.9359506 0.9216856
1.0000000 0.9521314 0.9417193
1.0000000 0.9632899 0.9554496
1.0000000 0.9712208 0.9651645
1.0000000 0.9770061 0.9722266
1.0000000 0.9813228 0.9774815
1.0000000 0.9846085 0.9814719
1.0000000 0.9871536 0.9845571
1.0000000 0.9891562 0.9869804
1.0000000 0.9907542 0.9889112
1.0000000 0.9920453 0.9904691
0.0418109 0.1123516 0.0000000
0.0447482 0.1123980 0.0000000
0.0489233 0.1124764 0.0000000
0.0546432 0.1126107 0.0000000
0.0622109 0.1128433 0.0000000
0.0719464 0.1132476 0.0000000
0.0842452 0.1139485 0.0000000
0.0996569 0.1151513 0.0000000
0.1193232 0.1175396 0.0000000
0.1480742 0.1245649 0.0000000
0.1845583 0.1332497 0.0000000
0.2309474 0.1443050 0.0000000
0.2899442 0.1587601 0.0000000
0.3643279 0.1780419 0.0000000
0.4554056 0.2042419 0.0000000
0.5574887 0.2408554 0.0000000
0.6527294 0.2934815 0.0000000
0.7345722 0.3655155 0.1727371
0.8022942 0.4542878 0.3058627
0.8572735 0.5482679 0.4370717
0.9018210 0.6366178 0.5530884
0.9381934 0.7141652 0.6499660
0.9681981 0.7801523 0.7298827
0.9932283 0.8354768 0.7954787
1.0000000 0.8735249 0.8429099
1.0000000 0.9116588 0.8913104
1.0000000 0.9359610 0.9216887
1.0000000 0.9521361 0.9417207
1.0000000 0.9632921 0.9554502
1.0000000 0.9712219 0.9651648
1.0000000 0.9770066 0.9722268
1.0000000 0.9813231 0.9774816
1.0000000 0.9846086 0.9814720
1.0000000 0.9871537 0.9845571
1.0000000 0.9891563 0.9869804
1.0000000 0.9907542 0.9889112
1.0000000 0.9920453 0.9904691
0.0553528 0.1431063 0.0000000
0.0575536 0.1431420 0.0000000
0.0608462 0.1432014 0.0000000
0.0656210 0.1433014 0.0000000
0.0723033 0.1434717 0.0000000
0.0813259 0.1437649 0.0000000
0.0931351 0.1442724 0.0000000
0.1082498 0.1451498 0.0000000
0.1273600 0.1466539 0.0000000
0.1518780 0.1496308 0.0000000
0.1878452 0.1583687 0.0000000
0.2338432 0.1693119 0.0000000
0.2924813 0.1832550 0.0000000
0.3664669 0.2013891 0.0000000
0.4570620 0.2255507 0.0000000
0.5584870 0.2588614 0.0000000
0.6531770 0.3068898 0.0000000
0.7347190 0.3743902 0.1736863
0.8023145 0.4594688 0.3066681
0.8572595 0.5509944 0.4376330
0.9018042 0.6380030 0.5533959
0.9381812 0.7148619 0.6501277
0.9681906 0.7805025 0.7299660
0.9932241 0.8356535 0.7955214
1.0000000 0.8736166 0.8429382
1.0000000 0.9116971 0.8913221
1.0000000 0.9359777 0.9216938
1.0000000 0.9521437 0.9417229
1.0000000 0.9632957 0.9554512
1.0000000 0.9712236 0.9651653
1.0000000 0.9770074 0.9722270
1.0000000 0.9813235 0.9774817
1.0000000 0.9846088 0.9814720
1.0000000 0.9871538 0.9845571
1.0000000 0.9891563 0.9869804
1.0000000 0.9907542 0.9889112
1.0000000 0.9920453 0.9904691
0.0719412 0.1815512 0.0000000
0.0736045 0.1815795 0.0000000
0.0761714 0.1816260 0.0000000
0.0800446 0.1817033 0.0000000
0.0857211 0.1818327 0.0000000
0.0937602 0.1820521 0.0000000
0.1047454 0.1824279 0.0000000
0.1192793 0.1830751 0.0000000
0.1380442 0.1841900 0.0000000
0.1619226 0.1860964 0.0000000
0.1927002 0.1898628 0.0000000
0.2380613 0.2009155 0.0000000
0.2961748 0.2147493 0.0000000
0.3696193 0.2321943 0.0000000
0.4595462 0.2546077 0.0000000
0.5600036 0.2843741 0.0000000
0.6538674 0.3266984 0.0000000
0.7349485 0.3879514 0.1752625
0.8023485 0.4675356 0.3079842
0.8572382 0.5553090 0.4385411
0.9017776 0.6402154 0.5538930
0.9381617 0.7159807 0.6503890
0.9681786 0.7810665 0.7301008
0.9932172 0.8359387 0.7955903
1.0000000 0.8737647 0.8429838
1.0000000 0.9117591 0.8913411
1.0000000 0.9360048 0.9217020
1.0000000 0.9521560 0.9417266
1.0000000 0.9633014 0.9554529
1.0000000 0.9712263 0.9651661
1.0000000 0.9770088 0.9722274
1.0000000 0.9813242 0.9774818
1.0000000 0.9846091 0.9814721
1.0000000 0.9871540 0.9845571
1.0000000 0.9891564 0.9869805
1.0000000 0.9907543 0.9889112
1.0000000 0.9920454 0.9904691
0.0923388 0.2300341 0.0000000
0.0936110 0.2300569 0.0000000
0.0956113 0.2300940 0.0000000
0.0987090 0.2301549 0.0000000
0.1034051 0.2302558 0.0000000
0.1103286 0.2304242 0.0000000
0.1202019 0.2307085 0.0000000
0.1337912 0.2311930 0.0000000
0.1518925 0.2320236 0.0000000
0.1753961 0.2334486 0.0000000
0.2054312 0.2358778 0.0000000
0.2442587 0.2406686 0.0000000
0.3015295 0.2546437 0.0000000
0.3741867 0.2718344 0.0000000
0.4631841 0.2929395 0.0000000
0.5622471 0.3191923 0.0000000
0.6549077 0.3549478 0.0000000
0.7353013 0.4081026 0.1779098
0.8024062 0.4798387 0.3101436
0.8572066 0.5620501 0.4400095
0.9017361 0.6437225 0.5546959
0.9381308 0.7177691 0.6508113
0.9681594 0.7819727 0.7303187
0.9932062 0.8363982 0.7957018
1.0000000 0.8740036 0.8430575
1.0000000 0.9118592 0.8913718
1.0000000 0.9360487 0.9217152
1.0000000 0.9521758 0.9417325
1.0000000 0.9633107 0.9554556
1.0000000 0.9712307 0.9651673
1.0000000 0.9770109 0.9722280
1.0000000 0.9813252 0.9774821
1.0000000 0.9846097 0.9814723
1.0000000 0.9871542 0.9845572
1.0000000 0.9891566 0.9869805
1.0000000 0.9907543 0.9889112
1.0000000 0.9920454 0.9904692
0.1176122 0.2913776 0.0000000
0.1185959 0.2913956 0.0000000
0.1201599 0.2914249 0.0000000
0.1226223 0.2914728 0.0000000
0.1264428 0.2915513 0.0000000
0.1322499 0.2916811 0.0000000
0.1408402 0.2918971 0.0000000
0.1531391 0.2922606 0.0000000
0.1701386 0.2928777 0.0000000
0.1928714 0.2939320 0.0000000
0.2224801 0.2957347 0.0000000
0.2603829 0.2988001 0.0000000
0.3093591 0.3048236 0.0000000
0.3807702 0.3219659 0.0000000
0.4684091 0.3421142 0.0000000
0.5654695 0.3649751 0.0000000
0.6564312 0.3936213 0.0000000
0.7358339 0.4369340 0.1824195
0.8025058 0.4980614 0.3137016
0.8571625 0.5723841 0.4423802
0.9016727 0.6492165 0.5559907
0.9380824 0.7206075 0.6514927
0.9681288 0.7834221 0.7306706
0.9931886 0.8371366 0.7958820
1.0000000 0.8743886 0.8431767
1.0000000 0.9120208 0.8914214
1.0000000 0.9361195 0.9217367
1.0000000 0.9522079 0.9417421
1.0000000 0.9633256 0.9554600
1.0000000 0.9712379 0.9651694
1.0000000 0.9770144 0.9722290
1.0000000 0.9813270 0.9774826
1.0000000 0.9846105 0.9814725
1.0000000 0.9871547 0.9845573
1.0000000 0.9891568 0.9869806
1.0000000 0.9907545 0.9889112
1.0000000 0.9920455 0.9904692
0.1491973 0.3684002 0.0000000
0.1499616 0.3684138 0.0000000
0.1511852 0.3684358 0.0000000
0.1531318 0.3684715 0.0000000
0.1561986 0.3685299 0.0000000
0.1609620 0.3686257 0.0000000
0.1682129 0.3687837 0.0000000
0.1789592 0.3690467 0.0000000
0.1943781 0.3694889 0.0000000
0.2157355 0.3702388 0.0000000
0.2443419 0.3715190 0.0000000
0.2816143 0.3737066 0.0000000
0.3292399 0.3774251 0.0000000
0.3903361 0.3846678 0.0000000
0.4758572 0.4038080 0.0000000
0.5699864 0.4231096 0.0000000
0.6586015 0.4442520 0.0000000
0.7366389 0.4760226 0.1902754
0.8026800 0.5240277 0.3195749
0.8571074 0.5878014 0.4461949
0.9015790 0.6576720 0.5580733
0.9380078 0.7250625 0.6525904
0.9680808 0.7857245 0.7312382
0.9931606 0.8383182 0.7961730
1.0000000 0.8750072 0.8433690
1.0000000 0.9122811 0.8915014
1.0000000 0.9362338 0.9217713
1.0000000 0.9522598 0.9417576
1.0000000 0.9633499 0.9554671
1.0000000 0.9712495 0.9651727
1.0000000 0.9770201 0.9722306
1.0000000 0.9813298 0.9774834
1.0000000 0.9846120 0.9814729
1.0000000 0.9871554 0.9845575
1.0000000 0.9891572 0.9869807
1.0000000 0.9907547 0.9889113
1.0000000 0.9920456 0.9904692
0.1889404 0.4622739 0.0000000
0.1895297 0.4622826 0.0000000
0.1904770 0.4622967 0.0000000
0.1919939 0.4623197 0.0000000
0.1944079 0.4623570 0.0000000
0.1982132 0.4624180 0.0000000
0.2041281 0.4625183 0.0000000
0.2131409 0.4626843 0.0000000
0.2265145 0.4629616 0.0000000
0.2457251 0.4634301 0.0000000
0.2723510 0.4642296 0.0000000
0.3079875 0.4656035 0.0000000
0.3542634 0.4679667 0.0000000
0.4129181 0.4720081 0.0000000
0.4865316 0.4796734 0.0000000
0.5762683 0.4943950 0.0000000
0.6616803 0.5070861 0.0000000
0.7378706 0.5259673 0.2039525
0.8029864 0.5593426 0.3292242
0.8570525 0.6099787 0.4522873
0.9014477 0.6703587 0.5614055
0.9378964 0.7319388 0.6543524
0.9680067 0.7893434 0.7321519
0.9931166 0.8401966 0.7966423
1.0000000 0.8759971 0.8436789
1.0000000 0.9126997 0.8916307
1.0000000 0.9364181 0.9218274
1.0000000 0.9523436 0.9417826
1.0000000 0.9633890 0.9554786
1.0000000 0.9712682 0.9651781
1.0000000 0.9770292 0.9722332
1.0000000 0.9813343 0.9774847
1.0000000 0.9846142 0.9814735
1.0000000 0.9871566 0.9845578
1.0000000 0.9891578 0.9869808
1.0000000 0.9907550 0.9889114
1.0000000 0.9920457 0.9904692
0.2389480 0.5665733 0.0000000
0.2393858 0.5665756 0.0000000
0.2400915 0.5665792 0.0000000
0.2412263 0.5665851 0.0000000
0.2430439 0.5665949 0.0000000
0.2459379 0.5666108 0.0000000
0.2505034 0.5666374 0.0000000
0.2576076 0.5666823 0.0000000
0.2684468 0.5667594 0.0000000
0.2845523 0.5668948 0.0000000
0.3077062 0.5671380 0.0000000
0.3397711 0.5675825 0.0000000
0.3825030 0.5684022 0.0000000
0.4373983 0.5699115 0.0000000
0.5053490 0.5726791 0.0000000
0.5852040 0.5776220 0.0000000
0.6661680 0.5807653 0.0921651
0.7397534 0.5868422 0.2267008
0.8035221 0.6050238 0.3448047
0.8570299 0.6404760 0.4618752
0.9012783 0.6887484 0.5666869
0.9377369 0.7422993 0.6571640
0.9678954 0.7949414 0.7336170
0.9930485 0.8431523 0.7973973
1.0000000 0.8775705 0.8441768
1.0000000 0.9133697 0.8918389
1.0000000 0.9367143 0.9219177
1.0000000 0.9524787 0.9418230
1.0000000 0.9634522 0.9554972
1.0000000 0.9712984 0.9651868
1.0000000 0.9770440 0.9722373
1.0000000 0.9813416 0.9774867
1.0000000 0.9846179 0.9814745
1.0000000 0.9871585 0.9845584
1.0000000 0.9891588 0.9869811
1.0000000 0.9907555 0.9889115
1.0000000 0.9920460 0.9904693
0.3010113 0.6628175 0.0000000
0.3013132 0.6628150 0.0000000
0.3018005 0.6628111 0.0000000
0.3025861 0.6628049 0.0000000
0.3038498 0.6627948 0.0000000
0.3058754 0.6627786 0.0000000
0.3091035 0.6627528 0.0000000
0.3142033 0.6627122 0.0000000
0.3221546 0.6626493 0.0000000
0.3343164 0.6625542 0.0000000
0.3524343 0.6624169 0.0000000
0.3785246 0.6622332 0.0000000
0.4146064 0.6620227 0.0000000
0.4622957 0.6618695 0.0000000
0.5218870 0.6620509 0.0000000
0.5925341 0.6631663 0.0567689
0.6727643 0.6648917 0.1584377
0.7426421 0.6583289 0.2619902
0.8044538 0.6613279 0.3690894
0.8571115 0.6803600 0.4765780
0.9010888 0.7142784 0.5749186
0.9375233 0.7574049 0.6616035
0.9677348 0.8034030 0.7359514
0.9929460 0.8477322 0.7986074
1.0000000 0.8800458 0.8449737
1.0000000 0.9144354 0.8921735
1.0000000 0.9371886 0.9220633
1.0000000 0.9526958 0.9418883
1.0000000 0.9635541 0.9555272
1.0000000 0.9713473 0.9652009
1.0000000 0.9770678 0.9722441
1.0000000 0.9813535 0.9774900
1.0000000 0.9846239 0.9814762
1.0000000 0.9871615 0.9845592
1.0000000 0.9891603 0.9869815
1.0000000 0.9907563 0.9889117
1.0000000 0.9920464 0.9904694
0.3761523 0.7448782 0.1248993
0.3763466 0.7448741 0.1249200
0.3766606 0.7448675 0.1249536
0.3771676 0.7448568 0.1250080
0.3779852 0.7448395 0.1250966
0.3793009 0.7448116 0.1252413
0.3814107 0.7447668 0.1254788
0.3847758 0.7446949 0.1258715
0.3900982 0.7445805 0.1265285
0.3984084 0.7443999 0.1276452
0.4111384 0.7441192 0.1295811
0.4301141 0.7436941 0.1330096
0.4573470 0.7430781 0.1391945
0.4943501 0.7422683 0.1505091
0.5419798 0.7413460 0.1702986
0.6005856 0.7405267 0.2020198
0.6700259 0.7402409 0.2483962
0.7471364 0.7394340 0.3127058
0.8060938 0.7276251 0.4045661
0.8574426 0.7299223 0.4982358
0.9009339 0.7480180 0.5874045
0.9372656 0.7785332 0.6684901
0.9675169 0.8157959 0.7396299
0.9927976 0.8546728 0.8005338
1.0000000 0.8838795 0.8462403
1.0000000 0.9161138 0.8927088
1.0000000 0.9379435 0.9222973
1.0000000 0.9530436 0.9419934
1.0000000 0.9637179 0.9555756
1.0000000 0.9714260 0.9652237
1.0000000 0.9771064 0.9722550
1.0000000 0.9813727 0.9774954
1.0000000 0.9846336 0.9814788
1.0000000 0.9871665 0.9845605
1.0000000 0.9891629 0.9869822
1.0000000 0.9907577 0.9889121
1.0000000 0.9920471 0.9904696
0.4625786 0.8123527 0.2637923
0.4626924 0.8123488 0.2638118
0.4628765 0.8123427 0.2638432
0.4631738 0.8123327 0.2638942
0.4636540 0.8123165 0.2639768
0.4644280 0.8122904 0.2641109
0.4656730 0.8122485 0.2643286
0.4676681 0.8121811 0.2646831
0.4708469 0.8120735 0.2652624
0.4758657 0.8119029 0.2662138
0.4836803 0.8116359 0.2677875
0.4956011 0.8112260 0.2704130
0.5132679 0.8106146 0.2748310
0.5384774 0.8097408 0.2822940
0.5728619 0.8085653 0.2948033
0.6175522 0.8071111 0.3152145
0.6729495 0.8055283 0.3469012
0.7383681 0.8042127 0.3924850
0.8090496 0.8019573 0.4516200
0.8583152 0.7884784 0.5284208
0.9009393 0.7903576 0.6055957
0.9370069 0.8066992 0.6788785
0.9672470 0.8332336 0.7453213
0.9925949 0.8648750 0.8035660
1.0000000 0.8896839 0.8482328
1.0000000 0.9187179 0.8935594
1.0000000 0.9391333 0.9226715
1.0000000 0.9535974 0.9421623
1.0000000 0.9639803 0.9556535
1.0000000 0.9715526 0.9652605
1.0000000 0.9771685 0.9722727
1.0000000 0.9814036 0.9775040
1.0000000 0.9846492 0.9814831
1.0000000 0.9871745 0.9845627
1.0000000 0.9891670 0.9869833
1.0000000 0.9907598 0.9889126
1.0000000 0.9920483 0.9904699
0.5517100 0.8668301 0.3952953
0.5517709 0.8668274 0.3953110
0.5518693 0.8668229 0.3953365
0.5520285 0.8668158 0.3953778
0.5522857 0.8668042 0.3954446
0.5527010 0.8667855 0.3955527
0.5533707 0.8667554 0.3957277
0.5544484 0.8667068 0.3960113
0.5561769 0.8666289 0.3964711
0.5589340 0.8665043 0.3972169
0.5632952 0.8663068 0.3984282
0.5701055 0.8659973 0.4003980
0.5805382 0.8655212 0.4036009
0.5960907 0.8648084 0.4087937
0.6184504 0.8637823 0.4171456
0.6491984 0.8623842 0.4303311
0.6894210 0.8606187 0.4504393
0.7393356 0.8586305 0.4794889
0.7979091 0.8568277 0.5185285
0.8602932 0.8540021 0.5677008
0.9013691 0.8407363 0.6307020
0.9368561 0.8423589 0.6939290
0.9669604 0.8566471 0.7538825
0.9923409 0.8792999 0.8082513
1.0000000 0.8982005 0.8513175
1.0000000 0.9226712 0.8948967
1.0000000 0.9409817 0.9232661
1.0000000 0.9544707 0.9424324
1.0000000 0.9643983 0.9557788
1.0000000 0.9717555 0.9653197
1.0000000 0.9772684 0.9723012
1.0000000 0.9814535 0.9775179
1.0000000 0.9846745 0.9814901
1.0000000 0.9871874 0.9845662
1.0000000 0.9891737 0.9869851
1.0000000 0.9907633 0.9889136
1.0000000 0.9920501 0.9904704
0.6372006 0.9105499 0.5177678
0.6372320 0.9105482 0.5177768
0.6372827 0.9105454 0.5177913
0.6373647 0.9105409 0.5178148
0.6374974 0.9105335 0.5178528
0.6377119 0.9105217 0.5179143
0.6380582 0.9105026 0.5180139
0.6386168 0.9104718 0.5181750
0.6395161 0.9104221 0.5184357
0.6409592 0.9103424 0.5188575
0.6432633 0.9102151 0.5195401
0.6469131 0.9100133 0.5206441
0.6526252 0.9096970 0.5224281
0.6614046 0.9092104 0.5253046
0.6745548 0.9084816 0.5299197
0.6935785 0.9074313 0.5372462
0.7199297 0.9059969 0.5486431
0.7546459 0.9041772 0.5657646
0.7979454 0.9021085 0.5901688
0.8488224 0.9001774 0.6226122
0.9027349 0.8972740 0.6631170
0.9370478 0.8851135 0.7145958
0.9667508 0.8865206 0.7662514
0.9920647 0.8987848 0.8152897
1.0000000 0.9101986 0.8559824
1.0000000 0.9284938 0.8969663
1.0000000 0.9437928 0.9242010
1.0000000 0.9558287 0.9428618
1.0000000 0.9650579 0.9559793
1.0000000 0.9720787 0.9654149
1.0000000 0.9774285 0.9723471
1.0000000 0.9815337 0.9775405
1.0000000 0.9847152 0.9815012
1.0000000 0.9872083 0.9845718
1.0000000 0.9891845 0.9869879
1.0000000 0.9907690 0.9889151
1.0000000 0.9920531 0.9904712
0.7133007 0.9459627 0.6207243
0.7133166 0.9459616 0.6207290
0.7133424 0.9459600 0.6207367
0.7133841 0.9459573 0.6207492
0.7134515 0.9459531 0.6207694
0.7135605 0.9459461 0.6208021
0.7137367 0.9459349 0.6208549
0.7140213 0.9459168 0.6209405
0.7144804 0.9458875 0.6210789
0.7152198 0.9458404 0.6213028
