release/datafiles/colormanagement/LUTs/guard_rail_higher.cube
TITLE "Guard Rail sRGB"
# Higher Side of Guard Rail Formation for sRGB medium.
# The Guard Rail is designed to leaves valid value as-is, and only touch out of domain valuesModified from python script shared by Sakari Kapanen
# This LUT assumes target medium primaries encoded in DaVinciIntermediate curve
# LUT resolution 45
LUT_3D_SIZE 5
0.0000000 0.0000000 0.0000000
0.2500000 0.0000000 0.0000000
0.5000000 0.0000000 0.0000000
0.5138374 0.4564317 0.4564317
0.5138374 0.5060975 0.5060975
0.0000000 0.2500000 0.0000000
0.2500000 0.2500000 0.0000000
0.5000000 0.2500000 0.0000000
0.5138374 0.4581029 0.4575059
0.5138374 0.5061209 0.5061148
0.0000000 0.5000000 0.0000000
0.2500000 0.5000000 0.0000000
0.5000000 0.5000000 0.0000000
0.5138374 0.4721794 0.4667913
0.5138374 0.5063628 0.5062943
0.4915825 0.5138374 0.4915825
0.4918332 0.5138374 0.4916346
0.4943912 0.5138374 0.4921715
0.5138374 0.5138374 0.4966012
0.5138374 0.5083721 0.5077889
0.5112683 0.5138374 0.5112683
0.5112709 0.5138374 0.5112689
0.5112982 0.5138374 0.5112755
0.5115801 0.5138374 0.5113432
0.5138374 0.5138374 0.5118908
0.0000000 0.0000000 0.2500000
0.2500000 0.0000000 0.2500000
0.5000000 0.0000000 0.2500000
0.5138374 0.4566664 0.4572749
0.5138374 0.5061012 0.5061073
0.0000000 0.2500000 0.2500000
0.2500000 0.2500000 0.2500000
0.5000000 0.2500000 0.2500000
0.5138374 0.4583257 0.4583257
0.5138374 0.5061246 0.5061246
0.0000000 0.5000000 0.2500000
0.2500000 0.5000000 0.2500000
0.5000000 0.5000000 0.2500000
0.5138374 0.4723143 0.4674216
0.5138374 0.5063663 0.5063037
0.4916172 0.5138374 0.4918160
0.4918674 0.5138374 0.4918674
0.4944203 0.5138374 0.4923973
0.5138374 0.5138374 0.4967723
0.5138374 0.5083742 0.5077959
0.5112687 0.5138374 0.5112707
0.5112713 0.5138374 0.5112713
0.5112986 0.5138374 0.5112779
0.5115804 0.5138374 0.5113455
0.5138374 0.5138374 0.5118925
0.0000000 0.0000000 0.5000000
0.2500000 0.0000000 0.5000000
0.5000000 0.0000000 0.5000000
0.5138374 0.4590375 0.4655328
0.5138374 0.5061407 0.5062106
0.0000000 0.2500000 0.5000000
0.2500000 0.2500000 0.5000000
0.5000000 0.2500000 0.5000000
0.5138374 0.4605784 0.4663670
0.5138374 0.5061639 0.5062277
0.0000000 0.5000000 0.5000000
0.2500000 0.5000000 0.5000000
0.5000000 0.5000000 0.5000000
0.5138374 0.4736907 0.4736907
0.5138374 0.5064034 0.5064034
0.4919776 0.5138374 0.4942191
0.4922226 0.5138374 0.4942637
0.4947238 0.5138374 0.4947238
0.5138374 0.5138374 0.4985453
0.5138374 0.5083959 0.5078696
0.5112731 0.5138374 0.5112958
0.5112757 0.5138374 0.5112964
0.5113029 0.5138374 0.5113029
0.5115841 0.5138374 0.5113698
0.5138374 0.5138374 0.5119107
0.4363231 0.4363231 0.5138374
0.4378823 0.4369769 0.5138374
0.4522306 0.4432576 0.5138374
0.5138374 0.4757220 0.5138374
0.5138374 0.5065369 0.5072446
0.4383062 0.4391898 0.5138374
0.4397992 0.4397992 0.5138374
0.4535951 0.4456732 0.5138374
0.5138374 0.4765555 0.5138374
0.5138374 0.5065581 0.5072585
0.4542836 0.4614927 0.5138374
0.4552996 0.4618145 0.5138374
0.4649907 0.4649907 0.5138374
0.5138374 0.4841285 0.5138374
0.5138374 0.5067768 0.5074024
0.4951928 0.5138374 0.5138374
0.4953929 0.5138374 0.5138374
0.4974475 0.5138374 0.5138374
0.5138374 0.5138374 0.5138374
0.5138374 0.5086170 0.5086170
0.5113186 0.5138374 0.5115578
0.5113211 0.5138374 0.5115584
0.5113478 0.5138374 0.5115641
0.5116230 0.5138374 0.5116230
0.5138374 0.5138374 0.5121014
0.5024039 0.5024039 0.5138374
0.5024253 0.5024162 0.5138374
0.5026493 0.5025449 0.5138374
0.5047425 0.5037532 0.5138374
0.5138374 0.5091198 0.5138374
0.5024418 0.5024509 0.5138374
0.5024631 0.5024631 0.5138374
0.5026859 0.5025908 0.5138374
0.5047690 0.5037906 0.5138374
0.5138374 0.5091299 0.5138374
0.5028284 0.5029301 0.5138374
0.5028486 0.5029413 0.5138374
0.5030595 0.5030595 0.5138374
0.5050403 0.5041743 0.5138374
0.5138374 0.5092352 0.5138374
0.5057471 0.5065341 0.5138374
0.5057596 0.5065396 0.5138374
0.5058909 0.5065978 0.5138374
0.5071633 0.5071633 0.5138374
0.5138374 0.5101920 0.5138374
0.5117187 0.5138374 0.5138374
0.5117208 0.5138374 0.5138374
0.5117423 0.5138374 0.5138374
0.5119659 0.5138374 0.5138374
0.5138374 0.5138374 0.5138374
