release/datafiles/colormanagement/LUTs/guard_rail_srgb.cube
TITLE "Guard Rail sRGB"
# Guard Rail Formation for sRGB medium.
# The Guard Rail is designed to leaves valid value as-is, and only touch out of domain valuesModified from python script shared by Sakari Kapanen
# This LUT assumes E Gamut encoded in ST2084 (10) curve and then power 1.5
# LUT resolution 50
LUT_3D_SIZE 5
DOMAIN_MIN 0.000000 0.000000 0.000000
DOMAIN_MAX 0.816327 0.816327 0.816327
0.0000000 0.0000000 0.0000000
0.1929063 0.0840934 0.0840934
0.3873472 0.2035678 0.2035678
0.5741099 0.3581152 0.3581152
0.6158403 0.5626755 0.5626755
0.1489404 0.2101140 0.1489404
0.2108277 0.2108277 0.1250148
0.3942596 0.2505840 0.2052026
0.5749357 0.3687544 0.3567375
0.6161750 0.5637613 0.5633948
0.3145955 0.4101700 0.3145955
0.3114092 0.4093239 0.2899893
0.4152420 0.4152420 0.2777846
0.5850791 0.4527114 0.3830685
0.6187141 0.5717932 0.5688948
0.4863561 0.6039658 0.4863561
0.4864890 0.6047211 0.4820369
0.4845303 0.6086533 0.4240699
0.6162722 0.6162722 0.4445710
0.6286065 0.6004208 0.5899234
0.6177575 0.6432837 0.6177575
0.6178292 0.6432790 0.6176675
0.6183507 0.6432351 0.6169352
0.6210567 0.6430155 0.6131214
0.6470582 0.6470582 0.6222261
0.0716748 0.0716748 0.1548182
0.1896299 0.1117899 0.1896299
0.3856150 0.2116722 0.2512345
0.5744554 0.3585973 0.3703619
0.6158740 0.5626889 0.5630587
0.1608403 0.2132880 0.2132880
0.2040816 0.2040816 0.2040816
0.4049452 0.2155120 0.2155120
0.5752295 0.3687241 0.3687241
0.6162083 0.5637739 0.5637739
0.3169413 0.4104930 0.3321564
0.3140953 0.4095892 0.3140953
0.4122169 0.4122169 0.2753859
0.5847641 0.4496410 0.3877548
0.6187106 0.5717047 0.5691431
0.4868633 0.6039351 0.4910215
0.4870114 0.6046865 0.4870114
0.4852597 0.6086335 0.4339678
0.6161711 0.6161711 0.4444837
0.6285841 0.6003137 0.5900367
0.6177802 0.6433102 0.6179413
0.6178520 0.6433056 0.6178520
0.6183739 0.6432623 0.6171246
0.6209242 0.6430035 0.6131335
0.6470584 0.6470584 0.6222275
0.1757394 0.1757394 0.3214764
0.2162285 0.1859779 0.3294243
0.3786589 0.2513702 0.3786589
0.5770923 0.3623244 0.4389983
0.6161306 0.5627948 0.5659349
0.2113426 0.2380748 0.3455549
0.2162066 0.2162066 0.3798097
0.3916888 0.2616110 0.3916888
0.5778602 0.3720594 0.4384147
0.6164616 0.5638739 0.5666197
0.3322955 0.4131380 0.4131380
0.3312022 0.4119038 0.4119038
0.4081633 0.4081633 0.4081633
0.5842922 0.4345771 0.4345771
0.6188182 0.5714137 0.5714137
0.4905438 0.6037217 0.5213166
0.4907971 0.6044455 0.5190400
0.4904904 0.6085114 0.4904904
0.6133766 0.6133766 0.4420741
0.6284198 0.5995070 0.5909347
0.6179524 0.6435104 0.6193248
0.6180245 0.6435063 0.6192399
0.6185493 0.6434674 0.6185493
0.6204987 0.6430709 0.6139973
0.6470600 0.6470600 0.6222381
0.2988121 0.2988121 0.4920076
0.3078117 0.2979056 0.4890507
0.3884499 0.3251742 0.5114492
0.5661284 0.4048054 0.5661284
0.6173323 0.5633593 0.5785776
0.3045068 0.3140155 0.4918904
0.3022221 0.3022221 0.4964767
0.3929980 0.3332159 0.5229667
0.5704375 0.4084737 0.5704375
0.6176495 0.5644125 0.5791415
0.3759524 0.4270129 0.5380736
0.3767650 0.4252904 0.5428000
0.4081633 0.4081633 0.6122449
0.5962009 0.4380356 0.5962009
0.6199114 0.5717860 0.5831078
0.5045430 0.6031069 0.6031069
0.5051184 0.6037286 0.6037286
0.5094888 0.6084482 0.6084482
0.6122449 0.6122449 0.6122449
0.6285874 0.5979573 0.5979573
0.6187398 0.6444217 0.6254866
0.6188135 0.6444202 0.6254221
0.6193522 0.6444018 0.6248953
0.6213894 0.6441324 0.6213894
0.6470672 0.6470672 0.6222859
0.4357727 0.4357727 0.6178753
0.4361289 0.4339839 0.6177957
0.4529448 0.4358165 0.6183746
0.5318401 0.4824192 0.6241829
0.6224967 0.5665579 0.6224967
0.4335745 0.4357288 0.6178221
0.4299926 0.4299926 0.6172600
0.4522791 0.4371509 0.6184206
0.5327746 0.4853167 0.6244238
0.6227702 0.5675240 0.6227702
0.4578922 0.4720246 0.6205508
0.4579788 0.4705766 0.6204627
0.4622035 0.4622035 0.6200877
0.5402053 0.5060353 0.6263027
0.6247379 0.5743431 0.6247379
0.5408364 0.5690715 0.6322822
0.5414594 0.5690136 0.6323074
0.5462993 0.5686990 0.6325233
0.5704118 0.5704118 0.6340924
0.6322504 0.5985400 0.6322504
0.6219173 0.6480396 0.6480396
0.6219993 0.6480493 0.6480493
0.6226046 0.6481208 0.6481208
0.6250726 0.6484149 0.6484149
0.6518940 0.6518940 0.6518940
