release/datafiles/colormanagement/LUTs/guard_rail_p3.cube
TITLE "Guard Rail P3"
# Guard Rail Formation for P3 medium.
# The Guard Rail is designed to leaves valid value as-is, and only touch out of domain valuesModified from python script shared by Sakari Kapanen
# This LUT assumes E Gamut encoded in ST2084 (10) curve and then power 1.5
# LUT resolution 50
LUT_3D_SIZE 50
0.0000000 0.0000000 0.0000000
0.0194099 0.0036975 0.0036975
0.0389198 0.0086487 0.0086487
0.0584794 0.0143760 0.0143760
0.0780741 0.0207219 0.0207219
0.0976962 0.0275986 0.0275986
0.1173407 0.0349482 0.0349482
0.1370042 0.0427287 0.0427287
0.1566843 0.0509081 0.0509081
0.1763790 0.0594608 0.0594608
0.1960866 0.0683660 0.0683660
0.2158059 0.0776059 0.0776059
0.2355357 0.0871657 0.0871657
0.2552750 0.0970321 0.0970321
0.2750230 0.1071938 0.1071938
0.2947789 0.1176406 0.1176406
0.3145420 0.1283633 0.1283633
0.3343117 0.1393537 0.1393537
0.3540874 0.1506043 0.1506043
0.3738685 0.1621081 0.1621081
0.3936546 0.1738590 0.1738590
0.4134450 0.1858509 0.1858509
0.4332394 0.1980786 0.1980786
0.4530372 0.2105369 0.2105369
0.4728381 0.2232210 0.2232210
0.4926415 0.2361266 0.2361266
0.5124471 0.2492493 0.2492493
0.5322544 0.2625852 0.2625852
0.5520629 0.2761305 0.2761305
0.5718723 0.2898815 0.2898815
0.5916821 0.3038348 0.3038348
0.5981670 0.3489742 0.3489742
0.6010353 0.3903127 0.3903127
0.6040240 0.4234866 0.4234866
0.6070989 0.4513399 0.4513399
0.6102224 0.4753249 0.4753249
0.6133554 0.4962868 0.4962868
0.6164588 0.5147658 0.5147658
0.6194959 0.5311339 0.5311339
0.6224334 0.5456645 0.5456645
0.6250219 0.5575868 0.5575868
0.6274722 0.5682216 0.5682216
0.6299891 0.5785706 0.5785706
0.6323883 0.5879572 0.5879572
0.6345981 0.5962343 0.5962343
0.6366170 0.6035163 0.6035163
0.6384477 0.6099079 0.6099079
0.6400966 0.6155054 0.6155054
0.6415730 0.6203969 0.6203969
0.6428879 0.6246630 0.6246630
0.0085640 0.0211787 0.0085640
0.0213788 0.0213788 0.0070267
0.0403121 0.0232902 0.0110587
0.0595000 0.0264099 0.0161947
0.0788368 0.0306173 0.0221372
0.0982777 0.0357685 0.0287255
0.1177926 0.0417316 0.0358614
0.1373612 0.0483958 0.0434791
0.1569703 0.0556717 0.0515316
0.1766108 0.0634881 0.0599837
0.1962764 0.0717889 0.0688078
0.2159627 0.0805294 0.0779817
0.2356662 0.0896734 0.0874870
0.2553844 0.0991918 0.0973083
0.2751152 0.1090603 0.1074322
0.2948570 0.1192589 0.1178470
0.3146085 0.1297704 0.1285427
0.3343685 0.1405803 0.1395100
0.3541361 0.1516760 0.1507408
0.3739104 0.1630465 0.1622277
0.3936907 0.1746822 0.1739638
0.4134762 0.1865744 0.1859431
0.4332665 0.1987153 0.1981598
0.4530608 0.2110981 0.2106085
0.4728586 0.2237163 0.2232842
0.4926594 0.2365642 0.2361825
0.5124627 0.2496363 0.2492988
0.5322680 0.2629278 0.2626290
0.5520749 0.2764340 0.2761693
0.5718828 0.2901506 0.2899160
0.5916913 0.3040736 0.3038654
0.5981737 0.3491362 0.3490115
0.6010418 0.3904225 0.3903475
0.6040300 0.4235658 0.4235176
0.6071045 0.4513990 0.4513666
0.6102275 0.4753698 0.4753475
0.6133599 0.4963214 0.4963058
0.6164628 0.5147927 0.5147816
0.6194994 0.5311548 0.5311468
0.6224364 0.5456808 0.5456750
0.6250242 0.5575988 0.5575945
0.6274742 0.5682311 0.5682279
0.6299909 0.5785788 0.5785764
0.6323897 0.5879635 0.5879618
0.6345993 0.5962392 0.5962379
0.6366180 0.6035201 0.6035191
0.6384484 0.6099108 0.6099101
0.6400972 0.6155077 0.6155071
0.6415735 0.6203986 0.6203982
0.6428883 0.6246643 0.6246640
0.0185962 0.0420243 0.0185962
0.0244903 0.0415300 0.0124968
0.0424543 0.0424543 0.0155689
0.0612064 0.0441208 0.0198594
0.0802299 0.0466396 0.0251194
0.0994139 0.0500430 0.0311681
0.1187181 0.0543143 0.0378779
0.1381166 0.0594093 0.0451569
0.1575894 0.0652700 0.0529380
0.1771209 0.0718338 0.0611704
0.1966992 0.0790390 0.0698152
0.2163150 0.0868283 0.0788414
0.2359613 0.0951499 0.0882242
0.2556329 0.1039587 0.0979430
0.2753254 0.1132153 0.1079807
0.2950356 0.1228860 0.1183227
0.3147608 0.1329416 0.1289564
0.3344988 0.1433573 0.1398708
0.3542480 0.1541114 0.1510562
0.3740068 0.1651855 0.1625040
0.3937739 0.1765634 0.1742064
0.4135483 0.1882310 0.1861564
0.4333290 0.2001760 0.1983476
0.4531151 0.2123874 0.2107741
0.4729059 0.2248555 0.2234305
0.4927007 0.2375717 0.2363118
0.5124988 0.2505282 0.2494132
0.5322997 0.2637179 0.2627304
0.5521026 0.2771345 0.2762592
0.5719071 0.2907720 0.2899957
0.5917127 0.3046252 0.3039362
0.5981892 0.3495107 0.3490977
0.6010566 0.3906765 0.3904282
0.6040440 0.4237490 0.4235892
0.6071174 0.4515356 0.4514285
0.6102392 0.4754738 0.4754001
0.6133704 0.4964016 0.4963498
0.6164720 0.5148549 0.5148180
0.6195074 0.5312033 0.5311768
0.6224432 0.5457187 0.5456994
0.6250296 0.5576266 0.5576124
0.6274787 0.5682530 0.5682423
0.6299951 0.5785977 0.5785899
0.6323932 0.5879782 0.5879724
0.6346021 0.5962506 0.5962463
0.6366202 0.6035289 0.6035257
0.6384502 0.6099176 0.6099153
0.6400987 0.6155129 0.6155111
0.6415746 0.6204027 0.6204013
0.6428892 0.6246674 0.6246664
0.0294153 0.0627273 0.0294153
0.0288920 0.0618673 0.0191107
0.0453473 0.0624115 0.0214626
0.0633982 0.0633982 0.0249544
0.0820311 0.0649555 0.0294599
0.1009368 0.0671836 0.0348446
0.1200111 0.0701446 0.0409884
0.1392116 0.0738669 0.0477923
0.1585142 0.0783527 0.0551767
0.1779010 0.0835850 0.0630786
0.1973574 0.0895336 0.0714473
0.2168712 0.0961602 0.0802423
0.2364324 0.1034222 0.0894307
0.2560328 0.1112760 0.0989855
0.2756660 0.1196790 0.1088842
0.2953264 0.1285911 0.1191078
0.3150099 0.1379756 0.1296404
0.3347127 0.1477990 0.1404682
0.3544322 0.1580316 0.1515790
0.3741658 0.1686467 0.1629624
0.3939114 0.1796210 0.1746091
0.4136675 0.1909336 0.1865107
0.4334326 0.2025663 0.1986598
0.4532053 0.2145028 0.2110496
0.4729845 0.2267289 0.2236739
0.4927693 0.2392318 0.2365270
0.5125589 0.2520001 0.2496038
0.5323522 0.2650237 0.2628993
0.5521487 0.2782935 0.2764090
0.5719476 0.2918013 0.2901286
0.5917482 0.3055396 0.3040543
0.5982150 0.3501326 0.3492413
0.6010814 0.3910989 0.3905625
0.6040674 0.4240539 0.4237085
0.6071389 0.4517632 0.4515316
0.6102587 0.4756471 0.4754876
0.6133878 0.4965351 0.4964231
0.6164874 0.5149586 0.5148788
0.6195207 0.5312841 0.5312267
0.6224546 0.5457818 0.5457401
0.6250385 0.5576730 0.5576421
0.6274861 0.5682895 0.5682664
0.6300021 0.5786293 0.5786123
0.6323989 0.5880027 0.5879901
0.6346067 0.5962696 0.5962603
0.6366239 0.6035435 0.6035366
0.6384532 0.6099289 0.6099238
0.6401010 0.6155216 0.6155177
0.6415765 0.6204093 0.6204065
0.6428906 0.6246725 0.6246703
0.0408180 0.0833335 0.0408180
0.0395076 0.0826857 0.0330890
0.0491589 0.0825963 0.0283584
0.0661959 0.0832359 0.0311850
0.0842526 0.0842526 0.0349771
0.1027971 0.0857445 0.0396684
0.1216097 0.0877981 0.0451749
0.1405963 0.0904796 0.0514117
0.1597133 0.0938335 0.0583010
0.1789365 0.0978843 0.0657751
0.1982491 0.1026391 0.0737767
0.2176377 0.1080912 0.0822574
0.2370906 0.1142225 0.0911771
0.2565981 0.1210071 0.1005019
0.2761517 0.1284138 0.1102036
0.2957443 0.1364084 0.1202581
0.3153699 0.1449556 0.1306452
0.3350234 0.1540208 0.1413475
0.3547007 0.1635704 0.1523498
0.3743983 0.1735733 0.1636393
0.3941131 0.1840004 0.1752044
0.4138428 0.1948253 0.1870350
0.4335851 0.2060240 0.1991222
0.4533382 0.2175749 0.2114579
0.4731006 0.2294585 0.2240348
0.4928708 0.2416574 0.2368464
0.5126477 0.2541560 0.2498866
0.5324301 0.2669403 0.2631500
0.5522170 0.2799978 0.2766314
0.5720076 0.2933170 0.2903261
0.5918010 0.3068880 0.3042296
0.5982534 0.3510525 0.3494546
0.6011183 0.3917249 0.3907621
0.6041020 0.4245062 0.4238857
0.6071709 0.4521010 0.4516848
0.6102878 0.4759044 0.4756176
0.6134138 0.4967335 0.4965321
0.6165102 0.5151126 0.5149692
0.6195405 0.5314042 0.5313009
0.6224716 0.5458755 0.5458006
0.6250518 0.5577420 0.5576863
0.6274973 0.5683438 0.5683023
0.6300124 0.5786762 0.5786456
0.6324074 0.5880392 0.5880165
0.6346136 0.5962978 0.5962810
0.6366294 0.6035654 0.6035529
0.6384576 0.6099458 0.6099365
0.6401045 0.6155345 0.6155276
0.6415792 0.6204193 0.6204141
0.6428928 0.6246801 0.6246762
0.0526955 0.1038655 0.0526955
0.0517503 0.1034310 0.0472405
0.0539378 0.1028631 0.0360278
0.0697269 0.1033061 0.0383247
0.0869948 0.1040054 0.0414935
0.1050383 0.1050383 0.0455255
0.1235127 0.1064850 0.0503816
0.1422484 0.1084203 0.0560054
0.1611611 0.1109083 0.0623339
0.1802077 0.1139985 0.0693050
0.1993634 0.1177262 0.0768613
0.2186116 0.1221125 0.0849512
0.2379396 0.1271657 0.0935296
0.2573367 0.1328830 0.1025576
0.2767934 0.1392526 0.1120013
0.2963015 0.1462553 0.1218320
0.3158536 0.1538665 0.1320248
0.3354435 0.1620582 0.1425583
0.3550657 0.1708005 0.1534138
0.3747157 0.1800628 0.1645755
0.3943895 0.1898150 0.1760291
0.4140837 0.2000279 0.1877623
0.4337953 0.2106740 0.1997644
0.4535218 0.2217275 0.2120254
0.4732611 0.2331645 0.2245369
0.4930114 0.2449634 0.2372910
0.5127709 0.2571041 0.2502806
0.5325381 0.2695687 0.2634994
0.5523119 0.2823407 0.2769415
0.5720910 0.2954054 0.2906014
0.5918744 0.3087493 0.3044743
0.5983071 0.3523273 0.3497518
0.6011698 0.3925948 0.3910403
0.6041505 0.4251357 0.4241329
0.6072156 0.4525716 0.4518984
0.6103284 0.4762631 0.4757991
0.6134500 0.4970101 0.4966842
0.6165421 0.5153275 0.5150952
0.6195681 0.5315717 0.5314045
0.6224952 0.5460064 0.5458850
0.6250703 0.5578382 0.5577481
0.6275128 0.5684196 0.5683524
0.6300269 0.5787418 0.5786921
0.6324192 0.5880901 0.5880534
0.6346232 0.5963372 0.5963101
0.6366372 0.6035958 0.6035757
0.6384638 0.6099693 0.6099542
0.6401094 0.6155526 0.6155414
0.6415831 0.6204332 0.6204248
0.6428958 0.6246907 0.6246845
0.0649785 0.1243366 0.0649785
0.0642688 0.1240361 0.0608884
0.0624537 0.1233626 0.0484949
0.0740653 0.1234836 0.0462083
0.0903594 0.1239860 0.0488534
0.1077433 0.1247259 0.0522933
0.1257680 0.1257680 0.0565277
0.1441843 0.1271804 0.0615328
0.1628546 0.1290292 0.0672687
0.1817035 0.1313742 0.0736874
0.2006887 0.1342663 0.0807385
0.2197854 0.1377453 0.0883728
0.2389768 0.1418404 0.0965444
0.2582507 0.1465697 0.1052115
0.2775969 0.1519414 0.1143368
0.2970062 0.1579543 0.1238874
0.3164709 0.1645995 0.1338342
0.3359837 0.1718617 0.1441520
0.3555382 0.1797204 0.1548186
0.3751289 0.1881517 0.1658146
0.3947509 0.1971292 0.1771229
0.4143999 0.2066256 0.1887288
0.4340721 0.2166132 0.2006189
0.4537643 0.2270649 0.2127817
0.4734737 0.2379544 0.2252067
0.4931979 0.2492569 0.2378846
0.5129346 0.2609491 0.2508071
0.5326820 0.2730093 0.2639666
0.5524384 0.2854176 0.2773564
0.5722023 0.2981555 0.2909701
0.5919724 0.3112064 0.3048020
0.5983791 0.3540191 0.3501494
0.6012389 0.3937537 0.3914125
0.6042155 0.4259760 0.4244637
0.6072756 0.4532006 0.4521846
0.6103828 0.4767430 0.4760421
0.6134986 0.4973805 0.4968879
0.6165849 0.5156153 0.5152642
0.6196052 0.5317962 0.5315433
0.6225265 0.5461794 0.5459957
0.6250951 0.5579673 0.5578309
0.6275337 0.5685213 0.5684195
0.6300464 0.5788297 0.5787546
0.6324351 0.5881583 0.5881028
0.6346361 0.5963901 0.5963490
0.6366476 0.6036367 0.6036062
0.6384721 0.6100008 0.6099781
0.6401160 0.6155769 0.6155599
0.6415883 0.6204518 0.6204391
0.6428998 0.6247050 0.6246955
0.0776181 0.1447558 0.0776181
0.0770710 0.1445438 0.0744423
0.0757140 0.1440647 0.0656636
0.0792375 0.1437145 0.0547168
0.0944216 0.1440878 0.0569298
0.1109968 0.1446341 0.0598554
0.1284459 0.1454029 0.0635216
0.1464501 0.1464501 0.0679328
0.1648166 0.1478350 0.0730744
0.1834302 0.1496168 0.0789175
0.2022228 0.1518514 0.0854246
0.2211536 0.1545886 0.0925543
0.2401977 0.1578703 0.1002641
0.2593384 0.1617303 0.1085131
0.2785635 0.1661929 0.1172629
0.2978630 0.1712738 0.1264781
0.3172285 0.1769803 0.1361267
0.3366523 0.1833116 0.1461801
0.3561274 0.1902604 0.1566128
0.3756475 0.1978133 0.1674022
0.3952070 0.2059524 0.1785282
0.4148008 0.2146563 0.1899732
0.4344245 0.2239013 0.2017214
0.4540741 0.2336623 0.2137589
0.4737461 0.2439135 0.2260734
0.4934374 0.2546293 0.2386536
0.5131454 0.2657849 0.2514899
0.5328675 0.2773561 0.2645731
0.5526018 0.2893203 0.2778953
0.5723463 0.3016560 0.2914492
0.5920993 0.3143435 0.3052282
0.5984730 0.3561937 0.3506654
0.6013290 0.3952504 0.3918962
0.6043002 0.4270641 0.4248938
0.6073538 0.4540165 0.4525566
0.6104537 0.4773662 0.4763583
0.6135620 0.4978618 0.4971530
0.6166406 0.5159895 0.5154841
0.6196536 0.5320883 0.5317241
0.6225647 0.5463927 0.5461279
0.6251275 0.5581353 0.5579388
0.6275609 0.5686537 0.5685070
0.6300717 0.5789442 0.5788359
0.6324559 0.5882473 0.5881672
0.6346530 0.5964591 0.5963997
0.6366611 0.6036900 0.6036460
0.6384829 0.6100419 0.6100091
0.6401245 0.6156085 0.6155841
0.6415950 0.6204761 0.6204578
0.6429051 0.6247237 0.6247100
0.0905774 0.1651295 0.0905774
0.0901477 0.1649780 0.0880537
0.0891017 0.1646339 0.0814334
0.0871729 0.1640840 0.0668364
0.0992262 0.1642571 0.0656226
0.1148693 0.1646710 0.0681102
0.1316192 0.1652510 0.0712717
0.1491071 0.1660411 0.0751333
0.1670906 0.1670906 0.0797024
0.1854137 0.1684525 0.0849704
0.2039773 0.1701805 0.0909160
0.2227195 0.1723266 0.0975095
0.2416013 0.1749390 0.1047164
0.2605979 0.1780603 0.1125001
0.2796926 0.1817266 0.1208238
0.2988732 0.1859663 0.1296521
0.3181300 0.1908006 0.1389518
0.3374548 0.1962426 0.1486920
0.3568401 0.2022984 0.1588447
0.3762793 0.2089672 0.1693845
0.3957661 0.2162419 0.1802885
0.4152951 0.2241104 0.1915363
0.4348611 0.2325563 0.2031095
0.4544595 0.2415598 0.2149918
0.4740862 0.2510988 0.2271687
0.4937375 0.2611499 0.2396270
0.5134101 0.2716887 0.2523551
0.5331011 0.2826910 0.2653425
0.5528079 0.2941327 0.2785797
0.5725282 0.3059906 0.2920582
0.5922599 0.3182425 0.3057702
0.5985928 0.3589187 0.3513200
0.6014439 0.3971371 0.3925103
0.6044082 0.4284405 0.4254403
0.6074535 0.4550507 0.4530296
0.6105442 0.4781572 0.4767604
0.6136427 0.4984735 0.4974903
0.6167116 0.5164655 0.5157641
0.6197152 0.5324600 0.5319542
0.6226134 0.5466643 0.5462963
0.6251688 0.5583495 0.5580762
0.6275955 0.5688224 0.5686185
0.6301040 0.5790902 0.5789396
0.6324823 0.5883607 0.5882494
0.6346744 0.5965470 0.5964645
0.6366784 0.6037580 0.6036967
0.6384966 0.6100944 0.6100487
0.6401354 0.6156489 0.6156149
0.6416036 0.6205072 0.6204817
0.6429119 0.6247474 0.6247284
0.1038280 0.1854625 0.1038280
0.1034856 0.1853535 0.1017884
0.1026625 0.1851051 0.0966123
0.1011854 0.1847046 0.0861494
0.1047912 0.1844652 0.0748541
0.1194117 0.1847853 0.0769721
0.1353529 0.1852317 0.0796939
0.1522194 0.1858380 0.0830596
0.1697309 0.1866440 0.0870939
0.1876941 0.1876941 0.0918063
0.2059785 0.1890361 0.0971922
0.2244975 0.1907194 0.1032360
0.2431941 0.1927926 0.1099139
0.2620313 0.1953021 0.1171969
0.2809846 0.1982903 0.1250531
0.3000372 0.2017943 0.1334494
0.3191770 0.2058453 0.1423533
0.3383942 0.2104681 0.1517336
0.3576810 0.2156806 0.1615606
0.3770302 0.2214939 0.1718070
0.3964353 0.2279128 0.1824477
0.4158903 0.2349356 0.1934597
0.4353896 0.2425554 0.2048224
0.4549283 0.2507605 0.2165169
0.4745016 0.2595351 0.2285264
0.4941053 0.2688606 0.2408357
0.5137357 0.2787160 0.2534313
0.5333892 0.2890788 0.2663008
0.5530628 0.2999259 0.2794331
0.5727536 0.3112339 0.2928183
0.5924593 0.3229794 0.3064473
0.5987432 0.3622617 0.3521354
0.6015880 0.3994686 0.3932762
0.6045436 0.4301483 0.4261223
0.6075784 0.4563373 0.4536203
0.6106575 0.4791431 0.4772629
0.6137439 0.4992368 0.4979121
0.6168006 0.5170601 0.5161142
0.6197924 0.5329248 0.5322423
0.6226744 0.5470041 0.5465072
0.6252205 0.5586175 0.5582483
0.6276390 0.5690338 0.5687581
0.6301445 0.5792731 0.5790695
0.6325155 0.5885028 0.5883523
0.6347014 0.5966572 0.5965456
0.6367000 0.6038433 0.6037604
0.6385139 0.6101602 0.6100984
0.6401492 0.6156996 0.6156535
0.6416144 0.6205461 0.6205116
0.6429203 0.6247773 0.6247515
0.1173465 0.2057585 0.1173465
0.1170707 0.2056800 0.1156769
0.1164133 0.2055004 0.1115330
0.1152545 0.2052095 0.1035838
0.1133601 0.2047981 0.0882142
0.1246554 0.2049474 0.0863714
0.1396994 0.2052967 0.0887142
0.1558471 0.2057695 0.0916404
0.1727952 0.2063968 0.0951865
0.1903207 0.2072148 0.0993762
0.2082641 0.2082641 0.1042200
0.2265137 0.2095886 0.1097167
0.2449922 0.2112338 0.1158547
0.2636474 0.2132456 0.1226150
0.2824436 0.2156685 0.1299729
0.3013570 0.2185441 0.1379004
0.3203708 0.2219101 0.1463678
0.3394727 0.2257994 0.1553451
0.3586532 0.2302393 0.1648029
0.3779046 0.2352512 0.1747130
0.3972198 0.2408503 0.1850488
0.4165925 0.2470458 0.1957855
0.4360169 0.2538408 0.2069002
0.4554876 0.2612329 0.2183721
0.4749996 0.2692147 0.2301822
0.4945481 0.2777745 0.2423130
0.5141290 0.2868968 0.2547490
0.5337384 0.2965635 0.2674760
0.5533726 0.3067543 0.2804812
0.5730284 0.3174476 0.2937530
0.5927029 0.3286207 0.3072808
0.5989292 0.3662879 0.3531353
0.6017662 0.4023007 0.3942167
0.6047109 0.4322330 0.4269607
0.6077328 0.4579129 0.4543471
0.6107975 0.4803530 0.4778816
0.6138689 0.5001751 0.4984317
0.6169106 0.5177920 0.5165459
0.6198878 0.5334973 0.5325975
0.6227498 0.5474232 0.5467674
0.6252845 0.5589483 0.5584609
0.6276927 0.5692949 0.5689307
0.6301946 0.5794989 0.5792300
0.6325566 0.5886784 0.5884796
0.6347347 0.5967934 0.5966460
0.6367268 0.6039487 0.6038391
0.6385353 0.6102416 0.6101599
0.6401661 0.6157623 0.6157013
0.6416278 0.6205943 0.6205487
0.6429308 0.6248143 0.6247801
0.1311138 0.2260204 0.1311138
0.1308897 0.2259640 0.1297332
0.1303587 0.2258348 0.1263595
0.1294342 0.2256248 0.1201069
0.1279566 0.2253254 0.1088903
0.1306133 0.2251392 0.0962511
0.1446961 0.2254165 0.0982694
0.1600414 0.2257903 0.1008107
0.1763389 0.2262848 0.1039184
0.1933459 0.2269289 0.1076264
0.2108792 0.2277560 0.1119575
0.2288035 0.2288035 0.1169232
0.2470213 0.2301121 0.1225245
0.2654630 0.2317243 0.1287532
0.2840799 0.2336835 0.1355938
0.3028384 0.2360322 0.1430254
0.3217147 0.2388112 0.1510231
0.3406923 0.2420584 0.1595604
0.3597590 0.2458075 0.1686094
0.3789053 0.2500877 0.1781425
0.3981233 0.2549231 0.1881328
0.4174064 0.2603322 0.1985545
0.4367483 0.2663276 0.2093832
0.4561435 0.2729165 0.2205963
0.4755866 0.2801004 0.2321728
0.4950726 0.2878760 0.2440935
0.5145969 0.2962351 0.2563407
0.5341552 0.3051656 0.2688983
0.5537436 0.3146523 0.2817517
0.5733584 0.3246769 0.2948877
0.5929962 0.3352198 0.3082941
0.5991567 0.3710574 0.3543449
0.6019841 0.4056890 0.3953567
0.6049154 0.4347416 0.4279782
0.6079213 0.4598159 0.4552300
0.6109685 0.4818183 0.4786337
0.6140215 0.5013136 0.4990639
0.6170449 0.5186814 0.5170714
0.6200043 0.5341940 0.5330303
0.6228419 0.5479338 0.5470846
0.6253626 0.5593517 0.5587201
0.6277584 0.5696134 0.5691413
0.6302558 0.5797745 0.5794260
0.6326067 0.5888928 0.5886350
0.6347754 0.5969599 0.5967686
0.6367596 0.6040776 0.6039353
0.6385615 0.6103412 0.6102351
0.6401869 0.6158390 0.6157598
0.6416441 0.6206533 0.6205940
0.6429436 0.6248595 0.6248151
0.1451136 0.2462505 0.1451136
0.1449302 0.2462104 0.1439625
0.1444975 0.2461184 0.1411811
0.1437509 0.2459686 0.1361483
0.1425761 0.2457540 0.1275360
0.1407858 0.2454722 0.1122788
0.1503662 0.2455722 0.1083064
0.1648430 0.2458713 0.1105130
0.1804118 0.2462656 0.1132318
0.1968215 0.2467780 0.1165030
0.2138720 0.2474357 0.1203581
0.2314087 0.2482696 0.1248193
0.2493146 0.2493146 0.1298987
0.2675031 0.2506087 0.1355993
0.2859109 0.2521917 0.1419153
0.3044925 0.2541049 0.1488343
0.3232157 0.2563892 0.1563383
0.3420575 0.2590844 0.1644054
0.3610014 0.2622280 0.1730114
0.3800351 0.2658544 0.1821308
0.3991491 0.2699943 0.1917374
0.4183358 0.2746734 0.2018055
0.4375884 0.2799129 0.2123102
0.4569011 0.2857284 0.2232277
0.4762682 0.2921306 0.2345356
0.4956846 0.2991244 0.2462128
0.5151454 0.3067098 0.2582401
0.5346460 0.3148822 0.2705994
0.5541820 0.3236327 0.2832743
0.5737496 0.3329485 0.2962498
0.5933449 0.3428141 0.3095122
0.5994324 0.3766222 0.3557907
0.6022477 0.4096867 0.3967222
0.6051628 0.4377213 0.4291988
0.6081493 0.4620864 0.4562903
0.6111751 0.4835720 0.4795380
0.6142060 0.5026794 0.4998246
0.6172072 0.5197502 0.5177044
0.6201452 0.5350324 0.5335521
0.6229533 0.5485493 0.5474674
0.6254571 0.5598384 0.5590331
0.6278378 0.5699980 0.5693957
0.6303299 0.5801074 0.5796628
0.6326674 0.5891520 0.5888229
0.6348247 0.5971612 0.5969169
0.6367993 0.6042336 0.6040518
0.6385932 0.6104617 0.6103262
0.6402120 0.6159319 0.6158307
0.6416640 0.6207247 0.6206490
0.6429592 0.6249143 0.6248576
0.1593321 0.2664508 0.1593321
0.1591811 0.2664227 0.1583656
0.1588260 0.2663585 0.1560500
0.1582174 0.2662537 0.1519319
0.1572705 0.2661032 0.1451073
0.1558541 0.2659044 0.1337506
0.1567189 0.2657514 0.1187808
0.1702809 0.2659932 0.1206978
0.1850554 0.2663109 0.1230743
0.2007951 0.2667226 0.1259538
0.2172910 0.2672500 0.1293735
0.2343742 0.2679186 0.1333636
0.2519113 0.2687575 0.1379454
0.2697994 0.2697994 0.1431317
0.2879606 0.2710798 0.1489268
0.3063369 0.2726368 0.1553271
0.3248857 0.2745093 0.1623226
0.3435761 0.2767369 0.1698977
0.3623854 0.2793584 0.1780333
0.3812975 0.2824109 0.1867073
0.4003001 0.2859292 0.1958958
0.4193838 0.2899445 0.2055744
0.4385407 0.2944844 0.2157185
0.4577645 0.2995720 0.2263040
0.4770492 0.3052254 0.2373076
0.4963895 0.3114580 0.2487072
0.5157801 0.3182779 0.2604819
0.5352164 0.3256882 0.2726122
0.5546937 0.3336873 0.2850800
0.5742079 0.3422692 0.2978684
0.5937548 0.3514240 0.3109622
0.5997634 0.3830246 0.3574995
0.6025640 0.4143431 0.3983406
0.6054593 0.4412185 0.4306479
0.6084224 0.4647648 0.4575509
0.6114227 0.4856483 0.4806144
0.6144269 0.5043008 0.5007312
0.6174015 0.5210217 0.5184595
0.6203138 0.5360315 0.5341750
0.6230867 0.5492841 0.5479247
0.6255704 0.5604201 0.5594075
0.6279330 0.5704582 0.5697002
0.6304187 0.5805059 0.5799463
0.6327402 0.5894625 0.5890481
0.6348838 0.5974025 0.5970947
0.6368469 0.6044206 0.6041915
0.6386313 0.6106063 0.6104354
0.6402423 0.6160435 0.6159158
0.6416878 0.6208106 0.6207150
0.6429779 0.6249802 0.6249087
0.1737570 0.2866227 0.1737570
0.1736320 0.2866038 0.1729408
0.1733390 0.2865603 0.1709978
0.1728393 0.2864893 0.1675865
0.1720684 0.2863873 0.1620612
0.1709305 0.2862524 0.1532363
0.1692774 0.2860863 0.1386045
0.1763723 0.2861430 0.1313225
0.1903024 0.2864013 0.1333994
0.2053085 0.2867350 0.1359307
0.2211819 0.2871615 0.1389568
0.2377455 0.2877013 0.1425130
0.2548532 0.2883787 0.1466277
0.2723884 0.2892211 0.1513221
0.2902593 0.2902593 0.1566093
0.3083951 0.2915270 0.1624947
0.3267421 0.2930603 0.1689764
0.3452602 0.2948965 0.1760465
0.3639196 0.2970737 0.1836918
0.3826984 0.2996298 0.1918949
0.4015805 0.3026014 0.2006359
0.4205537 0.3060233 0.2098926
0.4396085 0.3099276 0.2196420
0.4587373 0.3143428 0.2298605
0.4779336 0.3192936 0.2405250
0.4971916 0.3248004 0.2516125
0.5165059 0.3308787 0.2631014
0.5358717 0.3375394 0.2749707
0.5552841 0.3447884 0.2872011
0.5747388 0.3526268 0.2997741
0.5942314 0.3610514 0.3126729
0.6001580 0.3902942 0.3594982
0.6029406 0.4197014 0.4002394
0.6058119 0.4452769 0.4323517
0.6087470 0.4678908 0.4590355
0.6117168 0.4880817 0.4818840
0.6146894 0.5062071 0.5018018
0.6176324 0.5225203 0.5193522
0.6205142 0.5372115 0.5349123
0.6232454 0.5501538 0.5484667
0.6257051 0.5611097 0.5598516
0.6280542 0.5710367 0.5700947
0.6305243 0.5809788 0.5802831
0.6328269 0.5898314 0.5893159
0.6349543 0.5976895 0.5973063
0.6369037 0.6046433 0.6043579
0.6386767 0.6107786 0.6105656
0.6402783 0.6161765 0.6160173
0.6417163 0.6209129 0.6207937
0.6430002 0.6250589 0.6249696
0.1883776 0.3067678 0.1883776
0.1882739 0.3067556 0.1876849
0.1880310 0.3067276 0.1860441
0.1876183 0.3066821 0.1831912
0.1869858 0.3066169 0.1786479
0.1860614 0.3065308 0.1715968
0.1847390 0.3064252 0.1604946
0.1831235 0.3063116 0.1423509
0.1961755 0.3065233 0.1441665
0.2103962 0.3067959 0.1463901
0.2255861 0.3071434 0.1490633
0.2415664 0.3075825 0.1522243
0.2581836 0.3081327 0.1559065
0.2753100 0.3088171 0.1601372
0.2928416 0.3096617 0.1649373
0.3106958 0.3106958 0.1703201
0.3288076 0.3119515 0.1762919
0.3471272 0.3134630 0.1828525
0.3656163 0.3152663 0.1899955
0.3842466 0.3173982 0.1977097
0.4029965 0.3198958 0.2059795
0.4218502 0.3227950 0.2147868
0.4407955 0.3261307 0.2241109
0.4598229 0.3299352 0.2339300
0.4789248 0.3342381 0.2442217
0.4980947 0.3390653 0.2549635
0.5173270 0.3444389 0.2661331
0.5366165 0.3503765 0.2777090
0.5559582 0.3568913 0.2896707
0.5753475 0.3639916 0.3019985
0.5947799 0.3716812 0.3146741
0.6006251 0.3984473 0.3618124
0.6033857 0.4257966 0.4024464
0.6062284 0.4499360 0.4343366
0.6091301 0.4715027 0.4607684
0.6120636 0.4909065 0.4833682
0.6149989 0.5084280 0.5030554
0.6179047 0.5242713 0.5203990
0.6207506 0.5385934 0.5357780
