release/datafiles/colormanagement/LUTs/guard_rail_srgb.cube
TITLE "Guard Rail sRGB"
# Guard Rail Formation for sRGB medium.
# The Guard Rail is designed to leaves valid value as-is, and only touch out of domain valuesModified from python script shared by Sakari Kapanen
# This LUT assumes E Gamut encoded in ST2084 (10) curve and then power 1.5
# LUT resolution 50
LUT_3D_SIZE 8
0.0000000 0.0000000 0.0000000
0.1347578 0.0537627 0.0537627
0.2706006 0.1288532 0.1288532
0.4068183 0.2167931 0.2167931
0.5431308 0.3147708 0.3147708
0.5957502 0.4916966 0.4916966
0.6225896 0.5820188 0.5820188
0.6400023 0.6257292 0.6257292
0.1014899 0.1487298 0.1014899
0.1486550 0.1486550 0.0831950
0.2766904 0.1731416 0.1327821
0.4113980 0.2281585 0.2083235
0.5461895 0.3156109 0.3073640
0.5959870 0.4928662 0.4921727
0.6226996 0.5823403 0.5822580
0.6400243 0.6257825 0.6257719
0.2140636 0.2908769 0.2140636
0.2095356 0.2885503 0.1860277
0.2930407 0.2930407 0.1839913
0.4181607 0.3131130 0.2348417
0.5508293 0.3581955 0.3120980
0.5974961 0.5000132 0.4956242
0.6232995 0.5840871 0.5835562
0.6401457 0.6260763 0.6260072
0.3316071 0.4298582 0.3316071
0.3306427 0.4296318 0.3243998
0.3324857 0.4291069 0.2676999
0.4354973 0.4354973 0.2939379
0.5588259 0.4535495 0.3462247
0.6034910 0.5253474 0.5110207
0.6252643 0.5897068 0.5877963
0.6405388 0.6270258 0.6267659
0.4521599 0.5661762 0.4521599
0.4520152 0.5663312 0.4497485
0.4510604 0.5672333 0.4336859
0.4725023 0.5701053 0.3818830
0.5764837 0.5764837 0.4104872
0.6166411 0.5721734 0.5393982
0.6299463 0.6025848 0.5976226
0.6415964 0.6295584 0.6288152
0.5732964 0.6340932 0.5732964
0.5734416 0.6340839 0.5730964
0.5742363 0.6340258 0.5719273
0.5767164 0.6337477 0.5672352
0.5930954 0.6347317 0.5630372
0.6411690 0.6411690 0.5778069
0.6380043 0.6233777 0.6133951
0.6437473 0.6346413 0.6329213
0.6271454 0.6455095 0.6271454
0.6271610 0.6455085 0.6271263
0.6272478 0.6455026 0.6270181
0.6275316 0.6454786 0.6266271
0.6282569 0.6453704 0.6252798
0.6336881 0.6459717 0.6254177
0.6483665 0.6483665 0.6307401
0.6470040 0.6421958 0.6389166
0.6436723 0.6496878 0.6436723
0.6436743 0.6496877 0.6436700
0.6436855 0.6496870 0.6436568
0.6437229 0.6496844 0.6436112
0.6438247 0.6496751 0.6434713
0.6440603 0.6496348 0.6430220
0.6459392 0.6498854 0.6432608
0.6507112 0.6507112 0.6450678
0.0455216 0.0455216 0.1063495
0.1327703 0.0739468 0.1327703
0.2691277 0.1365609 0.1721759
0.4061732 0.2197514 0.2364932
0.5428364 0.3159608 0.3233491
0.5958017 0.4917515 0.4924473
0.6225978 0.5820217 0.5821044
0.6400036 0.6257298 0.6257404
0.1107345 0.1515059 0.1515059
0.1428571 0.1428571 0.1428571
0.2857143 0.1428571 0.1428571
0.4131981 0.2211705 0.2211705
0.5458779 0.3168365 0.3168365
0.5960384 0.4929202 0.4929202
0.6227077 0.5823432 0.5823432
0.6400256 0.6257831 0.6257831
0.2165578 0.2913640 0.2317610
0.2124917 0.2889650 0.2124917
0.2889417 0.2889417 0.1809646
0.4202558 0.3068956 0.2336458
0.5526016 0.3529572 0.3117819
0.5974342 0.4996078 0.4958755
0.6233075 0.5840898 0.5836396
0.6401470 0.6260769 0.6260183
0.3324220 0.4299602 0.3380181
0.3314938 0.4297275 0.3314938
0.3257249 0.4288078 0.2664455
0.4345184 0.4345184 0.2931536
0.5595670 0.4519341 0.3459269
0.6034316 0.5250163 0.5112148
0.6252636 0.5896876 0.5878516
0.6405401 0.6270264 0.6267767
0.4524511 0.5661895 0.4546374
0.4523108 0.5663438 0.4523108
0.4513839 0.5672410 0.4368548
0.4705834 0.5701153 0.3815427
0.5762597 0.5762597 0.4102968
0.6166096 0.5720122 0.5395794
0.6299421 0.6025604 0.5976582
0.6415960 0.6295552 0.6288213
0.5733295 0.6341351 0.5736735
0.5734748 0.6341259 0.5734748
0.5742698 0.6340683 0.5723134
0.5767511 0.6337923 0.5676521
0.5928915 0.6347178 0.5630833
0.6411694 0.6411694 0.5778100
0.6379979 0.6233547 0.6134075
0.6437464 0.6346375 0.6329249
0.6271506 0.6455155 0.6271853
0.6271663 0.6455146 0.6271663
0.6272531 0.6455087 0.6270583
0.6275370 0.6454848 0.6266680
0.6282625 0.6453769 0.6253233
0.6336651 0.6459693 0.6254190
0.6483665 0.6483665 0.6307404
0.6470030 0.6421925 0.6389177
0.6436730 0.6496887 0.6436774
0.6436751 0.6496885 0.6436751
0.6436863 0.6496879 0.6436619
0.6437237 0.6496853 0.6436163
0.6438255 0.6496759 0.6434765
0.6440612 0.6496358 0.6430276
0.6459363 0.6498851 0.6432609
0.6507112 0.6507112 0.6450679
0.1105269 0.1105269 0.2207338
0.1487790 0.1211163 0.2305212
0.2653587 0.1654902 0.2653587
0.4031073 0.2339962 0.3041463
0.5412645 0.3222445 0.3617518
0.5960904 0.4920596 0.4965792
0.6226435 0.5820382 0.5825823
0.6400112 0.6257333 0.6258032
0.1432370 0.1674307 0.2447517
0.1463139 0.1463139 0.2772249
0.2768344 0.1739084 0.2768344
0.4094149 0.2364977 0.3022277
0.5442141 0.3232951 0.3584192
0.5963258 0.4932230 0.4970348
0.6227533 0.5823595 0.5828192
0.6400332 0.6257865 0.6258457
0.2287883 0.2942199 0.2942199
0.2264921 0.2915278 0.2915278
0.2857143 0.2857143 0.2857143
0.4285714 0.2857143 0.2857143
0.5605586 0.3279335 0.3279335
0.5976128 0.4994658 0.4994658
0.6233521 0.5841052 0.5841052
0.6401545 0.6260803 0.6260803
0.3367914 0.4305461 0.3681558
0.3360457 0.4302808 0.3642938
0.3309219 0.4290677 0.3309219
0.4287779 0.4287779 0.2885616
0.5646896 0.4414832 0.3443458
0.6031034 0.5231570 0.5123462
0.6252614 0.5895843 0.5881650
0.6405473 0.6270295 0.6268368
0.4540533 0.5662663 0.4676021
0.4539368 0.5664162 0.4656916
0.4531604 0.5672868 0.4531604
0.4583314 0.5703191 0.3795523
0.5749816 0.5749816 0.4092103
0.6164341 0.5711024 0.5406143
0.6299195 0.6024253 0.5978596
0.6415937 0.6295378 0.6288558
0.5735151 0.6343697 0.5757680
0.5736607 0.6343610 0.5755766
0.5744574 0.6343065 0.5744574
0.5769459 0.6340422 0.5699662
0.5917177 0.6346385 0.5633470
0.6411714 0.6411714 0.5778275
0.6379622 0.6232261 0.6134773
0.6437413 0.6346164 0.6329452
0.6271802 0.6455494 0.6274083
0.6271959 0.6455485 0.6273896
0.6272827 0.6455428 0.6272827
0.6275670 0.6455194 0.6268968
0.6282938 0.6454134 0.6255666
0.6335353 0.6459562 0.6254263
0.6483668 0.6483668 0.6307421
0.6469971 0.6421741 0.6389235
0.6436773 0.6496934 0.6437059
0.6436793 0.6496933 0.6437036
0.6436905 0.6496926 0.6436905
0.6437280 0.6496901 0.6436451
0.6438298 0.6496808 0.6435059
0.6440657 0.6496409 0.6430587
0.6459197 0.6498832 0.6432610
0.6507112 0.6507112 0.6450681
0.1873060 0.1873060 0.3384224
0.2008394 0.1888930 0.3382831
0.2724944 0.2137923 0.3607193
0.3974957 0.2661971 0.3974957
0.5367582 0.3399068 0.4370081
0.5970720 0.4931166 0.5098326
0.6227993 0.5820963 0.5841942
0.6400369 0.6257452 0.6260153
0.1986974 0.2100391 0.3446401
0.1970140 0.1970140 0.3524707
0.2769379 0.2216612 0.3732307
0.4021585 0.2698895 0.4021585
0.5394368 0.3413431 0.4373291
0.5973036 0.4942621 0.5102376
0.6229086 0.5824171 0.5844248
0.6400588 0.6257984 0.6260575
0.2579727 0.3046172 0.3835493
0.2576298 0.3016168 0.3875206
0.2857143 0.2857143 0.4285714
0.4269917 0.2896982 0.4269917
0.5542002 0.3486885 0.4367468
0.5985701 0.5004138 0.5124038
0.6235043 0.5841599 0.5856766
0.6401799 0.6260919 0.6262901
0.3496704 0.4326962 0.4326962
0.3493575 0.4323449 0.4323449
0.3476979 0.4304810 0.4304810
0.4285714 0.4285714 0.4285714
0.5714286 0.4285714 0.4285714
0.6024913 0.5184224 0.5184224
0.6253526 0.5894932 0.5894932
0.6405717 0.6270402 0.6270402
0.4591843 0.5665533 0.5031637
0.4591386 0.5666894 0.5021833
0.4588086 0.5674770 0.4959176
0.4559766 0.5704113 0.4559766
0.5714286 0.5714286 0.4285714
0.6156301 0.5673188 0.5435848
0.6298519 0.6019865 0.5985764
0.6415873 0.6294817 0.6289760
0.5741482 0.6351676 0.5827020
0.5742950 0.6351607 0.5825340
0.5750982 0.6351167 0.5815522
0.5776116 0.6348928 0.5776116
0.5872549 0.6343424 0.5643271
0.6411782 0.6411782 0.5778864
0.6378399 0.6227834 0.6137245
0.6437245 0.6345458 0.6330156
0.6272802 0.6456641 0.6281610
0.6272960 0.6456633 0.6281429
0.6273832 0.6456582 0.6280401
0.6276687 0.6456367 0.6276687
0.6283998 0.6455370 0.6263875
0.6330781 0.6459100 0.6254519
0.6483677 0.6483677 0.6307478
0.6469772 0.6421115 0.6389437
0.6436916 0.6497095 0.6438023
0.6436936 0.6497094 0.6438000
0.6437049 0.6497087 0.6437871
0.6437424 0.6497063 0.6437424
0.6438444 0.6496973 0.6436051
0.6440809 0.6496583 0.6431640
0.6458627 0.6498768 0.6432616
0.6507113 0.6507113 0.6450688
0.2729897 0.2729897 0.4577800
0.2772715 0.2720770 0.4556589
0.3097731 0.2800484 0.4611037
0.3987059 0.3145137 0.4900969
0.5288225 0.3732961 0.5288225
0.5998998 0.4962244 0.5425987
0.6232511 0.5822811 0.5887314
0.6401103 0.6257802 0.6266175
0.2745013 0.2795673 0.4557930
0.2717891 0.2717891 0.4561715
0.3098824 0.2835333 0.4665512
0.4012263 0.3179099 0.4949363
0.5309550 0.3750851 0.5309550
0.6001216 0.4973224 0.5429060
0.6233587 0.5826004 0.5889447
0.6401321 0.6258332 0.6266586
0.3060716 0.3327846 0.4773300
0.3060724 0.3300074 0.4803139
0.3129069 0.3129069 0.5104073
0.4148286 0.3379995 0.5236398
0.5426459 0.3849192 0.5426459
0.6013368 0.5032304 0.5445611
0.6239460 0.5843349 0.5901035
0.6402524 0.6261260 0.6268857
0.3764213 0.4396076 0.5186082
0.3766051 0.4391301 0.5200711
0.3784216 0.4364287 0.5303770
0.4285714 0.4285714 0.5714286
0.5714286 0.4285714 0.5714286
0.6051200 0.5206250 0.5493028
0.6257679 0.5896426 0.5936406
0.6406418 0.6270719 0.6276177
0.4717601 0.5675591 0.5675591
0.4718563 0.5676638 0.5676638
0.4724071 0.5682631 0.5682631
0.4742993 0.5703216 0.5703216
0.5714286 0.5714286 0.5714286
0.6167004 0.5652344 0.5652344
0.6298478 0.6011775 0.6011775
0.6416176 0.6294315 0.6294315
0.5759926 0.6374694 0.6012486
0.5761429 0.6374679 0.6011403
0.5769666 0.6374555 0.6005066
0.5795599 0.6373537 0.5979538
0.5853478 0.6363741 0.5853478
0.6423515 0.6423515 0.5876878
0.6374873 0.6214704 0.6145378
0.6436817 0.6343541 0.6332323
0.6275652 0.6459901 0.6302826
0.6275811 0.6459895 0.6302665
0.6276694 0.6459860 0.6301752
0.6279586 0.6459700 0.6298449
0.6287024 0.6458888 0.6287024
0.6316050 0.6457619 0.6255338
0.6483702 0.6483702 0.6307639
0.6469200 0.6419301 0.6390053
0.6437321 0.6497549 0.6440751
0.6437342 0.6497548 0.6440729
0.6437455 0.6497543 0.6440605
0.6437832 0.6497521 0.6440175
0.6438858 0.6497440 0.6438858
0.6441242 0.6497077 0.6434619
0.6456935 0.6498576 0.6432633
0.6507117 0.6507117 0.6450708
0.3655056 0.3655056 0.5774955
0.3666614 0.3643775 0.5757581
0.3779078 0.3638291 0.5729384
0.4245083 0.3783457 0.5841134
0.5242550 0.4202221 0.6176410
0.6075071 0.5047111 0.6075071
0.6244944 0.5828885 0.6003413
0.6403064 0.6258803 0.6281953
0.3641560 0.3664124 0.5741641
0.3618741 0.3618741 0.5729379
0.3760356 0.3639062 0.5734031
0.4251814 0.3801666 0.5866763
0.5256267 0.4218784 0.6198099
0.6077207 0.5057520 0.6077207
0.6245982 0.5832040 0.6005145
0.6403279 0.6259330 0.6282339
0.3739258 0.3872821 0.5776676
0.3735118 0.3851153 0.5786113
0.3735179 0.3735179 0.5875147
0.4303074 0.3923382 0.6035014
0.5272525 0.4345568 0.6212402
0.6088717 0.5112597 0.6088717
0.6251642 0.5849180 0.6014556
0.6404462 0.6262238 0.6284466
0.4189693 0.4586655 0.6076674
0.4192859 0.4581127 0.6090699
0.4217050 0.4550561 0.6181282
0.4427125 0.4427125 0.6184247
0.5316456 0.4719846 0.6235056
0.6124280 0.5273017 0.6124280
0.6269206 0.5901625 0.6043388
0.6408292 0.6271635 0.6291326
0.4997660 0.5605081 0.6294866
0.5002752 0.5603189 0.6294859
0.5031564 0.5592575 0.6294848
0.5114677 0.5545239 0.6293227
0.5497945 0.5497945 0.6306898
0.6221438 0.5653051 0.6221438
0.6308553 0.6015509 0.6105358
0.6417892 0.6295075 0.6308332
0.5811549 0.6437678 0.6437678
0.5813169 0.6437828 0.6437828
0.5822092 0.6438657 0.6438657
0.5850724 0.6441347 0.6441347
0.5920875 0.6448139 0.6448139
0.6518940 0.6518940 0.6518940
0.6381047 0.6213139 0.6213139
0.6436742 0.6340733 0.6340733
0.6283193 0.6468477 0.6357449
0.6283358 0.6468479 0.6357341
0.6284270 0.6468485 0.6356726
0.6287268 0.6468476 0.6354491
0.6295066 0.6468170 0.6346671
0.6310422 0.6464644 0.6310422
0.6488655 0.6488655 0.6338848
0.6467662 0.6414321 0.6392035
0.6438382 0.6498735 0.6447843
0.6438402 0.6498734 0.6447824
0.6438517 0.6498731 0.6447714
0.6438899 0.6498717 0.6447333
0.6439941 0.6498659 0.6446160
0.6442376 0.6498367 0.6442376
0.6451886 0.6498004 0.6432682
0.6507126 0.6507126 0.6450760
0.4627190 0.4627190 0.6201347
0.4625069 0.4619998 0.6200854
0.4632381 0.4598603 0.6199839
0.4743723 0.4619453 0.6204783
0.5130791 0.4835848 0.6233684
0.5772291 0.5303472 0.6305003
0.6279594 0.5850523 0.6279594
0.6408264 0.6261824 0.6321963
0.4614484 0.4619584 0.6200492
0.4598029 0.4598029 0.6198712
0.4615190 0.4586099 0.6198566
0.4740720 0.4621132 0.6204778
0.5134590 0.4845066 0.6234475
0.5774682 0.5310391 0.6305775
0.6280540 0.5853588 0.6280540
0.6408469 0.6262343 0.6322286
0.4612790 0.4646145 0.6202016
0.4604780 0.4633379 0.6201000
0.4568064 0.4568064 0.6196056
0.4740878 0.4649358 0.6206457
0.5158428 0.4899009 0.6239254
0.5788032 0.5348403 0.6310075
0.6285703 0.5870240 0.6285703
0.6409604 0.6265203 0.6324070
0.4806059 0.4910549 0.6225820
0.4806688 0.4907296 0.6225612
0.4812650 0.4891071 0.6224681
0.4845036 0.4845036 0.6222682
0.5256545 0.5089778 0.6257998
0.5832220 0.5467959 0.6324309
0.6301757 0.5921219 0.6301757
0.6413278 0.6274446 0.6329829
0.5294996 0.5482139 0.6294892
0.5297383 0.5482056 0.6294999
0.5311060 0.5481907 0.6295645
0.5361127 0.5485275 0.6298453
0.5511666 0.5511666 0.6309041
0.5939725 0.5731834 0.6359661
0.6337967 0.6032063 0.6337967
0.6422490 0.6297506 0.6344133
0.5863886 0.6094190 0.6400582
0.5865218 0.6094341 0.6400691
0.5872573 0.6095146 0.6401289
0.5896427 0.6097411 0.6403198
0.5957047 0.6100319 0.6407752
0.6129410 0.6129410 0.6424518
0.6402582 0.6217383 0.6402582
0.6440404 0.6341980 0.6371138
0.6302810 0.6490496 0.6490496
0.6302990 0.6490518 0.6490518
0.6303990 0.6490642 0.6490642
0.6307306 0.6491053 0.6491053
0.6316193 0.6492158 0.6492158
0.6336351 0.6494685 0.6494685
0.6518940 0.6518940 0.6518940
0.6470171 0.6414561 0.6414561
0.6441062 0.6501718 0.6465559
0.6441084 0.6501719 0.6465546
0.6441202 0.6501721 0.6465472
0.6441598 0.6501727 0.6465213
0.6442683 0.6501728 0.6464413
0.6445255 0.6501623 0.6461793
0.6450016 0.6500387 0.6450016
0.6508981 0.6508981 0.6461636
0.5353390 0.5353390 0.6285324
0.5350423 0.5349501 0.6284815
0.5339397 0.5333210 0.6282763
0.5329811 0.5305182 0.6279739
0.5402549 0.5329475 0.6285639
0.5684649 0.5532723 0.6321264
0.6126427 0.5916870 0.6395804
0.6422533 0.6271776 0.6422533
0.5345499 0.5346426 0.6284284
0.5338377 0.5338377 0.6283186
0.5329217 0.5323903 0.6281406
0.5324650 0.5300842 0.6279093
0.5402896 0.5330796 0.6285778
0.5686893 0.5536241 0.6321762
0.6127815 0.5919517 0.6396246
0.6422717 0.6272273 0.6422717
0.5318097 0.5324403 0.6280902
0.5313105 0.5318491 0.6280118
0.5287505 0.5287505 0.6276081
0.5304381 0.5285568 0.6276729
0.5407666 0.5341229 0.6286981
0.5699706 0.5556109 0.6324601
0.6135385 0.5933920 0.6398666
0.6423735 0.6275016 0.6423735
0.5327486 0.5351492 0.6283856
0.5325962 0.5349088 0.6283558
0.5318535 0.5336633 0.6282043
0.5306106 0.5306106 0.6278654
0.5448644 0.5402315 0.6294858
0.5745118 0.5624260 0.6334655
0.6158886 0.5978251 0.6406235
0.6427035 0.6283884 0.6427035
0.5524915 0.5582129 0.6317089
0.5525813 0.5582279 0.6317155
0.5531106 0.5583382 0.6317566
0.5552164 0.5590271 0.6319475
0.5632041 0.5632041 0.6328577
0.5870877 0.5801724 0.6363035
0.6211644 0.6075918 0.6423560
0.6435330 0.6306034 0.6435330
0.5920245 0.6003213 0.6391864
0.5921380 0.6003841 0.6392026
0.5927662 0.6007317 0.6392924
0.5948157 0.6018682 0.6395873
0.6000902 0.6048165 0.6403610
0.6115871 0.6115871 0.6421557
0.6293499 0.6224076 0.6451548
0.6451586 0.6348867 0.6451586
0.6290218 0.6365902 0.6473228
0.6290391 0.6365930 0.6473247
0.6291354 0.6366086 0.6473352
0.6294553 0.6366582 0.6473698
0.6303178 0.6367741 0.6474605
0.6323207 0.6369206 0.6476528
0.6382728 0.6382728 0.6483838
0.6477853 0.6416557 0.6477853
0.6447858 0.6509199 0.6509199
0.6447881 0.6509202 0.6509202
0.6448011 0.6509220 0.6509220
0.6448448 0.6509278 0.6509278
0.6449657 0.6509441 0.6509441
0.6452625 0.6509840 0.6509840
0.6459094 0.6510713 0.6510713
0.6518940 0.6518940 0.6518940
