release/datafiles/colormanagement/LUTs/guard_rail_bt2020.cube
TITLE "Guard Rail BT.2020"
# Guard Rail Formation for BT.2020 medium.
# The Guard Rail is designed to leaves valid value as-is, and only touch out of domain valuesModified from python script shared by Sakari Kapanen
# This LUT assumes E Gamut encoded in ST2084 (10) curve and then power 1.5
# LUT resolution 50
LUT_3D_SIZE 50
0.0000000 0.0000000 0.0000000
0.0193968 0.0037458 0.0037455
0.0388943 0.0087519 0.0087512
0.0584420 0.0145365 0.0145354
0.0780251 0.0209412 0.0209396
0.0976356 0.0278773 0.0278754
0.1172689 0.0352865 0.0352842
0.1369213 0.0431267 0.0431240
0.1565904 0.0513657 0.0513625
0.1762741 0.0599776 0.0599740
0.1959709 0.0689416 0.0689376
0.2156795 0.0782398 0.0782354
0.2353986 0.0878572 0.0878524
0.2551273 0.0977807 0.0977754
0.2748647 0.1079987 0.1079930
0.2946101 0.1185009 0.1184948
0.3143627 0.1292782 0.1292717
0.3341220 0.1403223 0.1403154
0.3538872 0.1516257 0.1516184
0.3736578 0.1631814 0.1631738
0.3934334 0.1749831 0.1749751
0.4132134 0.1870250 0.1870165
0.4329972 0.1993014 0.1992927
0.4527846 0.2118075 0.2117983
0.4725749 0.2245383 0.2245288
0.4923677 0.2374894 0.2374795
0.5121627 0.2506565 0.2506463
0.5319593 0.2640356 0.2640251
0.5517571 0.2776229 0.2776121
0.5715557 0.2914148 0.2914036
0.5913545 0.3054078 0.3053962
0.6111532 0.3195984 0.3195866
0.6309513 0.3339836 0.3339714
0.6359473 0.3789268 0.3789138
0.6368999 0.4194436 0.4194298
0.6378779 0.4515176 0.4515033
0.6388691 0.4780462 0.4780315
0.6398611 0.5005389 0.5005238
0.6408417 0.5198929 0.5198776
0.6417984 0.5366809 0.5366654
0.6426474 0.5501999 0.5501841
0.6434595 0.5621311 0.5621152
0.6443005 0.5736142 0.5735982
0.6451083 0.5839250 0.5839089
0.6458576 0.5929388 0.5929225
0.6465465 0.6008113 0.6007950
0.6471747 0.6076788 0.6076624
0.6477434 0.6136615 0.6136450
0.6482549 0.6188663 0.6188498
0.6487123 0.6233883 0.6233717
0.0041232 0.0205906 0.0041228
0.0212774 0.0212774 0.0065493
0.0403200 0.0231815 0.0107803
0.0595150 0.0263422 0.0160695
0.0788368 0.0306169 0.0221351
0.0982589 0.0358469 0.0288281
0.1177554 0.0418922 0.0360568
0.1373069 0.0486382 0.0437592
0.1569000 0.0559938 0.0518906
0.1765257 0.0638874 0.0604171
0.1961774 0.0722626 0.0693121
0.2158503 0.0810748 0.0785541
0.2355410 0.0902881 0.0881251
0.2552468 0.0998734 0.0980098
0.2749656 0.1098067 0.1081954
0.2946957 0.1200680 0.1186702
0.3144356 0.1306405 0.1294241
0.3341843 0.1415097 0.1404483
0.3539407 0.1526630 0.1517346
0.3737039 0.1640895 0.1632755
0.3934732 0.1757796 0.1750644
0.4132479 0.1877248 0.1870951
0.4330272 0.1999174 0.1993618
0.4528106 0.2123503 0.2118594
0.4725976 0.2250173 0.2245827
0.4923876 0.2379125 0.2375272
0.5121801 0.2510307 0.2506885
0.5319745 0.2643669 0.2640625
0.5517704 0.2779164 0.2776452
0.5715674 0.2916750 0.2914331
0.5913648 0.3056386 0.3054224
0.6111623 0.3198033 0.3196098
0.6309593 0.3341656 0.3339921
0.6359479 0.3790590 0.3789487
0.6369007 0.4195323 0.4194597
0.6378787 0.4515808 0.4515285
0.6388699 0.4780927 0.4780524
0.6398619 0.5005738 0.5005411
0.6408424 0.5199194 0.5198917
0.6417990 0.5367000 0.5366756
0.6426479 0.5502147 0.5501925
0.6434599 0.5621427 0.5621220
0.6443009 0.5736240 0.5736045
0.6451087 0.5839325 0.5839138
0.6458579 0.5929446 0.5929264
0.6465467 0.6008157 0.6007980
0.6471749 0.6076822 0.6076647
0.6477436 0.6136641 0.6136469
0.6482550 0.6188683 0.6188512
0.6487124 0.6233898 0.6233728
0.0095753 0.0410869 0.0095746
0.0239175 0.0414060 0.0112606
0.0422836 0.0422836 0.0146068
0.0611879 0.0439286 0.0191634
0.0802574 0.0464616 0.0246511
0.0994439 0.0499103 0.0308903
0.1187339 0.0542489 0.0377607
0.1381127 0.0594249 0.0451782
0.1575646 0.0653738 0.0530808
0.1770758 0.0720285 0.0614221
0.1966348 0.0793246 0.0701658
0.2162326 0.0872029 0.0792830
0.2358621 0.0956108 0.0887503
0.2555177 0.1045027 0.0985485
0.2751952 0.1138390 0.1086611
0.2948911 0.1235861 0.1190742
0.3146026 0.1337149 0.1297757
0.3343274 0.1442007 0.1407551
0.3540638 0.1550222 0.1520028
0.3738101 0.1661609 0.1635106
0.3935650 0.1776009 0.1752709
0.4133274 0.1893283 0.1872767
0.4330963 0.2013309 0.1995219
0.4528708 0.2135977 0.2120006
0.4726501 0.2261193 0.2247075
0.4924335 0.2388871 0.2376376
0.5122202 0.2518933 0.2507862
0.5320097 0.2651309 0.2641491
0.5518013 0.2785937 0.2777221
0.5715945 0.2922758 0.2915013
0.5913887 0.3061718 0.3054830
0.6111834 0.3202769 0.3196637
0.6309779 0.3345863 0.3340401
0.6359492 0.3793646 0.3790295
0.6369023 0.4197375 0.4195290
0.6378805 0.4517270 0.4515869
0.6388717 0.4782004 0.4781011
0.6398637 0.5006546 0.5005812
0.6408441 0.5199808 0.5199245
0.6418003 0.5367443 0.5366995
0.6426491 0.5502490 0.5502119
0.6434610 0.5621694 0.5621377
0.6443020 0.5736467 0.5736191
0.6451096 0.5839500 0.5839254
0.6458587 0.5929580 0.5929355
0.6465473 0.6008260 0.6008051
0.6471754 0.6076900 0.6076702
0.6477440 0.6136701 0.6136511
0.6482554 0.6188729 0.6188545
0.6487126 0.6233933 0.6233754
0.0158374 0.0615430 0.0158364
0.0276338 0.0617337 0.0170778
0.0447637 0.0622311 0.0197024
0.0631718 0.0631719 0.0235141
0.0819795 0.0647014 0.0283332
0.1009601 0.0669287 0.0340004
0.1200570 0.0699170 0.0403901
0.1392538 0.0736908 0.0474062
0.1585405 0.0782468 0.0549746
0.1779064 0.0835624 0.0630371
0.1973403 0.0896025 0.0715480
0.2168318 0.0963248 0.0804701
0.2363717 0.1036837 0.0897733
0.2559519 0.1116336 0.0994329
0.2755659 0.1201306 0.1094279
0.2952085 0.1291338 0.1197409
0.3148750 0.1386058 0.1303569
0.3345618 0.1485131 0.1412628
0.3542660 0.1588258 0.1524474
0.3739849 0.1695175 0.1639007
0.3937165 0.1805647 0.1756137
0.4134590 0.1919470 0.1875785
0.4332108 0.2036461 0.1997879
0.4529706 0.2156461 0.2122354
0.4727372 0.2279329 0.2249151
0.4925096 0.2404937 0.2378213
0.5122869 0.2533175 0.2509490
0.5320682 0.2663942 0.2642934
0.5518527 0.2797148 0.2778501
0.5716397 0.2932713 0.2916150
0.5914285 0.3070561 0.3055840
0.6112184 0.3210627 0.3197535
0.6310087 0.3352849 0.3341199
0.6359515 0.3798727 0.3791642
0.6369051 0.4200791 0.4196444
0.6378835 0.4519705 0.4516842
0.6388748 0.4783797 0.4781821
0.6398667 0.5007893 0.5006480
0.6408469 0.5200832 0.5199790
0.6418026 0.5368180 0.5367391
0.6426511 0.5503063 0.5502442
0.6434627 0.5622139 0.5621638
0.6443038 0.5736845 0.5736434
0.6451111 0.5839790 0.5839445
0.6458599 0.5929803 0.5929505
0.6465484 0.6008431 0.6008168
0.6471762 0.6077032 0.6076794
0.6477446 0.6136802 0.6136582
0.6482559 0.6188806 0.6188600
0.6487131 0.6233992 0.6233796
0.0227402 0.0819718 0.0227388
0.0324178 0.0820990 0.0236897
0.0479814 0.0824181 0.0257681
0.0655856 0.0830092 0.0289190
0.0839799 0.0839800 0.0330676
0.1027134 0.0854403 0.0381108
0.1216221 0.0874838 0.0439435
0.1406491 0.0901795 0.0504725
0.1597744 0.0935711 0.0576196
0.1789882 0.0976800 0.0653200
0.1982825 0.1025093 0.0735206
0.2176485 0.1080478 0.0821774
0.2370776 0.1142737 0.0912537
0.2565612 0.1211575 0.1007190
0.2760918 0.1286654 0.1105475
0.2956624 0.1367609 0.1207175
0.3152673 0.1454074 0.1312104
0.3349012 0.1545691 0.1420102
0.3545600 0.1642120 0.1531029
0.3742401 0.1743043 0.1644765
0.3939383 0.1848169 0.1761204
0.4136521 0.1957232 0.1880250
0.4333791 0.2069995 0.2001819
0.4531176 0.2186241 0.2125835
0.4728657 0.2305777 0.2252229
0.4926222 0.2428432 0.2380938
0.5123856 0.2554051 0.2511904
0.5321548 0.2682496 0.2645076
0.5519288 0.2813643 0.2780402
0.5717066 0.2947379 0.2917838
0.5914874 0.3083606 0.3057341
0.6112703 0.3222233 0.3198870
0.6310546 0.3363176 0.3342387
0.6359549 0.3806248 0.3793643
0.6369092 0.4205856 0.4198160
0.6378880 0.4523319 0.4518288
0.6388794 0.4786459 0.4783025
0.6398711 0.5009893 0.5007473
0.6408510 0.5202352 0.5200602
0.6418060 0.5369277 0.5367981
0.6426541 0.5503914 0.5502922
0.6434654 0.5622801 0.5622026
0.6443064 0.5737406 0.5736795
0.6451133 0.5840222 0.5839730
0.6458618 0.5930135 0.5929729
0.6465499 0.6008686 0.6008343
0.6471774 0.6077227 0.6076930
0.6477456 0.6136951 0.6136688
0.6482567 0.6188921 0.6188682
0.6487137 0.6234079 0.6233859
0.0301896 0.1023799 0.0301878
0.0381537 0.1024699 0.0309366
0.0520341 0.1026904 0.0326046
0.0685784 0.1030896 0.0352052
0.0863562 0.1037397 0.0387368
0.1047265 0.1047266 0.0431567
0.1233996 0.1061388 0.0483976
0.1422475 0.1080576 0.0543843
0.1612158 0.1105501 0.0610446
0.1802822 0.1136669 0.0683138
0.1994359 0.1174416 0.0761353
0.2186698 0.1218927 0.0844606
0.2379768 0.1270250 0.0932481
0.2573496 0.1328326 0.1024623
0.2767810 0.1392999 0.1120729
0.2962639 0.1464049 0.1220536
0.3157917 0.1541206 0.1323821
0.3353583 0.1624169 0.1430390
0.3549584 0.1712624 0.1540075
0.3745875 0.1806254 0.1652729
0.3942415 0.1904749 0.1768222
0.4139169 0.2007813 0.1886443
0.4336107 0.2115168 0.2007290
0.4533202 0.2226554 0.2130673
0.4730433 0.2341735 0.2256511
0.4927779 0.2460492 0.2384731
0.5125223 0.2582628 0.2515268
0.5322750 0.2707963 0.2648060
0.5520345 0.2836336 0.2783053
0.5717997 0.2967601 0.2920193
0.5915694 0.3101624 0.3059435
0.6113426 0.3238287 0.3200732
0.6311184 0.3377481 0.3344044
0.6359596 0.3816689 0.3796437
0.6369149 0.4212901 0.4200555
0.6378942 0.4528352 0.4520307
0.6388858 0.4790171 0.4784706
0.6398773 0.5012683 0.5008858
0.6408568 0.5204474 0.5201735
0.6418107 0.5370806 0.5368805
0.6426583 0.5505101 0.5503592
0.6434690 0.5623726 0.5622569
0.6443101 0.5738191 0.5737300
0.6451164 0.5840825 0.5840129
0.6458644 0.5930598 0.5930042
0.6465520 0.6009042 0.6008588
0.6471792 0.6077500 0.6077120
0.6477470 0.6137160 0.6136835
0.6482578 0.6189080 0.6188796
0.6487146 0.6234201 0.6233947
0.0381236 0.1227708 0.0381214
0.0447138 0.1228372 0.0387230
0.0569380 0.1229970 0.0400791
0.0722507 0.1232810 0.0422328
0.0892201 0.1237371 0.0452247
0.1070783 0.1244273 0.0490594
0.1254229 0.1254230 0.0537098
0.1440451 0.1267987 0.0591288
0.1628401 0.1286260 0.0652598
0.1817573 0.1309683 0.0720451
0.2007729 0.1338777 0.0794301
0.2198753 0.1373940 0.0873653
0.2390571 0.1415446 0.0958063
0.2583123 0.1463453 0.1047142
0.2776348 0.1518012 0.1140549
0.2970182 0.1579082 0.1237985
0.3164563 0.1646545 0.1339188
0.3359427 0.1720221 0.1443932
0.3554717 0.1799881 0.1552017
0.3750380 0.1885269 0.1663268
0.3946367 0.1976106 0.1777531
0.4142637 0.2072106 0.1894672
0.4339150 0.2172986 0.2014570
0.4535874 0.2278467 0.2137118
0.4732780 0.2388285 0.2262223
0.4929843 0.2502188 0.2389796
0.5127038 0.2619945 0.2519763
0.5324347 0.2741338 0.2652052
0.5521752 0.2866168 0.2786599
0.5719237 0.2994254 0.2923346
0.5916788 0.3125428 0.3062239
0.6114392 0.3259540 0.3203227
0.6312037 0.3396453 0.3346265
0.6359659 0.3830573 0.3800179
0.6369227 0.4222300 0.4203763
0.6379026 0.4535077 0.4523011
0.6388943 0.4795135 0.4786958
0.6398856 0.5016417 0.5010716
0.6408646 0.5207315 0.5203254
0.6418170 0.5372856 0.5369909
0.6426639 0.5506694 0.5504491
0.6434740 0.5624965 0.5623296
0.6443151 0.5739243 0.5737977
0.6451206 0.5841634 0.5840663
0.6458678 0.5931220 0.5930461
0.6465549 0.6009520 0.6008916
0.6471815 0.6077866 0.6077375
0.6477489 0.6137441 0.6137033
0.6482593 0.6189295 0.6188949
0.6487158 0.6234365 0.6234065
0.0464976 0.1431473 0.0464950
0.0519855 0.1431975 0.0469859
0.0626643 0.1433173 0.0481009
0.0766561 0.1435270 0.0498943
0.0926615 0.1438592 0.0524269
0.1098580 0.1443578 0.0557343
0.1277573 0.1450765 0.0598233
0.1460765 0.1460767 0.0646761
0.1646547 0.1474231 0.0702580
0.1834031 0.1491796 0.0765249
0.2022746 0.1514055 0.0834297
0.2212453 0.1541525 0.0909257
0.2403024 0.1574632 0.0989691
0.2594384 0.1613701 0.1075194
0.2786477 0.1658963 0.1165402
0.2979248 0.1710550 0.1259989
0.3172643 0.1768507 0.1358663
0.3366605 0.1832802 0.1461166
0.3561077 0.1903333 0.1567270
0.3756004 0.1979944 0.1676770
0.3951333 0.2062434 0.1789489
0.4147018 0.2150572 0.1905266
0.4343013 0.2244107 0.2023960
0.4539280 0.2342775 0.2145447
0.4735782 0.2446312 0.2269613
0.4932489 0.2554456 0.2396358
0.5129371 0.2666953 0.2525591
0.5326405 0.2783562 0.2657232
0.5523569 0.2904054 0.2791205
0.5720841 0.3028216 0.2927443
0.5918205 0.3155850 0.3065885
0.6115644 0.3286773 0.3206474
0.6313143 0.3420816 0.3349157
0.6359741 0.3848468 0.3805048
0.6369327 0.4234460 0.4207937
0.6379136 0.4543797 0.4526530
0.6389055 0.4801582 0.4789889
0.6398964 0.5021270 0.5013134
0.6408747 0.5211011 0.5205232
0.6418252 0.5375524 0.5371348
0.6426713 0.5508767 0.5505662
0.6434804 0.5626580 0.5624244
0.6443216 0.5740613 0.5738859
0.6451261 0.5842688 0.5841359
0.6458724 0.5932030 0.5931008
0.6465586 0.6010142 0.6009343
0.6471845 0.6078344 0.6077708
0.6477513 0.6137807 0.6137292
0.6482612 0.6189575 0.6189148
0.6487173 0.6234579 0.6234218
0.0552775 0.1635111 0.0552745
0.0598765 0.1635499 0.0556801
0.0691605 0.1636418 0.0566058
0.0818127 0.1638009 0.0581080
0.0967435 0.1640502 0.0602551
0.1131447 0.1644205 0.0630999
0.1304774 0.1649517 0.0666732
0.1483981 0.1656913 0.0709829
0.1666930 0.1666931 0.0760172
0.1852321 0.1680149 0.0817497
0.2039387 0.1697144 0.0881454
0.2227690 0.1718470 0.0951649
0.2416990 0.1744629 0.1027678
0.2607155 0.1776059 0.1109151
0.2798105 0.1813115 0.1195698
0.2989785 0.1856074 0.1286978
0.3182145 0.1905128 0.1382680
0.3375137 0.1960387 0.1482522
0.3568709 0.2021888 0.1586248
0.3762810 0.2089596 0.1693632
0.3957388 0.2163419 0.1804468
0.4152394 0.2243212 0.1918573
0.4347780 0.2328792 0.2035783
0.4543502 0.2419945 0.2155953
0.4739519 0.2516438 0.2278952
0.4935795 0.2618023 0.2404661
0.5132296 0.2724451 0.2532977
0.5328992 0.2835471 0.2663803
0.5525856 0.2950842 0.2797053
0.5722864 0.3070328 0.2932650
0.5919995 0.3193706 0.3070523
0.6117228 0.3320767 0.3210605
0.6314546 0.3451313 0.3352838
0.6359847 0.3870966 0.3811243
0.6369456 0.4249824 0.4213248
0.6379276 0.4554845 0.4531009
0.6389197 0.4809763 0.4793621
0.6399102 0.5027437 0.5016213
0.6408877 0.5215711 0.5207750
0.6418357 0.5378921 0.5373180
0.6426806 0.5511407 0.5507154
0.6434886 0.5628637 0.5625452
0.6443298 0.5742358 0.5739984
0.6451331 0.5844032 0.5842247
0.6458782 0.5933064 0.5931706
0.6465634 0.6010936 0.6009888
0.6471884 0.6078953 0.6078133
0.6477544 0.6138273 0.6137621
0.6482637 0.6189932 0.6189403
0.6487193 0.6234852 0.6234415
0.0644363 0.1838636 0.0644329
0.0683136 0.1838941 0.0647713
0.0763649 0.1839658 0.0655464
0.0877123 0.1840891 0.0668120
0.1015040 0.1842804 0.0686371
0.1170017 0.1845620 0.0710824
0.1336531 0.1849631 0.0741936
0.1510735 0.1855197 0.0779977
0.1690044 0.1862747 0.0825034
0.1872763 0.1872764 0.0877029
0.2057803 0.1885768 0.0935760
0.2244490 0.1902289 0.1000941
0.2432416 0.1922845 0.1072239
0.2621344 0.1947922 0.1149301
0.2811139 0.1977956 0.1231778
0.3001716 0.2013321 0.1319330
0.3193020 0.2054324 0.1411637
0.3385004 0.2101198 0.1508404
0.3577623 0.2154106 0.1609357
0.3770832 0.2213138 0.1714246
0.3964583 0.2278316 0.1822846
0.4158829 0.2349603 0.1934950
0.4353523 0.2426907 0.2050373
0.4548617 0.2510089 0.2168950
0.4744068 0.2598976 0.2290528
0.4939837 0.2693365 0.2414973
0.5135884 0.2793033 0.2542163
0.5332175 0.2897746 0.2671987
0.5528679 0.3007265 0.2804346
0.5725367 0.3121349 0.2939149
0.5922214 0.3239764 0.3076316
0.6119195 0.3362280 0.3215770
0.6316290 0.3488680 0.3357443
0.6359979 0.3898676 0.3818988
0.6369617 0.4268860 0.4219888
0.6379452 0.4568580 0.4536610
0.6389375 0.4819957 0.4798289
0.6399276 0.5035133 0.5020065
0.6409039 0.5221582 0.5210903
0.6418488 0.5383168 0.5375475
0.6426923 0.5514711 0.5509023
0.6434988 0.5631213 0.5626965
0.6443402 0.5744545 0.5741393
0.6451418 0.5845715 0.5843360
0.6458854 0.5934359 0.5932580
0.6465693 0.6011931 0.6010572
0.6471932 0.6079717 0.6078666
0.6477583 0.6138859 0.6138034
0.6482668 0.6190379 0.6189723
0.6487217 0.6235194 0.6234661
0.0739518 0.2042058 0.0739480
0.0772388 0.2042300 0.0742326
0.0842148 0.2042869 0.0748862
0.0943288 0.2043840 0.0759584
0.1069591 0.2045334 0.0775148
0.1214749 0.2047517 0.0796182
0.1373451 0.2050603 0.0823218
0.1541658 0.2054863 0.0856656
0.1716453 0.2060630 0.0896743
0.1895797 0.2068295 0.0943569
0.2078296 0.2078298 0.0997086
0.2263017 0.2091112 0.1057138
0.2449357 0.2107228 0.1123487
0.2636935 0.2127134 0.1195849
0.2825520 0.2151298 0.1273913
0.3014972 0.2180151 0.1357364
0.3205206 0.2214075 0.1445888
0.3396164 0.2253396 0.1539186
0.3587801 0.2298380 0.1636976
0.3780075 0.2349226 0.1738994
0.3972945 0.2406068 0.1844997
0.4166366 0.2468977 0.1954759
0.4360295 0.2537962 0.2068076
0.4554687 0.2612977 0.2184762
0.4749498 0.2693928 0.2304646
0.4944684 0.2780679 0.2427575
0.5140205 0.2873058 0.2553410
0.5336023 0.2970870 0.2682023
0.5532103 0.3073901 0.2813301
0.5728412 0.3181923 0.2947141
0.5924920 0.3294704 0.3083447
0.6121599 0.3412013 0.3222133
0.6318425 0.3533619 0.3363122
0.6360143 0.3932204 0.3828529
0.6369817 0.4292058 0.4228069
0.6379669 0.4585389 0.4543512
0.6389596 0.4832464 0.4804044
0.6399490 0.5044593 0.5024816
0.6409239 0.5228810 0.5214793
0.6418651 0.5388403 0.5378307
0.6427068 0.5518787 0.5511331
0.6435115 0.5634392 0.5628835
0.6443530 0.5747244 0.5743134
0.6451526 0.5847795 0.5844735
0.6458944 0.5935960 0.5933661
0.6465767 0.6013162 0.6011418
0.6471992 0.6080662 0.6079325
0.6477632 0.6139583 0.6138546
0.6482707 0.6190934 0.6190118
0.6487248 0.6235617 0.6234966
0.0838054 0.2245385 0.0838013
0.0866060 0.2245580 0.0840423
0.0926514 0.2246035 0.0845968
0.1016249 0.2246810 0.0855097
0.1131074 0.2247995 0.0868415
0.1265935 0.2249713 0.0886533
0.1416019 0.2252125 0.0910013
0.1577318 0.2255436 0.0939328
0.1746723 0.2259901 0.0974836
0.1921929 0.2265829 0.1016765
0.2101265 0.2273579 0.1065208
0.2283554 0.2283556 0.1120140
0.2467982 0.2296199 0.1181439
0.2654001 0.2311963 0.1248907
0.2841256 0.2331311 0.1322297
0.3029520 0.2354692 0.1401335
0.3218654 0.2382530 0.1485732
0.3408570 0.2415209 0.1575201
0.3599207 0.2453070 0.1669460
0.3790521 0.2496400 0.1768239
0.3982473 0.2545426 0.1871285
0.4175024 0.2600319 0.1978359
0.4368133 0.2661188 0.2089240
0.4561761 0.2728083 0.2203723
0.4755863 0.2800999 0.2321622
0.4950398 0.2879881 0.2442765
0.5145325 0.2964630 0.2566995
0.5340602 0.3055105 0.2694169
0.5536193 0.3151139 0.2824158
0.5732060 0.3252538 0.2956842
0.5928172 0.3359091 0.3092114
0.6124495 0.3470577 0.3229876
0.6321003 0.3586770 0.3370039
0.6360345 0.3972132 0.3840136
0.6370062 0.4319917 0.4238022
0.6379935 0.4605672 0.4551913
0.6389867 0.4847607 0.4811050
0.6399752 0.5056072 0.5030604
0.6409485 0.5237595 0.5219534
0.6418849 0.5394776 0.5381761
0.6427245 0.5523754 0.5514147
0.6435271 0.5638270 0.5631118
0.6443687 0.5750538 0.5745260
0.6451658 0.5850334 0.5846415
0.6459054 0.5937915 0.5934982
0.6465857 0.6014666 0.6012452
0.6472066 0.6081817 0.6080131
0.6477691 0.6140469 0.6139172
0.6482754 0.6191612 0.6190602
0.6487285 0.6236136 0.6235340
0.0939812 0.2448625 0.0939767
0.0963782 0.2448782 0.0941820
0.1016216 0.2449151 0.0946551
0.1095577 0.2449775 0.0954358
0.1199337 0.2450725 0.0965793
0.1323713 0.2452095 0.0981429
0.1464594 0.2454006 0.1001825
0.1618203 0.2456614 0.1027488
0.1781391 0.2460115 0.1058844
0.1951677 0.2464749 0.1096219
0.2127171 0.2470805 0.1139825
0.2306471 0.2478617 0.1189761
0.2488559 0.2488561 0.1246018
0.2672714 0.2501045 0.1308500
0.2858435 0.2516499 0.1377042
0.3045388 0.2535359 0.1451428
0.3233352 0.2558059 0.1531412
0.3422187 0.2585013 0.1616732
0.3611804 0.2616607 0.1707122
0.3802141 0.2653187 0.1802315
0.3993153 0.2695057 0.1902056
0.4184803 0.2742469 0.2006097
0.4377053 0.2795618 0.2114208
0.4569867 0.2854648 0.2226170
0.4763206 0.2919643 0.2341780
0.4957029 0.2990635 0.2460851
0.5151298 0.3067604 0.2583210
0.5345970 0.3150483 0.2708697
0.5541008 0.3239165 0.2837167
0.5736373 0.3333507 0.2968487
0.5932029 0.3433338 0.3102534
0.6127941 0.3538465 0.3239198
0.6324079 0.3648680 0.3378375
0.6360590 0.4018994 0.3854104
0.6370359 0.4352928 0.4249999
0.6380257 0.4629846 0.4562025
0.6390194 0.4865721 0.4819490
0.6400069 0.5069840 0.5037580
0.6409781 0.5248153 0.5225252
0.6419089 0.5402452 0.5385929
0.6427460 0.5529742 0.5517548
0.6435458 0.5642951 0.5633876
0.6443877 0.5754513 0.5747829
0.6451818 0.5853401 0.5848447
0.6459187 0.5940279 0.5936580
0.6465967 0.6016485 0.6013704
0.6472155 0.6083215 0.6081107
0.6477762 0.6141542 0.6139930
0.6482811 0.6192434 0.6191189
0.6487331 0.6236764 0.6235792
0.1044656 0.2651782 0.1044607
0.1065255 0.2651911 0.1046365
0.1110791 0.2652211 0.1050419
0.1180827 0.2652718 0.1057124
0.1274128 0.2653488 0.1066973
0.1388092 0.2654591 0.1080496
0.1519410 0.2656123 0.1098228
0.1664706 0.2658201 0.1120678
0.1820934 0.2660977 0.1148311
0.1985543 0.2664638 0.1181515
0.2156490 0.2669412 0.1220592
0.2332188 0.2675570 0.1265742
0.2511432 0.2683426 0.1317066
0.2693328 0.2693330 0.1374571
0.2877227 0.2705667 0.1438180
0.3062670 0.2720841 0.1507755
0.3249338 0.2739269 0.1583106
0.3437019 0.2761369 0.1664012
0.3625573 0.2787545 0.1750235
0.3814908 0.2818181 0.1841524
0.4004962 0.2853630 0.1937629
0.4195689 0.2894204 0.2038306
0.4387054 0.2940172 0.2143316
0.4579019 0.2991756 0.2252434
0.4771551 0.3049122 0.2365444
0.4964614 0.3112388 0.2482147
0.5158170 0.3181615 0.2602354
0.5352179 0.3256816 0.2725891
0.5546605 0.3337955 0.2852598
0.5741407 0.3424953 0.2982326
0.5936548 0.3517694 0.3114939
0.6131992 0.3616029 0.3250311
0.6327705 0.3719783 0.3388326
0.6360886 0.4073252 0.3870747
0.6370717 0.4391564 0.4264272
0.6380645 0.4658326 0.4574082
0.6390586 0.4887156 0.4829558
0.6400449 0.5086184 0.5045907
0.6410137 0.5260715 0.5232082
0.6419377 0.5411605 0.5390913
0.6427717 0.5536894 0.5521617
0.6435684 0.5648547 0.5637179
0.6444104 0.5759269 0.5750906
0.6452010 0.5857073 0.5850881
0.6459347 0.5943112 0.5938497
0.6466098 0.6018667 0.6015206
0.6472261 0.6084893 0.6082278
0.6477848 0.6142830 0.6140840
0.6482880 0.6193421 0.6191894
0.6487385 0.6237519 0.6236336
0.1152464 0.2854861 0.1152411
0.1170231 0.2854967 0.1153923
0.1209836 0.2855213 0.1157412
0.1271561 0.2855629 0.1163191
0.1355132 0.2856256 0.1171700
0.1458969 0.2857153 0.1183421
0.1580585 0.2858392 0.1198854
0.1717118 0.2860065 0.1218495
0.1865759 0.2862288 0.1242816
0.2023992 0.2865208 0.1272243
0.2189697 0.2869005 0.1307136
0.2361150 0.2873895 0.1347778
0.2536990 0.2880134 0.1394359
0.2716163 0.2888018 0.1446984
0.2897875 0.2897877 0.1505668
0.3081534 0.2910074 0.1570355
0.3266713 0.2924994 0.1640925
0.3453112 0.2943035 0.1717214
0.3640525 0.2964600 0.1799020
0.3828812 0.2990086 0.1886124
0.4017880 0.3019871 0.1978294
0.4207666 0.3054309 0.2075291
0.4398124 0.3093724 0.2176882
0.4589217 0.3138397 0.2282838
0.4780912 0.3188568 0.2392937
0.4973176 0.3244426 0.2506968
0.5165973 0.3306114 0.2624734
0.5359270 0.3373721 0.2746046
0.5553029 0.3447289 0.2870729
0.5747213 0.3526809 0.2998622
0.5941783 0.3612231 0.3129574
0.6136703 0.3703462 0.3263445
0.6331937 0.3800376 0.3400106
0.6361240 0.4135274 0.3890402
0.6371144 0.4436258 0.4281127
0.6381107 0.4691516 0.4588327
0.6391054 0.4912263 0.4841462
0.6400902 0.5105397 0.5055762
0.6410561 0.5275524 0.5240172
0.6419720 0.5422425 0.5396821
0.6428022 0.5545364 0.5526446
0.6435978 0.5655544 0.5641469
0.6444375 0.5764911 0.5754561
0.6452239 0.5861435 0.5853775
0.6459537 0.5946479 0.5940777
0.6466255 0.6021263 0.6016993
0.6472389 0.6086891 0.6083674
0.6477951 0.6144365 0.6141925
0.6482962 0.6194598 0.6192735
0.6487450 0.6238420 0.6236985
0.1263129 0.3057867 0.1263073
0.1278505 0.3057954 0.1264378
0.1313007 0.3058157 0.1267391
0.1367370 0.3058499 0.1272389
0.1441999 0.3059015 0.1279761
0.1536156 0.3059749 0.1289942
0.1648128 0.3060759 0.1303392
0.1775631 0.3062117 0.1320582
0.1916192 0.3063914 0.1341976
0.2067434 0.3066263 0.1368011
0.2227240 0.3069307 0.1399085
0.2393806 0.3073218 0.1435535
0.2565650 0.3078203 0.1477626
0.2741586 0.3084505 0.1525543
0.2920679 0.3092404 0.1579390
0.3102212 0.3102214 0.1639195
0.3285643 0.3114278 0.1704914
0.3470573 0.3128964 0.1776447
0.3656718 0.3146655 0.1853647
0.3843875 0.3167739 0.1936332
0.4031907 0.3192605 0.2024300
0.4220720 0.3221626 0.2117332
0.4410251 0.3255159 0.2215203
0.4600452 0.3293531 0.2317690
0.4791287 0.3337035 0.2424570
0.4982724 0.3385925 0.2535628
0.5174729 0.3440411 0.2650657
0.5367273 0.3500656 0.2769459
0.5560319 0.3566775 0.2891848
0.5753834 0.3638833 0.3017649
0.5947781 0.3716850 0.3146698
0.6142124 0.3800798 0.3278843
0.6336826 0.3890610 0.3413941
0.6361662 0.4205312 0.3913418
0.6371651 0.4487382 0.4300866
0.6381654 0.4729797 0.4605020
0.6391608 0.4941387 0.4855423
0.6401437 0.5127777 0.5067330
0.6411061 0.5292829 0.5249679
