release/datafiles/colormanagement/luts/guard_rail_higher.cube
TITLE "Guard Rail sRGB"
# Higher Side of Guard Rail Formation
# The Guard Rail is designed to leaves valid value as-is, and only touch out of domain values
# Modified from python script shared by Sakari Kapanen
# This LUT assumes target medium primaries encoded in ST2084 (100) curve and then power 0.6
# LUT resolution 37
LUT_3D_SIZE 5
0.0000000 0.0000000 0.0000000
0.2500000 0.0000000 0.0000000
0.5000000 0.0000000 0.0000000
0.6661292 0.4789565 0.4789565
0.6661292 0.6633035 0.6633035
0.0000000 0.2500000 0.0000000
0.2500000 0.2500000 0.0000000
0.5000000 0.2500000 0.0000000
0.6661292 0.4800012 0.4791889
0.6661292 0.6633042 0.6633041
0.0000000 0.5000000 0.0000000
0.2500000 0.5000000 0.0000000
0.5000000 0.5000000 0.0000000
0.6661292 0.5111095 0.4872725
0.6661292 0.6633302 0.6633267
0.6242239 0.6661292 0.6242239
0.6243145 0.6661292 0.6242545
0.6275460 0.6661292 0.6253652
0.6661292 0.6661292 0.6432047
0.6661292 0.6638650 0.6637958
0.6659075 0.6661292 0.6659075
0.6659075 0.6661292 0.6659075
0.6659079 0.6661292 0.6659077
0.6659185 0.6661292 0.6659122
0.6661292 0.6661292 0.6660122
0.0000000 0.0000000 0.2500000
0.2500000 0.0000000 0.2500000
0.5000000 0.0000000 0.2500000
0.6661292 0.4790066 0.4798209
0.6661292 0.6633037 0.6633037
0.0000000 0.2500000 0.2500000
0.2500000 0.2500000 0.2500000
0.5000000 0.2500000 0.2500000
0.6661292 0.4800505 0.4800505
0.6661292 0.6633044 0.6633044
0.0000000 0.5000000 0.2500000
0.2500000 0.5000000 0.2500000
0.5000000 0.5000000 0.2500000
0.6661292 0.5111408 0.4880422
0.6661292 0.6633303 0.6633269
0.6242442 0.6661292 0.6243043
0.6243348 0.6661292 0.6243348
0.6275642 0.6661292 0.6254427
0.6661292 0.6661292 0.6432426
0.6661292 0.6638651 0.6637960
0.6659075 0.6661292 0.6659075
0.6659075 0.6661292 0.6659075
0.6659079 0.6661292 0.6659077
0.6659185 0.6661292 0.6659122
0.6661292 0.6661292 0.6660122
0.0000000 0.0000000 0.5000000
0.2500000 0.0000000 0.5000000
0.5000000 0.0000000 0.5000000
0.6661292 0.4808381 0.5065867
0.6661292 0.6633085 0.6633120
0.0000000 0.2500000 0.5000000
0.2500000 0.2500000 0.5000000
0.5000000 0.2500000 0.5000000
0.6661292 0.4818554 0.5067436
0.6661292 0.6633092 0.6633126
0.0000000 0.5000000 0.5000000
0.2500000 0.5000000 0.5000000
0.5000000 0.5000000 0.5000000
0.6661292 0.5122927 0.5122927
0.6661292 0.6633351 0.6633351
0.6249874 0.6661292 0.6271938
0.6250758 0.6661292 0.6272215
0.6282325 0.6661292 0.6282325
0.6661292 0.6661292 0.6446206
0.6661292 0.6638687 0.6638025
0.6659076 0.6661292 0.6659079
0.6659076 0.6661292 0.6659079
0.6659081 0.6661292 0.6659081
0.6659186 0.6661292 0.6659126
0.6661292 0.6661292 0.6660124
0.4504252 0.4504252 0.6661292
0.4517398 0.4505401 0.6661292
0.4893777 0.4546710 0.6661292
0.6661292 0.5343935 0.6661292
0.6661292 0.6634212 0.6635017
0.4507795 0.4519753 0.6661292
0.4520878 0.4520878 0.6661292
0.4895843 0.4561338 0.6661292
0.6661292 0.5351987 0.6661292
0.6661292 0.6634218 0.6635022
0.4627742 0.4944959 0.6661292
0.4638857 0.4945576 0.6661292
0.4968068 0.4968068 0.6661292
0.6661292 0.5600532 0.6661292
0.6661292 0.6634463 0.6635228
0.6384538 0.6661292 0.6661292
0.6385074 0.6661292 0.6661292
0.6404338 0.6661292 0.6661292
0.6661292 0.6661292 0.6661292
0.6661292 0.6639522 0.6639522
0.6659106 0.6661292 0.6659170
0.6659106 0.6661292 0.6659170
0.6659111 0.6661292 0.6659172
0.6659215 0.6661292 0.6659215
0.6661292 0.6661292 0.6660169
0.6592937 0.6592937 0.6661292
0.6592946 0.6592944 0.6661292
0.6593285 0.6593199 0.6661292
0.6600785 0.6598888 0.6661292
0.6661292 0.6652263 0.6661292
0.6592958 0.6592961 0.6661292
0.6592968 0.6592968 0.6661292
0.6593306 0.6593223 0.6661292
0.6600803 0.6598909 0.6661292
0.6661292 0.6652265 0.6661292
0.6593742 0.6593827 0.6661292
0.6593751 0.6593834 0.6661292
0.6594084 0.6594084 0.6661292
0.6601471 0.6599674 0.6661292
0.6661292 0.6652320 0.6661292
0.6609173 0.6610747 0.6661292
0.6609180 0.6610752 0.6661292
0.6609417 0.6610921 0.6661292
0.6614712 0.6614712 0.6661292
0.6661292 0.6653515 0.6661292
0.6659870 0.6661292 0.6661292
0.6659870 0.6661292 0.6661292
0.6659873 0.6661292 0.6661292
0.6659936 0.6661292 0.6661292
0.6661292 0.6661292 0.6661292
