release/datafiles/colormanagement/LUTs/guard_rail_bt2020.cube
TITLE "Guard Rail BT.2020"
# Guard Rail Formation for BT.2020 medium.
# The Guard Rail is designed to leaves valid value as-is, and only touch out of domain valuesModified from python script shared by Sakari Kapanen
# This LUT assumes E Gamut encoded in ST2084 (10) curve and then power 1.5
# LUT resolution 50
LUT_3D_SIZE 5
DOMAIN_MIN 0.000000 0.000000 0.000000
DOMAIN_MAX 0.816327 0.816327 0.816327
0.0000000 0.0000000 0.0000000
0.1959709 0.0689416 0.0689376
0.3934334 0.1749831 0.1749751
0.5913545 0.3054078 0.3053962
0.6426474 0.5501999 0.5501841
0.0739518 0.2042058 0.0739480
0.2078296 0.2078298 0.0997086
0.3972945 0.2406068 0.1844997
0.5924920 0.3294704 0.3083447
0.6427068 0.5518787 0.5511331
0.1856275 0.4071878 0.1856202
0.2492330 0.4076217 0.1927988
0.4121068 0.4121071 0.2340035
0.5990361 0.4377863 0.3279305
0.6431298 0.5633306 0.5577256
0.3216977 0.6095339 0.3216872
0.3448418 0.6096102 0.3237868
0.4483016 0.6102799 0.3384676
0.6146680 0.6146683 0.3881739
0.6448406 0.5999194 0.5817411
0.6041781 0.6444525 0.6041638
0.6045540 0.6444707 0.6042732
0.6073186 0.6446054 0.6050858
0.6184012 0.6451750 0.6084909
0.6468929 0.6468946 0.6185179
0.0686992 0.0686997 0.1539776
0.1916642 0.0931460 0.1916628
0.4007525 0.1306932 0.2195494
0.5963734 0.2790044 0.3067223
0.6426785 0.5498862 0.5506137
0.0845411 0.2044304 0.2044294
0.2040816 0.2040816 0.2040816
0.4081633 0.2040816 0.2040816
0.5971320 0.3095253 0.3095165
0.6427375 0.5515700 0.5515543
0.0664846 0.4080470 0.2087964
0.2040816 0.4081633 0.2040816
0.4093408 0.4093409 0.2320286
0.6016722 0.4321115 0.3283643
0.6431576 0.5630549 0.5580905
0.2927597 0.6101977 0.3200284
0.3222055 0.6102377 0.3221976
0.4406913 0.6106613 0.3373078
0.6143405 0.6143407 0.3879106
0.6448552 0.5997264 0.5819007
0.6039360 0.6444530 0.6041907
0.6043141 0.6444711 0.6042998
0.6070949 0.6446057 0.6051102
0.6182417 0.6451749 0.6085069
0.6468932 0.6468948 0.6185195
0.1699241 0.1699251 0.3201093
0.2109237 0.1772786 0.3301704
0.3844811 0.2198421 0.3844790
0.5985269 0.2661911 0.4196119
0.6429086 0.5472655 0.5537364
0.1761039 0.2195838 0.3563270
0.2137346 0.2137350 0.3843639
0.4004613 0.2312875 0.4004605
0.6052744 0.2649357 0.4149431
0.6429721 0.5491113 0.5547274
0.2058596 0.4071288 0.4071271
0.2065232 0.4081306 0.4081305
0.4081633 0.4081633 0.4081633
0.6122449 0.4081633 0.4081633
0.6433785 0.5609806 0.5609654
0.1937221 0.6116041 0.4166733
0.2040816 0.6122449 0.4081633
0.4081633 0.6122449 0.4081633
0.6122449 0.6122449 0.4081633
0.6449705 0.5982224 0.5831592
0.6020122 0.6444565 0.6044045
0.6024078 0.6444744 0.6045110
0.6053173 0.6446081 0.6053031
0.6169743 0.6451743 0.6086330
0.6468948 0.6468965 0.6185317
0.2905794 0.2905808 0.4902983
0.2997925 0.2890588 0.4880296
0.3841896 0.3114339 0.5157786
0.5772159 0.3657162 0.5772134
0.6447995 0.5482723 0.5783971
0.2801713 0.2924375 0.4930176
0.2962017 0.2962030 0.4977731
0.3901332 0.3215285 0.5291389
0.5822292 0.3697226 0.5822270
0.6448260 0.5496579 0.5787819
0.3182391 0.4119903 0.5614667
0.3239058 0.4118297 0.5689204
0.4081633 0.4081633 0.6122449
0.6122449 0.4081633 0.6122449
0.6450008 0.5590448 0.5813214
0.3497445 0.6089249 0.6089229
0.3502447 0.6095812 0.6095795
0.4081633 0.6122449 0.6122449
0.6122449 0.6122449 0.6122449
0.6461514 0.5963398 0.5963258
0.6009214 0.6455633 0.6131932
0.6010558 0.6455492 0.6130726
0.6031710 0.6455608 0.6129700
0.6151377 0.6459914 0.6151245
0.6473049 0.6473066 0.6215149
0.4253379 0.4253396 0.6310573
0.4260894 0.4234121 0.6310414
0.4456220 0.4243326 0.6316221
0.5312346 0.4709116 0.6353838
0.6452312 0.5562412 0.6452235
0.4179833 0.4207954 0.6307236
0.4206497 0.4206513 0.6308075
0.4455059 0.4268540 0.6316710
0.5322513 0.4745364 0.6355267
0.6452935 0.5574606 0.6452858
0.4259245 0.4469365 0.6317012
0.4283563 0.4467760 0.6317459
0.4579948 0.4579963 0.6326872
0.5401683 0.4995615 0.6366305
0.6457391 0.5659154 0.6457311
0.5257488 0.5624438 0.6386672
0.5268052 0.5625088 0.6387111
0.5345570 0.5630086 0.6390428
0.5707290 0.5707305 0.6410935
0.6475769 0.5966830 0.6475682
0.6043597 0.6482202 0.6482079
0.6044940 0.6482291 0.6482168
0.6054843 0.6482951 0.6482830
0.6149582 0.6489486 0.6489366
0.6518861 0.6518876 0.6518752
