release/datafiles/colormanagement/LUTs/guard_rail_p3.cube
TITLE "Guard Rail P3"
# Guard Rail Formation for P3 medium.
# The Guard Rail is designed to leaves valid value as-is, and only touch out of domain valuesModified from python script shared by Sakari Kapanen
# This LUT assumes E Gamut encoded in ST2084 (10) curve and then power 1.5
# LUT resolution 50
LUT_3D_SIZE 5
DOMAIN_MIN 0.000000 0.000000 0.000000
DOMAIN_MAX 0.816327 0.816327 0.816327
0.0000000 0.0000000 0.0000000
0.1960866 0.0683660 0.0683660
0.3936546 0.1738590 0.1738590
0.5916821 0.3038348 0.3038348
0.6250219 0.5575868 0.5575868
0.1173465 0.2057585 0.1173465
0.2082641 0.2082641 0.1042200
0.3972198 0.2408503 0.1850488
0.5927029 0.3286207 0.3072808
0.6252845 0.5589483 0.5584609
0.2641150 0.4071204 0.2641150
0.2583342 0.4075966 0.2098045
0.4125623 0.4125623 0.2420501
0.5987597 0.4383826 0.3301384
0.6271408 0.5683142 0.5645137
0.4263149 0.6061244 0.4263149
0.4254536 0.6067760 0.4163557
0.4544366 0.6099781 0.3557457
0.6149409 0.6149409 0.3988152
0.6341081 0.5995559 0.5862859
0.6109745 0.6431968 0.6109745
0.6110636 0.6431861 0.6108549
0.6117131 0.6430959 0.6098855
0.6189305 0.6435326 0.6099291
0.6466102 0.6466102 0.6192118
0.0716713 0.0716713 0.1548172
0.1900943 0.1049013 0.1900943
0.3912280 0.1861078 0.2388875
0.5911205 0.3066011 0.3278145
0.6250623 0.5575707 0.5580643
0.1384111 0.2082997 0.2082997
0.2040816 0.2040816 0.2040816
0.4081633 0.2040816 0.2040816
0.5962257 0.3113822 0.3113822
0.6252950 0.5588016 0.5588016
0.2691863 0.4072611 0.2958800
0.2645077 0.4076257 0.2645077
0.4097587 0.4097587 0.2400053
0.6014178 0.4326649 0.3302585
0.6271485 0.5681747 0.5648139
0.4276371 0.6060840 0.4357437
0.4268302 0.6067305 0.4268302
0.4473645 0.6103298 0.3548387
0.6146107 0.6146107 0.3985459
0.6341001 0.5994243 0.5864259
0.6109999 0.6432293 0.6112079
0.6110890 0.6432187 0.6110890
0.6117388 0.6431291 0.6101259
0.6187856 0.6435261 0.6099470
0.6466104 0.6466104 0.6192134
0.1757325 0.1757325 0.3214747
0.2150037 0.1840384 0.3295233
0.3804521 0.2400016 0.3804521
0.5855381 0.3315598 0.4310122
0.6254217 0.5576882 0.5618707
0.2030510 0.2329589 0.3470708
0.2162036 0.2162036 0.3798148
0.3946671 0.2508275 0.3946671
0.5916446 0.3333843 0.4282751
0.6256443 0.5588828 0.5625374
0.2984091 0.4088794 0.4088794
0.2982126 0.4086443 0.4086443
0.4081633 0.4081633 0.4081633
0.6034117 0.4172730 0.4172730
0.6272288 0.5671910 0.5671910
0.4369281 0.6058144 0.4900965
0.4364769 0.6064254 0.4857771
0.4306115 0.6111749 0.4306115
0.6122449 0.6122449 0.4081633
0.6340441 0.5984191 0.5875299
0.6111920 0.6434746 0.6129631
0.6112814 0.6434647 0.6128501
0.6119338 0.6433802 0.6119338
0.6176381 0.6434749 0.6100879
0.6466121 0.6466121 0.6192252
0.2988024 0.2988024 0.4920055
0.3072210 0.2972571 0.4889652
0.3871132 0.3213324 0.5124984
0.5699469 0.3910472 0.5699469
0.6271025 0.5583522 0.5784441
0.3014397 0.3112458 0.4918297
0.3022149 0.3022149 0.4964780
0.3920984 0.3300730 0.5244789
0.5745434 0.3948776 0.5745434
0.6273106 0.5595182 0.5789531
0.3608819 0.4214310 0.5432113
0.3633723 0.4204205 0.5486178
0.4081633 0.4081633 0.6122449
0.6065748 0.4217699 0.6065748
0.6287893 0.5676183 0.5825038
0.4682769 0.6052361 0.6052361
0.4687154 0.6057278 0.6057278
0.4719683 0.6093733 0.6093733
0.6122449 0.6122449 0.6122449
0.6348483 0.5971506 0.5971506
0.6120785 0.6445957 0.6207654
0.6121696 0.6445888 0.6206782
0.6128354 0.6445286 0.6199707
0.6154077 0.6440521 0.6154077
0.6469625 0.6469625 0.6215845
0.4352390 0.4352390 0.6295251
0.4356170 0.4332094 0.6294778
0.4528525 0.4335094 0.6298654
0.5340220 0.4779954 0.6337866
0.6343089 0.5624669 0.6343089
0.4318974 0.4343344 0.6294322
0.4296095 0.4296095 0.6292601
0.4522005 0.4351426 0.6298944
0.5348941 0.4811358 0.6339363
0.6344727 0.5635372 0.6344727
0.4517648 0.4682754 0.6309012
0.4526152 0.4672513 0.6308858
0.4617390 0.4617390 0.6309201
0.5419750 0.5035270 0.6351184
0.6356487 0.5710319 0.6356487
0.5348826 0.5677091 0.6382433
0.5357362 0.5677172 0.6382775
0.5421649 0.5678605 0.6385458
0.5706678 0.5706678 0.6400157
0.6401462 0.5971080 0.6401462
0.6157657 0.6490658 0.6490658
0.6158661 0.6490729 0.6490729
0.6166071 0.6491249 0.6491249
0.6196227 0.6493392 0.6493392
0.6518940 0.6518940 0.6518940
