release/datafiles/colormanagement/luts/guard_rail_higher.cube
TITLE "Guard Rail sRGB"
# Higher Side of Guard Rail Formation
# The Guard Rail is designed to leaves valid value as-is, and only touch out of domain values
# Modified from python script shared by Sakari Kapanen
# This LUT assumes target medium primaries encoded in ST2084 (100) curve and then power 0.6
# LUT resolution 37
LUT_3D_SIZE 37
0.0000000 0.0000000 0.0000000
0.0277778 0.0000000 0.0000000
0.0555556 0.0000000 0.0000000
0.0833333 0.0000000 0.0000000
0.1111111 0.0000000 0.0000000
0.1388889 0.0000000 0.0000000
0.1666667 0.0000000 0.0000000
0.1944444 0.0000000 0.0000000
0.2222222 0.0000000 0.0000000
0.2500000 0.0000000 0.0000000
0.2777778 0.0000000 0.0000000
0.3055556 0.0000000 0.0000000
0.3333333 0.0000000 0.0000000
0.3611111 0.0000000 0.0000000
0.3888889 0.0000000 0.0000000
0.4166667 0.0000000 0.0000000
0.4444444 0.0000000 0.0000000
0.4722222 0.0000000 0.0000000
0.5000000 0.0000000 0.0000000
0.5277778 0.0000000 0.0000000
0.5555556 0.0000000 0.0000000
0.5833333 0.0000000 0.0000000
0.6111111 0.0000000 0.0000000
0.6388889 0.0000000 0.0000000
0.6666667 0.0000000 0.0000000
0.6661292 0.3928005 0.3928005
0.6661292 0.4456864 0.4456864
0.6661292 0.4789565 0.4789565
0.6661292 0.5037716 0.5037716
0.6661292 0.5595502 0.5595502
0.6661292 0.5966741 0.5966741
0.6661292 0.6217586 0.6217586
0.6661292 0.6386988 0.6386988
0.6661292 0.6497742 0.6497742
0.6661292 0.6567169 0.6567169
0.6661292 0.6608899 0.6608899
0.6661292 0.6633035 0.6633035
0.0000000 0.0277778 0.0000000
0.0277778 0.0277778 0.0000000
0.0555556 0.0277778 0.0000000
0.0833333 0.0277778 0.0000000
0.1111111 0.0277778 0.0000000
0.1388889 0.0277778 0.0000000
0.1666667 0.0277778 0.0000000
0.1944444 0.0277778 0.0000000
0.2222222 0.0277778 0.0000000
0.2500000 0.0277778 0.0000000
0.2777778 0.0277778 0.0000000
0.3055556 0.0277778 0.0000000
0.3333333 0.0277778 0.0000000
0.3611111 0.0277778 0.0000000
0.3888889 0.0277778 0.0000000
0.4166667 0.0277778 0.0000000
0.4444444 0.0277778 0.0000000
0.4722222 0.0277778 0.0000000
0.5000000 0.0277778 0.0000000
0.5277778 0.0277778 0.0000000
0.5555556 0.0277778 0.0000000
0.5833333 0.0277778 0.0000000
0.6111111 0.0277778 0.0000000
0.6388889 0.0277778 0.0000000
0.6666667 0.0277778 0.0000000
0.6661292 0.3928043 0.3928008
0.6661292 0.4456878 0.4456866
0.6661292 0.4789571 0.4789566
0.6661292 0.5037720 0.5037717
0.6661292 0.5595504 0.5595504
0.6661292 0.5966742 0.5966742
0.6661292 0.6217587 0.6217587
0.6661292 0.6386989 0.6386989
0.6661292 0.6497742 0.6497742
0.6661292 0.6567169 0.6567169
0.6661292 0.6608899 0.6608899
0.6661292 0.6633035 0.6633035
0.0000000 0.0555556 0.0000000
0.0277778 0.0555556 0.0000000
0.0555556 0.0555556 0.0000000
0.0833333 0.0555556 0.0000000
0.1111111 0.0555556 0.0000000
0.1388889 0.0555556 0.0000000
0.1666667 0.0555556 0.0000000
0.1944444 0.0555556 0.0000000
0.2222222 0.0555556 0.0000000
0.2500000 0.0555556 0.0000000
0.2777778 0.0555556 0.0000000
0.3055556 0.0555556 0.0000000
0.3333333 0.0555556 0.0000000
0.3611111 0.0555556 0.0000000
0.3888889 0.0555556 0.0000000
0.4166667 0.0555556 0.0000000
0.4444444 0.0555556 0.0000000
0.4722222 0.0555556 0.0000000
0.5000000 0.0555556 0.0000000
0.5277778 0.0555556 0.0000000
0.5555556 0.0555556 0.0000000
0.5833333 0.0555556 0.0000000
0.6111111 0.0555556 0.0000000
0.6388889 0.0555556 0.0000000
0.6666667 0.0555556 0.0000000
0.6661292 0.3928292 0.3928028
0.6661292 0.4456972 0.4456881
0.6661292 0.4789616 0.4789576
0.6661292 0.5037744 0.5037724
0.6661292 0.5595520 0.5595514
0.6661292 0.5966749 0.5966747
0.6661292 0.6217590 0.6217589
0.6661292 0.6386990 0.6386990
0.6661292 0.6497742 0.6497742
0.6661292 0.6567169 0.6567169
0.6661292 0.6608900 0.6608899
0.6661292 0.6633035 0.6633035
0.0000000 0.0833333 0.0000000
0.0277778 0.0833333 0.0000000
0.0555556 0.0833333 0.0000000
0.0833333 0.0833333 0.0000000
0.1111111 0.0833333 0.0000000
0.1388889 0.0833333 0.0000000
0.1666667 0.0833333 0.0000000
0.1944444 0.0833333 0.0000000
0.2222222 0.0833333 0.0000000
0.2500000 0.0833333 0.0000000
0.2777778 0.0833333 0.0000000
0.3055556 0.0833333 0.0000000
0.3333333 0.0833333 0.0000000
0.3611111 0.0833333 0.0000000
0.3888889 0.0833333 0.0000000
0.4166667 0.0833333 0.0000000
0.4444444 0.0833333 0.0000000
0.4722222 0.0833333 0.0000000
0.5000000 0.0833333 0.0000000
0.5277778 0.0833333 0.0000000
0.5555556 0.0833333 0.0000000
0.5833333 0.0833333 0.0000000
0.6111111 0.0833333 0.0000000
0.6388889 0.0833333 0.0000000
0.6666667 0.0833333 0.0000000
0.6661292 0.3929020 0.3928088
0.6661292 0.4457245 0.4456923
0.6661292 0.4789748 0.4789605
0.6661292 0.5037814 0.5037744
0.6661292 0.5595565 0.5595544
0.6661292 0.5966769 0.5966762
0.6661292 0.6217599 0.6217596
0.6661292 0.6386994 0.6386993
0.6661292 0.6497744 0.6497744
0.6661292 0.6567170 0.6567170
0.6661292 0.6608900 0.6608900
0.6661292 0.6633035 0.6633035
0.0000000 0.1111111 0.0000000
0.0277778 0.1111111 0.0000000
0.0555556 0.1111111 0.0000000
0.0833333 0.1111111 0.0000000
0.1111111 0.1111111 0.0000000
0.1388889 0.1111111 0.0000000
0.1666667 0.1111111 0.0000000
0.1944444 0.1111111 0.0000000
0.2222222 0.1111111 0.0000000
0.2500000 0.1111111 0.0000000
0.2777778 0.1111111 0.0000000
0.3055556 0.1111111 0.0000000
0.3333333 0.1111111 0.0000000
0.3611111 0.1111111 0.0000000
0.3888889 0.1111111 0.0000000
0.4166667 0.1111111 0.0000000
0.4444444 0.1111111 0.0000000
0.4722222 0.1111111 0.0000000
0.5000000 0.1111111 0.0000000
0.5277778 0.1111111 0.0000000
0.5555556 0.1111111 0.0000000
0.5833333 0.1111111 0.0000000
0.6111111 0.1111111 0.0000000
0.6388889 0.1111111 0.0000000
0.6666667 0.1111111 0.0000000
0.6661292 0.3930630 0.3928219
0.6661292 0.4457849 0.4457017
0.6661292 0.4790039 0.4789670
0.6661292 0.5037968 0.5037787
0.6661292 0.5595664 0.5595611
0.6661292 0.5966813 0.5966795
0.6661292 0.6217619 0.6217612
0.6661292 0.6387003 0.6387000
0.6661292 0.6497748 0.6497747
0.6661292 0.6567171 0.6567171
0.6661292 0.6608900 0.6608900
0.6661292 0.6633036 0.6633036
0.0000000 0.1388889 0.0000000
0.0277778 0.1388889 0.0000000
0.0555556 0.1388889 0.0000000
0.0833333 0.1388889 0.0000000
0.1111111 0.1388889 0.0000000
0.1388889 0.1388889 0.0000000
0.1666667 0.1388889 0.0000000
0.1944444 0.1388889 0.0000000
0.2222222 0.1388889 0.0000000
0.2500000 0.1388889 0.0000000
0.2777778 0.1388889 0.0000000
0.3055556 0.1388889 0.0000000
0.3333333 0.1388889 0.0000000
0.3611111 0.1388889 0.0000000
0.3888889 0.1388889 0.0000000
0.4166667 0.1388889 0.0000000
0.4444444 0.1388889 0.0000000
0.4722222 0.1388889 0.0000000
0.5000000 0.1388889 0.0000000
0.5277778 0.1388889 0.0000000
0.5555556 0.1388889 0.0000000
0.5833333 0.1388889 0.0000000
0.6111111 0.1388889 0.0000000
0.6388889 0.1388889 0.0000000
0.6666667 0.1388889 0.0000000
0.6661292 0.3933723 0.3928473
0.6661292 0.4459012 0.4457197
0.6661292 0.4790599 0.4789794
0.6661292 0.5038267 0.5037871
0.6661292 0.5595855 0.5595739
0.6661292 0.5966898 0.5966858
0.6661292 0.6217658 0.6217643
0.6661292 0.6387020 0.6387014
0.6661292 0.6497755 0.6497753
0.6661292 0.6567174 0.6567173
0.6661292 0.6608901 0.6608901
0.6661292 0.6633036 0.6633036
0.0000000 0.1666667 0.0000000
0.0277778 0.1666667 0.0000000
0.0555556 0.1666667 0.0000000
0.0833333 0.1666667 0.0000000
0.1111111 0.1666667 0.0000000
0.1388889 0.1666667 0.0000000
0.1666667 0.1666667 0.0000000
0.1944444 0.1666667 0.0000000
0.2222222 0.1666667 0.0000000
0.2500000 0.1666667 0.0000000
0.2777778 0.1666667 0.0000000
0.3055556 0.1666667 0.0000000
0.3333333 0.1666667 0.0000000
0.3611111 0.1666667 0.0000000
0.3888889 0.1666667 0.0000000
0.4166667 0.1666667 0.0000000
0.4444444 0.1666667 0.0000000
0.4722222 0.1666667 0.0000000
0.5000000 0.1666667 0.0000000
0.5277778 0.1666667 0.0000000
0.5555556 0.1666667 0.0000000
0.5833333 0.1666667 0.0000000
0.6111111 0.1666667 0.0000000
0.6388889 0.1666667 0.0000000
0.6666667 0.1666667 0.0000000
0.6661292 0.3939168 0.3928922
0.6661292 0.4461067 0.4457516
0.6661292 0.4791591 0.4790014
0.6661292 0.5038794 0.5038020
0.6661292 0.5596193 0.5595966
0.6661292 0.5967048 0.5966971
0.6661292 0.6217726 0.6217697
0.6661292 0.6387050 0.6387039
0.6661292 0.6497767 0.6497763
0.6661292 0.6567179 0.6567177
0.6661292 0.6608903 0.6608903
0.6661292 0.6633037 0.6633036
0.0000000 0.1944444 0.0000000
0.0277778 0.1944444 0.0000000
0.0555556 0.1944444 0.0000000
0.0833333 0.1944444 0.0000000
0.1111111 0.1944444 0.0000000
0.1388889 0.1944444 0.0000000
0.1666667 0.1944444 0.0000000
0.1944444 0.1944444 0.0000000
0.2222222 0.1944444 0.0000000
0.2500000 0.1944444 0.0000000
0.2777778 0.1944444 0.0000000
0.3055556 0.1944444 0.0000000
0.3333333 0.1944444 0.0000000
0.3611111 0.1944444 0.0000000
0.3888889 0.1944444 0.0000000
0.4166667 0.1944444 0.0000000
0.4444444 0.1944444 0.0000000
0.4722222 0.1944444 0.0000000
0.5000000 0.1944444 0.0000000
0.5277778 0.1944444 0.0000000
0.5555556 0.1944444 0.0000000
0.5833333 0.1944444 0.0000000
0.6111111 0.1944444 0.0000000
0.6388889 0.1944444 0.0000000
0.6666667 0.1944444 0.0000000
0.6661292 0.3948192 0.3929673
0.6661292 0.4464492 0.4458049
0.6661292 0.4793246 0.4790381
0.6661292 0.5039676 0.5038269
0.6661292 0.5596758 0.5596346
0.6661292 0.5967299 0.5967158
0.6661292 0.6217840 0.6217788
0.6661292 0.6387100 0.6387081
0.6661292 0.6497788 0.6497781
0.6661292 0.6567187 0.6567185
0.6661292 0.6608906 0.6608905
0.6661292 0.6633038 0.6633037
0.0000000 0.2222222 0.0000000
0.0277778 0.2222222 0.0000000
0.0555556 0.2222222 0.0000000
0.0833333 0.2222222 0.0000000
0.1111111 0.2222222 0.0000000
0.1388889 0.2222222 0.0000000
0.1666667 0.2222222 0.0000000
0.1944444 0.2222222 0.0000000
0.2222222 0.2222222 0.0000000
0.2500000 0.2222222 0.0000000
0.2777778 0.2222222 0.0000000
0.3055556 0.2222222 0.0000000
0.3333333 0.2222222 0.0000000
0.3611111 0.2222222 0.0000000
0.3888889 0.2222222 0.0000000
0.4166667 0.2222222 0.0000000
0.4444444 0.2222222 0.0000000
0.4722222 0.2222222 0.0000000
0.5000000 0.2222222 0.0000000
0.5277778 0.2222222 0.0000000
0.5555556 0.2222222 0.0000000
0.5833333 0.2222222 0.0000000
0.6111111 0.2222222 0.0000000
0.6388889 0.2222222 0.0000000
0.6666667 0.2222222 0.0000000
0.6661292 0.3962468 0.3930878
0.6661292 0.4469962 0.4458905
0.6661292 0.4795897 0.4790971
0.6661292 0.5041090 0.5038669
0.6661292 0.5597665 0.5596956
0.6661292 0.5967702 0.5967460
0.6661292 0.6218023 0.6217934
0.6661292 0.6387181 0.6387148
0.6661292 0.6497822 0.6497810
0.6661292 0.6567201 0.6567196
0.6661292 0.6608911 0.6608910
0.6661292 0.6633040 0.6633039
0.0000000 0.2500000 0.0000000
0.0277778 0.2500000 0.0000000
0.0555556 0.2500000 0.0000000
0.0833333 0.2500000 0.0000000
0.1111111 0.2500000 0.0000000
0.1388889 0.2500000 0.0000000
0.1666667 0.2500000 0.0000000
0.1944444 0.2500000 0.0000000
0.2222222 0.2500000 0.0000000
0.2500000 0.2500000 0.0000000
0.2777778 0.2500000 0.0000000
0.3055556 0.2500000 0.0000000
0.3333333 0.2500000 0.0000000
0.3611111 0.2500000 0.0000000
0.3888889 0.2500000 0.0000000
0.4166667 0.2500000 0.0000000
0.4444444 0.2500000 0.0000000
0.4722222 0.2500000 0.0000000
0.5000000 0.2500000 0.0000000
0.5277778 0.2500000 0.0000000
0.5555556 0.2500000 0.0000000
0.5833333 0.2500000 0.0000000
0.6111111 0.2500000 0.0000000
0.6388889 0.2500000 0.0000000
0.6666667 0.2500000 0.0000000
0.6661292 0.3984204 0.3932751
0.6661292 0.4478411 0.4460238
0.6661292 0.4800012 0.4791889
0.6661292 0.5043289 0.5039291
0.6661292 0.5599076 0.5597906
0.6661292 0.5968330 0.5967929
0.6661292 0.6218308 0.6218161
0.6661292 0.6387307 0.6387252
0.6661292 0.6497875 0.6497855
0.6661292 0.6567222 0.6567214
0.6661292 0.6608919 0.6608917
0.6661292 0.6633042 0.6633041
0.0000000 0.2777778 0.0000000
0.0277778 0.2777778 0.0000000
0.0555556 0.2777778 0.0000000
0.0833333 0.2777778 0.0000000
0.1111111 0.2777778 0.0000000
0.1388889 0.2777778 0.0000000
0.1666667 0.2777778 0.0000000
0.1944444 0.2777778 0.0000000
0.2222222 0.2777778 0.0000000
0.2500000 0.2777778 0.0000000
0.2777778 0.2777778 0.0000000
0.3055556 0.2777778 0.0000000
0.3333333 0.2777778 0.0000000
0.3611111 0.2777778 0.0000000
0.3888889 0.2777778 0.0000000
0.4166667 0.2777778 0.0000000
0.4444444 0.2777778 0.0000000
0.4722222 0.2777778 0.0000000
0.5000000 0.2777778 0.0000000
0.5277778 0.2777778 0.0000000
0.5555556 0.2777778 0.0000000
0.5833333 0.2777778 0.0000000
0.6111111 0.2777778 0.0000000
0.6388889 0.2777778 0.0000000
0.6666667 0.2777778 0.0000000
0.6661292 0.4016173 0.3935595
0.6661292 0.4491107 0.4462262
0.6661292 0.4806236 0.4793285
0.6661292 0.5046626 0.5040238
0.6661292 0.5601220 0.5599351
0.6661292 0.5969284 0.5968644
0.6661292 0.6218742 0.6218507
0.6661292 0.6387498 0.6387410
0.6661292 0.6497955 0.6497923
0.6661292 0.6567253 0.6567241
0.6661292 0.6608931 0.6608927
0.6661292 0.6633047 0.6633045
0.0000000 0.3055556 0.0000000
0.0277778 0.3055556 0.0000000
0.0555556 0.3055556 0.0000000
0.0833333 0.3055556 0.0000000
0.1111111 0.3055556 0.0000000
0.1388889 0.3055556 0.0000000
0.1666667 0.3055556 0.0000000
0.1944444 0.3055556 0.0000000
0.2222222 0.3055556 0.0000000
0.2500000 0.3055556 0.0000000
0.2777778 0.3055556 0.0000000
0.3055556 0.3055556 0.0000000
0.3333333 0.3055556 0.0000000
0.3611111 0.3055556 0.0000000
0.3888889 0.3055556 0.0000000
0.4166667 0.3055556 0.0000000
0.4444444 0.3055556 0.0000000
0.4722222 0.3055556 0.0000000
0.5000000 0.3055556 0.0000000
0.5277778 0.3055556 0.0000000
0.5555556 0.3055556 0.0000000
0.5833333 0.3055556 0.0000000
0.6111111 0.3055556 0.0000000
0.6388889 0.3055556 0.0000000
0.6666667 0.3055556 0.0000000
0.6661292 0.4061649 0.3939829
0.6661292 0.4509718 0.4465279
0.6661292 0.4815454 0.4795369
0.6661292 0.5051589 0.5041652
0.6661292 0.5604415 0.5601507
0.6661292 0.5970709 0.5969711
0.6661292 0.6219391 0.6219024
0.6661292 0.6387784 0.6387647
0.6661292 0.6498075 0.6498024
0.6661292 0.6567301 0.6567282
0.6661292 0.6608949 0.6608942
0.6661292 0.6633053 0.6633051
0.0000000 0.3333333 0.0000000
0.0277778 0.3333333 0.0000000
0.0555556 0.3333333 0.0000000
0.0833333 0.3333333 0.0000000
0.1111111 0.3333333 0.0000000
0.1388889 0.3333333 0.0000000
0.1666667 0.3333333 0.0000000
0.1944444 0.3333333 0.0000000
0.2222222 0.3333333 0.0000000
0.2500000 0.3333333 0.0000000
0.2777778 0.3333333 0.0000000
0.3055556 0.3333333 0.0000000
0.3333333 0.3333333 0.0000000
0.3611111 0.3333333 0.0000000
0.3888889 0.3333333 0.0000000
0.4166667 0.3333333 0.0000000
0.4444444 0.3333333 0.0000000
0.4722222 0.3333333 0.0000000
0.5000000 0.3333333 0.0000000
0.5277778 0.3333333 0.0000000
0.5555556 0.3333333 0.0000000
0.5833333 0.3333333 0.0000000
0.6111111 0.3333333 0.0000000
0.6388889 0.3333333 0.0000000
0.6666667 0.3333333 0.0000000
0.6661292 0.4124178 0.3946029
0.6661292 0.4536376 0.4469705
0.6661292 0.4828848 0.4798429
0.6661292 0.5058850 0.5043732
0.6661292 0.5609100 0.5604676
0.6661292 0.5972803 0.5971281
0.6661292 0.6220345 0.6219785
0.6661292 0.6388205 0.6387996
0.6661292 0.6498252 0.6498174
0.6661292 0.6567371 0.6567343
0.6661292 0.6608975 0.6608965
0.6661292 0.6633062 0.6633059
0.0000000 0.3611111 0.0000000
0.0277778 0.3611111 0.0000000
0.0555556 0.3611111 0.0000000
0.0833333 0.3611111 0.0000000
0.1111111 0.3611111 0.0000000
0.1388889 0.3611111 0.0000000
0.1666667 0.3611111 0.0000000
0.1944444 0.3611111 0.0000000
0.2222222 0.3611111 0.0000000
0.2500000 0.3611111 0.0000000
0.2777778 0.3611111 0.0000000
0.3055556 0.3611111 0.0000000
0.3333333 0.3611111 0.0000000
0.3611111 0.3611111 0.0000000
0.3888889 0.3611111 0.0000000
0.4166667 0.3611111 0.0000000
0.4444444 0.3611111 0.0000000
0.4722222 0.3611111 0.0000000
0.5000000 0.3611111 0.0000000
0.5277778 0.3611111 0.0000000
0.5555556 0.3611111 0.0000000
0.5833333 0.3611111 0.0000000
0.6111111 0.3611111 0.0000000
0.6388889 0.3611111 0.0000000
0.6666667 0.3611111 0.0000000
0.6661292 0.4207166 0.3954977
0.6661292 0.4573679 0.4476110
0.6661292 0.4847969 0.4802868
0.6661292 0.5069311 0.5046752
0.6661292 0.5615876 0.5609275
0.6661292 0.5975842 0.5973562
0.6661292 0.6221731 0.6220891
0.6661292 0.6388818 0.6388503
0.6661292 0.6498509 0.6498392
0.6661292 0.6567473 0.6567430
0.6661292 0.6609014 0.6608998
0.6661292 0.6633076 0.6633071
0.0000000 0.3888889 0.0000000
0.0277778 0.3888889 0.0000000
0.0555556 0.3888889 0.0000000
0.0833333 0.3888889 0.0000000
0.1111111 0.3888889 0.0000000
0.1388889 0.3888889 0.0000000
0.1666667 0.3888889 0.0000000
0.1944444 0.3888889 0.0000000
0.2222222 0.3888889 0.0000000
0.2500000 0.3888889 0.0000000
0.2777778 0.3888889 0.0000000
0.3055556 0.3888889 0.0000000
0.3333333 0.3888889 0.0000000
0.3611111 0.3888889 0.0000000
0.3888889 0.3888889 0.0000000
0.4166667 0.3888889 0.0000000
0.4444444 0.3888889 0.0000000
0.4722222 0.3888889 0.0000000
0.5000000 0.3888889 0.0000000
0.5277778 0.3888889 0.0000000
0.5555556 0.3888889 0.0000000
0.5833333 0.3888889 0.0000000
0.6111111 0.3888889 0.0000000
0.6388889 0.3888889 0.0000000
0.6666667 0.3888889 0.0000000
0.6661292 0.4313327 0.3967718
0.6661292 0.4624607 0.4485266
0.6661292 0.4874783 0.4809231
0.6661292 0.5084175 0.5051092
0.6661292 0.5625553 0.5615876
0.6661292 0.5980202 0.5976843
0.6661292 0.6223726 0.6222484
0.6661292 0.6389701 0.6389235
0.6661292 0.6498880 0.6498706
0.6661292 0.6567621 0.6567557
0.6661292 0.6609069 0.6609046
0.6661292 0.6633096 0.6633088
0.0000000 0.4166667 0.0000000
0.0277778 0.4166667 0.0000000
0.0555556 0.4166667 0.0000000
0.0833333 0.4166667 0.0000000
0.1111111 0.4166667 0.0000000
0.1388889 0.4166667 0.0000000
0.1666667 0.4166667 0.0000000
0.1944444 0.4166667 0.0000000
0.2222222 0.4166667 0.0000000
0.2500000 0.4166667 0.0000000
0.2777778 0.4166667 0.0000000
0.3055556 0.4166667 0.0000000
0.3333333 0.4166667 0.0000000
0.3611111 0.4166667 0.0000000
0.3888889 0.4166667 0.0000000
0.4166667 0.4166667 0.0000000
0.4444444 0.4166667 0.0000000
0.4722222 0.4166667 0.0000000
0.5000000 0.4166667 0.0000000
0.5277778 0.4166667 0.0000000
0.5555556 0.4166667 0.0000000
0.5833333 0.4166667 0.0000000
0.6111111 0.4166667 0.0000000
0.6388889 0.4166667 0.0000000
0.6666667 0.4166667 0.0000000
0.6661292 0.4444146 0.3985625
0.6661292 0.4692306 0.4498200
0.6661292 0.4911688 0.4818258
0.6661292 0.5105419 0.5057718
0.6661292 0.5639206 0.5625255
0.6661292 0.5986397 0.5981516
0.6661292 0.6226569 0.6224758
0.6661292 0.6390962 0.6390280
0.6661292 0.6499411 0.6499156
0.6661292 0.6567832 0.6567738
0.6661292 0.6609148 0.6609115
0.6661292 0.6633124 0.6633112
0.0000000 0.4444444 0.0000000
0.0277778 0.4444444 0.0000000
0.0555556 0.4444444 0.0000000
0.0833333 0.4444444 0.0000000
0.1111111 0.4444444 0.0000000
0.1388889 0.4444444 0.0000000
0.1666667 0.4444444 0.0000000
0.1944444 0.4444444 0.0000000
0.2222222 0.4444444 0.0000000
0.2500000 0.4444444 0.0000000
0.2777778 0.4444444 0.0000000
0.3055556 0.4444444 0.0000000
0.3333333 0.4444444 0.0000000
0.3611111 0.4444444 0.0000000
0.3888889 0.4444444 0.0000000
0.4166667 0.4444444 0.0000000
0.4444444 0.4444444 0.0000000
0.4722222 0.4444444 0.0000000
0.5000000 0.4444444 0.0000000
0.5277778 0.4444444 0.0000000
0.5555556 0.4444444 0.0000000
0.5833333 0.4444444 0.0000000
0.6111111 0.4444444 0.0000000
0.6388889 0.4444444 0.0000000
0.6666667 0.4444444 0.0000000
0.6661292 0.4599570 0.4010445
0.6661292 0.4779719 0.4516259
0.6661292 0.4961443 0.4830933
0.6661292 0.5152152 0.5086276
0.6661292 0.5658233 0.5638449
0.6661292 0.5995112 0.5988116
0.6661292 0.6230587 0.6227977
0.6661292 0.6392749 0.6391763
0.6661292 0.6500165 0.6499796
0.6661292 0.6568132 0.6567996
0.6661292 0.6609261 0.6609213
0.6661292 0.6633164 0.6633147
0.0000000 0.4722222 0.0000000
0.0277778 0.4722222 0.0000000
0.0555556 0.4722222 0.0000000
0.0833333 0.4722222 0.0000000
0.1111111 0.4722222 0.0000000
0.1388889 0.4722222 0.0000000
0.1666667 0.4722222 0.0000000
0.1944444 0.4722222 0.0000000
0.2222222 0.4722222 0.0000000
0.2500000 0.4722222 0.0000000
0.2777778 0.4722222 0.0000000
0.3055556 0.4722222 0.0000000
0.3333333 0.4722222 0.0000000
0.3611111 0.4722222 0.0000000
0.3888889 0.4722222 0.0000000
0.4166667 0.4722222 0.0000000
0.4444444 0.4722222 0.0000000
0.4722222 0.4722222 0.0000000
0.5000000 0.4722222 0.0000000
0.5277778 0.4722222 0.0000000
0.5555556 0.4722222 0.0000000
0.5833333 0.4722222 0.0000000
0.6111111 0.4722222 0.0000000
0.6388889 0.4722222 0.0000000
0.6666667 0.4722222 0.0000000
0.6661292 0.4778048 0.4044334
0.6661292 0.4889113 0.4541154
0.6661292 0.5026982 0.4848544
0.6661292 0.5214166 0.5125539
0.6661292 0.5684388 0.5656828
0.6661292 0.6007247 0.5997358
0.6661292 0.6236220 0.6232501
0.6661292 0.6395266 0.6393853
0.6661292 0.6501230 0.6500699
0.6661292 0.6568557 0.6568361
0.6661292 0.6609421 0.6609351
0.6661292 0.6633221 0.6633197
0.0000000 0.5000000 0.0000000
0.0277778 0.5000000 0.0000000
0.0555556 0.5000000 0.0000000
0.0833333 0.5000000 0.0000000
0.1111111 0.5000000 0.0000000
0.1388889 0.5000000 0.0000000
0.1666667 0.5000000 0.0000000
0.1944444 0.5000000 0.0000000
0.2222222 0.5000000 0.0000000
0.2500000 0.5000000 0.0000000
0.2777778 0.5000000 0.0000000
0.3055556 0.5000000 0.0000000
0.3333333 0.5000000 0.0000000
0.3611111 0.5000000 0.0000000
0.3888889 0.5000000 0.0000000
0.4166667 0.5000000 0.0000000
0.4444444 0.5000000 0.0000000
0.4722222 0.5000000 0.0000000
0.5000000 0.5000000 0.0000000
0.5277778 0.5000000 0.0000000
0.5555556 0.5000000 0.0000000
0.5833333 0.5000000 0.0000000
0.6111111 0.5000000 0.0000000
0.6388889 0.5000000 0.0000000
0.6666667 0.5000000 0.0000000
0.6661292 0.4976887 0.4089814
0.6661292 0.5021635 0.4574980
0.6661292 0.5111095 0.4872725
0.6661292 0.5294434 0.5178680
0.6661292 0.5719780 0.5682141
0.6661292 0.6023957 0.6010183
0.6661292 0.6244048 0.6238810
0.6661292 0.6398783 0.6396780
0.6661292 0.6502725 0.6501968
0.6661292 0.6569155 0.6568876
0.6661292 0.6609647 0.6609547
0.6661292 0.6633302 0.6633267
0.0000000 0.5277778 0.0000000
0.0277778 0.5277778 0.0000000
0.0555556 0.5277778 0.0000000
0.0833333 0.5277778 0.0000000
0.1111111 0.5277778 0.0000000
0.1388889 0.5277778 0.0000000
0.1666667 0.5277778 0.0000000
0.1944444 0.5277778 0.0000000
0.2222222 0.5277778 0.0000000
0.2500000 0.5277778 0.0000000
0.2777778 0.5277778 0.0000000
0.3055556 0.5277778 0.0000000
0.3333333 0.5277778 0.0000000
0.3611111 0.5277778 0.0000000
0.3888889 0.5277778 0.0000000
0.4166667 0.5277778 0.0000000
0.4444444 0.5277778 0.0000000
0.4722222 0.5277778 0.0000000
0.5000000 0.5277778 0.0000000
0.5277778 0.5277778 0.0000000
0.5555556 0.5277778 0.0000000
0.5833333 0.5277778 0.0000000
0.6111111 0.5277778 0.0000000
0.6388889 0.5277778 0.0000000
0.6666667 0.5277778 0.0000000
0.6661292 0.5192749 0.4149646
0.6661292 0.5177031 0.4620177
0.6661292 0.5215979 0.4905475
0.6661292 0.5395423 0.5249277
0.6661292 0.5766775 0.5716541
0.6661292 0.6046663 0.6027790
0.6661292 0.6254819 0.6247534
0.6661292 0.6403662 0.6400851
0.6661292 0.6504810 0.6503741
0.6661292 0.6569994 0.6569597
0.6661292 0.6609965 0.6609823
0.6661292 0.6633415 0.6633366
0.0000000 0.5555556 0.0000000
0.0277778 0.5555556 0.0000000
0.0555556 0.5555556 0.0000000
0.0833333 0.5555556 0.0000000
0.1111111 0.5555556 0.0000000
0.1388889 0.5555556 0.0000000
0.1666667 0.5555556 0.0000000
0.1944444 0.5555556 0.0000000
0.2222222 0.5555556 0.0000000
0.2500000 0.5555556 0.0000000
0.2777778 0.5555556 0.0000000
0.3055556 0.5555556 0.0000000
0.3333333 0.5555556 0.0000000
0.3611111 0.5555556 0.0000000
0.3888889 0.5555556 0.0000000
0.4166667 0.5555556 0.0000000
0.4444444 0.5555556 0.0000000
0.4722222 0.5555556 0.0000000
0.5000000 0.5555556 0.0000000
0.5277778 0.5555556 0.0000000
0.5555556 0.5555556 0.0000000
0.5833333 0.5555556 0.0000000
0.6111111 0.5555556 0.0000000
0.6388889 0.5555556 0.0000000
0.6666667 0.5555556 0.0000000
0.6661292 0.5422118 0.4226569
0.6661292 0.5353640 0.4679375
0.6661292 0.5342790 0.4949108
0.6661292 0.5518492 0.5340936
0.6661292 0.5827744 0.5762515
0.6661292 0.6077006 0.6051651
0.6661292 0.6269460 0.6259473
0.6661292 0.6410371 0.6406466
0.6661292 0.6507701 0.6506204
0.6661292 0.6571163 0.6570605
0.6661292 0.6610410 0.6610209
0.6661292 0.6633575 0.6633505
0.0000000 0.5833333 0.0000000
0.0277778 0.5833333 0.0000000
0.0555556 0.5833333 0.0000000
0.0833333 0.5833333 0.0000000
0.1111111 0.5833333 0.0000000
0.1388889 0.5833333 0.0000000
0.1666667 0.5833333 0.0000000
0.1944444 0.5833333 0.0000000
0.2222222 0.5833333 0.0000000
0.2500000 0.5833333 0.0000000
0.2777778 0.5833333 0.0000000
