release/datafiles/colormanagement/LUTs/guard_rail_srgb.cube
TITLE "Guard Rail sRGB"
# Guard Rail Formation for sRGB medium.
# The Guard Rail is designed to leaves valid value as-is, and only touch out of domain valuesModified from python script shared by Sakari Kapanen
# This LUT assumes E Gamut encoded in ST2084 (10) curve and then power 1.5
# LUT resolution 50
LUT_3D_SIZE 50
0.0000000 0.0000000 0.0000000
0.0190766 0.0051186 0.0051186
0.0382593 0.0116315 0.0116315
0.0574964 0.0189615 0.0189615
0.0767720 0.0269249 0.0269249
0.0960775 0.0354204 0.0354204
0.1154074 0.0443821 0.0443821
0.1347578 0.0537627 0.0537627
0.1541259 0.0635262 0.0635262
0.1735094 0.0736442 0.0736442
0.1929063 0.0840934 0.0840934
0.2123152 0.0948544 0.0948544
0.2317347 0.1059107 0.1059107
0.2511635 0.1172478 0.1172478
0.2706006 0.1288532 0.1288532
0.2900450 0.1407158 0.1407158
0.3094958 0.1528255 0.1528255
0.3289522 0.1651735 0.1651735
0.3484134 0.1777514 0.1777514
0.3678787 0.1905518 0.1905518
0.3873472 0.2035678 0.2035678
0.4068183 0.2167931 0.2167931
0.4262913 0.2302215 0.2302215
0.4457656 0.2438477 0.2438477
0.4652403 0.2576664 0.2576664
0.4847149 0.2716726 0.2716726
0.5041887 0.2858616 0.2858616
0.5236609 0.3002291 0.3002291
0.5431308 0.3147708 0.3147708
0.5625978 0.3294825 0.3294825
0.5741099 0.3581152 0.3581152
0.5781991 0.3935863 0.3935863
0.5824575 0.4233187 0.4233187
0.5868375 0.4490118 0.4490118
0.5912865 0.4716110 0.4716110
0.5957502 0.4916966 0.4916966
0.6001745 0.5096527 0.5096527
0.6045084 0.5257513 0.5257513
0.6086405 0.5399805 0.5399805
0.6123313 0.5519140 0.5519140
0.6158403 0.5626755 0.5626755
0.6191502 0.5723671 0.5723671
0.6225896 0.5820188 0.5820188
0.6258651 0.5908541 0.5908541
0.6288668 0.5986747 0.5986747
0.6315965 0.6055770 0.6055770
0.6340616 0.6116515 0.6116515
0.6362741 0.6169832 0.6169832
0.6382487 0.6216514 0.6216514
0.6400023 0.6257292 0.6257292
0.0127942 0.0223862 0.0127942
0.0219794 0.0219794 0.0094301
0.0402832 0.0244617 0.0138077
0.0591361 0.0283008 0.0194788
0.0782301 0.0333253 0.0260723
0.0974645 0.0393494 0.0333805
0.1167900 0.0462119 0.0412773
0.1361786 0.0537837 0.0496799
0.1552831 0.0635384 0.0602585
0.1744609 0.0736705 0.0709988
0.1936977 0.0841280 0.0819200
0.2129796 0.0948936 0.0930486
0.2322968 0.1059521 0.1043971
0.2516423 0.1172899 0.1159701
0.2710108 0.1288951 0.1277682
0.2903982 0.1407567 0.1397899
0.3098013 0.1528651 0.1520321
0.3292175 0.1652114 0.1644911
0.3486446 0.1777875 0.1771627
0.3680807 0.1905860 0.1900425
0.3875243 0.2036002 0.2031262
0.4069740 0.2168235 0.2164093
0.4264285 0.2302502 0.2298874
0.4458867 0.2438746 0.2435564
0.4653475 0.2576915 0.2574120
0.4848099 0.2716961 0.2714501
0.5042730 0.2858836 0.2856669
0.5237358 0.3002496 0.3000585
0.5431976 0.3147899 0.3146212
0.5626573 0.3295003 0.3293513
0.5741167 0.3582076 0.3581000
0.5782058 0.3936539 0.3935859
0.5824640 0.4233702 0.4233252
0.5868436 0.4490522 0.4490214
0.5912921 0.4716431 0.4716216
0.5957553 0.4917222 0.4917070
0.6001792 0.5096733 0.5096624
0.6045126 0.5257680 0.5257601
0.6086444 0.5399949 0.5399891
0.6123347 0.5519258 0.5519214
0.6158433 0.5626850 0.5626818
0.6191527 0.5723749 0.5723725
0.6225920 0.5820258 0.5820240
0.6258671 0.5908596 0.5908582
0.6288683 0.5986790 0.5986780
0.6315977 0.6055803 0.6055795
0.6340626 0.6116540 0.6116535
0.6362749 0.6169852 0.6169848
0.6382493 0.6216529 0.6216526
0.6400027 0.6257304 0.6257301
0.0266354 0.0440106 0.0266354
0.0269246 0.0421550 0.0171748
0.0434646 0.0434646 0.0203053
0.0614364 0.0456646 0.0247938
0.0799792 0.0488378 0.0303991
0.0988261 0.0529942 0.0369155
0.1178655 0.0580935 0.0441846
0.1370382 0.0640678 0.0520890
0.1563074 0.0708384 0.0605414
0.1756489 0.0783259 0.0694766
0.1950457 0.0864565 0.0788448
0.2144857 0.0951641 0.0886071
0.2336067 0.1060297 0.1005674
0.2527564 0.1173752 0.1127945
0.2719643 0.1289835 0.1251080
0.2912186 0.1408455 0.1375433
0.3105105 0.1529525 0.1501226
0.3298331 0.1652961 0.1628594
0.3491808 0.1778690 0.1757622
0.3685494 0.1906638 0.1888361
0.3879351 0.2036739 0.2020836
0.4073350 0.2168932 0.2155058
0.4267465 0.2303158 0.2291027
0.4461674 0.2439363 0.2428734
0.4655958 0.2577494 0.2568165
0.4850300 0.2717502 0.2709302
0.5044683 0.2859342 0.2852124
0.5239095 0.3002969 0.2996607
0.5433522 0.3148340 0.3142727
0.5627952 0.3295415 0.3290457
0.5741325 0.3584216 0.3580647
0.5782213 0.3938105 0.3935852
0.5824789 0.4234897 0.4233405
0.5868577 0.4491456 0.4490437
0.5913053 0.4717172 0.4716461
0.5957673 0.4917816 0.4917312
0.6001900 0.5097212 0.5096850
0.6045222 0.5258067 0.5257804
0.6086535 0.5400282 0.5400090
0.6123426 0.5519529 0.5519386
0.6158501 0.5627072 0.5626965
0.6191586 0.5723930 0.5723849
0.6225976 0.5820421 0.5820362
0.6258716 0.5908723 0.5908678
0.6288720 0.5986888 0.5986856
0.6316006 0.6055879 0.6055855
0.6340649 0.6116600 0.6116581
0.6362767 0.6169898 0.6169884
0.6382507 0.6216564 0.6216554
0.6400039 0.6257331 0.6257323
0.0409959 0.0653105 0.0409959
0.0392394 0.0637207 0.0335351
0.0480310 0.0633510 0.0284509
0.0647364 0.0647364 0.0319418
0.0825047 0.0668082 0.0365453
0.1008262 0.0696541 0.0421442
0.1194793 0.0733238 0.0486134
0.1383540 0.0778317 0.0558380
0.1573880 0.0831642 0.0637199
0.1765415 0.0892874 0.0721787
0.1957869 0.0961552 0.0811492
0.2151044 0.1037153 0.0905789
0.2344790 0.1119136 0.1004253
0.2538997 0.1206978 0.1106539
0.2733578 0.1300190 0.1212361
0.2925922 0.1409743 0.1334513
0.3116966 0.1530846 0.1467001
0.3308617 0.1654278 0.1599716
0.3500763 0.1779978 0.1733084
0.3693317 0.1907882 0.1867391
0.3886205 0.2037931 0.2002832
0.4079372 0.2170066 0.2139540
0.4272769 0.2304232 0.2277608
0.4466356 0.2440376 0.2417098
0.4660099 0.2578447 0.2558052
0.4853970 0.2718397 0.2700495
0.5047941 0.2860180 0.2844440
0.5241992 0.3003752 0.2989894
0.5436101 0.3149072 0.3136855
0.5630251 0.3296097 0.3285316
0.5741588 0.3587775 0.3580057
0.5782471 0.3940712 0.3935837
0.5825038 0.4236887 0.4233658
0.5868812 0.4493012 0.4490807
0.5913271 0.4718408 0.4716869
0.5957874 0.4918806 0.4917715
0.6002081 0.5098010 0.5097227
0.6045383 0.5258711 0.5258144
0.6086685 0.5400836 0.5400421
0.6123557 0.5519981 0.5519672
0.6158614 0.5627441 0.5627209
0.6191683 0.5724231 0.5724057
0.6226069 0.5820693 0.5820564
0.6258791 0.5908934 0.5908839
0.6288781 0.5987053 0.5986982
0.6316055 0.6056007 0.6055954
0.6340688 0.6116698 0.6116659
0.6362797 0.6169974 0.6169944
0.6382531 0.6216623 0.6216601
0.6400057 0.6257376 0.6257359
0.0557266 0.0863905 0.0557266
0.0545528 0.0853563 0.0509197
0.0539743 0.0835017 0.0376729
0.0691251 0.0844426 0.0404030
0.0858636 0.0858636 0.0441384
0.1034868 0.0878579 0.0488484
0.1216389 0.0905051 0.0544681
0.1401341 0.0938639 0.0609164
0.1588687 0.0979699 0.0681088
0.1777802 0.1028365 0.0759659
0.1968274 0.1084582 0.0844169
0.2159814 0.1148147 0.0934008
0.2352205 0.1218750 0.1028656
0.2545284 0.1296009 0.1127678
0.2738924 0.1379511 0.1230706
0.2933025 0.1468829 0.1337434
0.3127506 0.1563548 0.1447599
0.3322302 0.1663270 0.1560982
0.3514122 0.1781728 0.1693563
0.3704978 0.1909613 0.1834062
0.3896418 0.2039617 0.1974518
0.4088342 0.2171689 0.2115346
0.4280667 0.2305782 0.2256833
0.4473326 0.2441847 0.2399189
0.4666263 0.2579837 0.2542561
0.4859431 0.2719707 0.2687058
0.5052788 0.2861410 0.2832758
0.5246301 0.3004906 0.2979718
0.5439937 0.3150151 0.3127975
0.5633671 0.3297106 0.3277557
0.5741979 0.3593055 0.3579173
0.5782856 0.3944581 0.3935813
0.5825408 0.4239842 0.4234034
0.5869162 0.4495324 0.4491356
0.5913596 0.4720244 0.4717475
0.5958171 0.4920278 0.4918314
0.6002349 0.5099195 0.5097786
0.6045621 0.5259669 0.5258648
0.6086910 0.5401660 0.5400913
0.6123752 0.5520654 0.5520097
0.6158783 0.5627990 0.5627573
0.6191828 0.5724678 0.5724365
0.6226207 0.5821097 0.5820864
0.6258903 0.5909250 0.5909077
0.6288871 0.5987298 0.5987170
0.6316127 0.6056197 0.6056101
0.6340745 0.6116845 0.6116774
0.6362842 0.6170087 0.6170034
0.6382566 0.6216710 0.6216670
0.6400085 0.6257442 0.6257413
0.0707493 0.1073018 0.0707493
0.0699160 0.1065923 0.0673404
0.0678432 0.1049618 0.0572012
0.0746469 0.1044214 0.0498349
0.0901438 0.1054397 0.0528646
0.1068800 0.1068800 0.0567882
0.1243912 0.1088203 0.0615955
0.1424075 0.1113318 0.0672492
0.1607705 0.1144737 0.0736942
0.1793841 0.1182896 0.0808676
0.1981870 0.1228065 0.0887051
0.2171376 0.1280362 0.0971456
0.2362063 0.1339758 0.1061336
0.2553706 0.1406113 0.1156196
0.2746133 0.1479192 0.1255606
0.2939206 0.1558698 0.1359190
0.3132816 0.1644291 0.1466629
0.3326873 0.1735615 0.1577646
0.3521303 0.1832307 0.1692001
0.3716046 0.1934013 0.1809490
0.3910722 0.2041788 0.1931566
0.4100897 0.2173821 0.2079120
0.4291717 0.2307847 0.2226057
0.4483075 0.2443829 0.2372886
0.4674883 0.2581725 0.2519973
0.4867067 0.2721495 0.2667583
0.5059565 0.2863098 0.2815911
0.5252325 0.3006494 0.2965104
0.5445300 0.3151641 0.3115269
0.5638451 0.3298502 0.3266488
0.5742526 0.3600400 0.3577924
0.5783393 0.3949971 0.3935773
0.5825925 0.4243961 0.4234554
0.5869650 0.4498548 0.4492122
0.5914050 0.4722805 0.4718320
0.5958586 0.4922331 0.4919150
0.6002724 0.5100850 0.5098567
0.6045955 0.5261007 0.5259353
0.6087223 0.5402811 0.5401601
0.6124026 0.5521594 0.5520691
0.6159019 0.5628756 0.5628080
0.6192030 0.5725303 0.5724795
0.6226400 0.5821661 0.5821284
0.6259060 0.5909689 0.5909410
0.6288997 0.5987640 0.5987432
0.6316228 0.6056462 0.6056307
0.6340825 0.6117050 0.6116935
0.6362905 0.6170245 0.6170159
0.6382616 0.6216832 0.6216767
0.6400123 0.6257536 0.6257487
0.0860151 0.1280748 0.0860151
0.0854014 0.1275708 0.0834749
0.0839136 0.1264102 0.0765950
0.0812769 0.1245288 0.0600166
0.0954016 0.1252844 0.0624855
0.1110848 0.1263547 0.0657451
0.1278059 0.1278059 0.0698229
0.1452262 0.1297053 0.0747198
0.1631300 0.1321170 0.0804139
0.1813801 0.1350978 0.0868674
0.1998876 0.1386940 0.0940325
0.2185934 0.1429399 0.1018571
0.2374562 0.1478570 0.1102890
0.2564460 0.1534547 0.1192780
0.2755398 0.1597311 0.1287782
0.2947199 0.1666748 0.1387478
0.3139719 0.1742667 0.1491498
0.3332841 0.1824818 0.1599514
0.3526469 0.1912913 0.1711241
0.3720524 0.2006638 0.1826428
0.3914938 0.2105671 0.1944855
0.4109656 0.2209692 0.2066331
0.4304631 0.2318387 0.2190687
0.4496177 0.2446348 0.2335048
0.4686463 0.2584154 0.2487811
0.4877323 0.2723817 0.2640087
0.5068665 0.2865304 0.2792293
0.5260413 0.3008579 0.2944736
0.5452500 0.3153606 0.3097648
0.5644870 0.3300348 0.3251202
0.5743260 0.3610199 0.3576225
0.5784114 0.3957174 0.3935708
0.5826619 0.4249472 0.4235247
0.5870306 0.4502865 0.4493145
0.5914659 0.4726236 0.4719450
0.5959144 0.4925082 0.4920270
0.6003226 0.5103068 0.5099614
0.6046402 0.5262800 0.5260297
0.6087644 0.5404355 0.5402523
0.6124392 0.5522853 0.5521488
0.6159335 0.5629784 0.5628761
0.6192301 0.5726142 0.5725372
0.6226659 0.5822418 0.5821847
0.6259270 0.5910279 0.5909856
0.6289166 0.5988099 0.5987784
0.6316363 0.6056818 0.6056583
0.6340932 0.6117326 0.6117150
0.6362990 0.6170458 0.6170327
0.6382682 0.6216995 0.6216897
0.6400175 0.6257661 0.6257588
0.1014899 0.1487298 0.1014899
0.1010264 0.1483629 0.0995369
0.0999185 0.1475170 0.0945058
0.0979418 0.1461235 0.0839149
0.1016488 0.1452754 0.0728280
0.1161591 0.1460905 0.0755393
0.1319540 0.1471978 0.0789856
0.1486550 0.1486550 0.0831950
0.1659990 0.1505216 0.0881744
0.1838072 0.1528558 0.0939123
0.2019591 0.1557115 0.1003821
0.2203727 0.1591354 0.1075474
0.2389911 0.1631649 0.1153656
0.2577737 0.1678279 0.1237921
0.2766904 0.1731416 0.1327821
0.2957181 0.1791132 0.1422932
0.3148386 0.1857408 0.1522856
0.3340372 0.1930140 0.1627232
0.3533018 0.2009162 0.1735733
0.3726222 0.2094253 0.1848068
0.3919900 0.2185154 0.1963978
0.4113980 0.2281585 0.2083235
0.4308401 0.2383252 0.2205634
0.4503112 0.2489858 0.2330998
0.4698068 0.2601113 0.2459168
0.4890713 0.2726706 0.2601687
0.5080544 0.2868076 0.2759629
0.5270968 0.3011221 0.2916797
0.5461895 0.3156109 0.3073640
0.5653243 0.3302710 0.3230495
0.5744216 0.3622879 0.3573966
0.5785053 0.3966516 0.3935604
0.5827523 0.4256628 0.4236139
0.5871160 0.4508475 0.4494472
0.5915453 0.4730698 0.4720920
0.5959870 0.4928662 0.4921727
0.6003881 0.5105955 0.5100976
0.6046985 0.5265135 0.5261526
0.6088192 0.5406365 0.5403724
0.6124869 0.5524494 0.5522525
0.6159748 0.5631123 0.5629648
0.6192654 0.5727234 0.5726124
0.6226996 0.5823403 0.5822580
0.6259544 0.5911048 0.5910437
0.6289387 0.5988697 0.5988243
0.6316539 0.6057282 0.6056943
0.6341072 0.6117684 0.6117432
0.6363100 0.6170734 0.6170546
0.6382768 0.6217208 0.6217066
0.6400243 0.6257825 0.6257719
0.1171482 0.1692812 0.1171482
0.1167917 0.1690094 0.1156135
0.1159468 0.1683822 0.1117774
0.1144708 0.1673464 0.1042880
0.1120718 0.1658336 0.0891638
0.1221309 0.1659821 0.0860297
0.1368921 0.1668425 0.0889405
0.1527582 0.1679770 0.0925441
0.1694370 0.1694370 0.0968686
0.1867152 0.1712762 0.1019249
0.2044408 0.1735480 0.1077078
0.2225063 0.1763032 0.1141993
0.2408358 0.1795876 0.1213712
0.2593750 0.1834404 0.1291888
0.2780839 0.1878930 0.1376135
0.2969329 0.1929680 0.1466060
0.3158986 0.1986791 0.1561269
0.3349627 0.2050315 0.1661388
0.3541101 0.2120225 0.1766070
0.3733285 0.2196422 0.1874991
0.3926073 0.2278751 0.1987859
0.4119377 0.2367008 0.2104412
0.4313122 0.2460956 0.2224412
0.4507244 0.2560334 0.2347649
0.4701685 0.2664870 0.2473934
0.4896399 0.2774285 0.2603099
0.5091344 0.2888305 0.2734994
0.5284452 0.3014458 0.2878682
0.5473894 0.3159203 0.3041188
0.5663937 0.3305648 0.3202718
0.5745435 0.3638901 0.3571013
0.5786251 0.3978354 0.3935437
0.5828676 0.4265711 0.4237258
0.5872250 0.4515605 0.4496153
0.5916466 0.4736372 0.4722787
0.5960796 0.4933218 0.4923579
0.6004717 0.5109631 0.5102710
0.6047729 0.5268108 0.5263092
0.6088891 0.5408926 0.5405254
0.6125479 0.5526586 0.5523848
0.6160274 0.5632831 0.5630780
0.6193106 0.5728627 0.5727083
0.6227426 0.5824659 0.5823513
0.6259893 0.5912028 0.5911178
0.6289668 0.5989459 0.5988828
0.6316764 0.6057873 0.6057403
0.6341251 0.6118142 0.6117791
0.6363241 0.6171087 0.6170825
0.6382879 0.6217480 0.6217283
0.6400329 0.6258033 0.6257886
0.1329704 0.1897399 0.1329704
0.1326923 0.1895359 0.1317444
0.1320371 0.1890650 0.1287396
0.1309070 0.1882861 0.1231294
0.1291199 0.1871436 0.1128948
0.1289982 0.1859690 0.0971075
0.1426553 0.1866480 0.0995690
0.1575902 0.1875436 0.1026491
0.1735034 0.1886985 0.1063888
0.1901594 0.1901594 0.1108160
0.2073798 0.1919750 0.1159440
0.2250327 0.1941949 0.1217725
0.2430212 0.1968670 0.1282893
0.2612749 0.2000360 0.1354728
0.2797417 0.2037416 0.1432944
0.2983828 0.2080171 0.1517212
0.3171687 0.2128889 0.1607179
0.3360763 0.2183754 0.1702488
0.3550869 0.2244874 0.1802788
0.3741855 0.2312280 0.1907743
0.3933593 0.2385936 0.2017039
0.4125976 0.2465741 0.2130386
0.4318914 0.2551544 0.2247519
0.4512327 0.2643152 0.2368197
0.4706148 0.2740340 0.2492202
0.4900318 0.2842862 0.2619337
0.5094786 0.2950459 0.2749427
0.5289507 0.3062868 0.2882314
0.5484441 0.3179825 0.3017854
0.5677367 0.3309210 0.3165552
0.5746964 0.3658757 0.3567191
0.5787753 0.3993075 0.3935174
0.5830121 0.4277032 0.4238631
0.5873615 0.4524503 0.4498242
0.5917734 0.4743461 0.4725115
0.5961957 0.4938913 0.4925893
0.6005764 0.5114228 0.5104878
0.6048661 0.5271829 0.5265050
0.6089768 0.5412132 0.5407171
0.6126242 0.5529205 0.5525505
0.6160934 0.5634970 0.5632197
0.6193671 0.5730373 0.5728286
0.6227965 0.5826231 0.5824683
0.6260331 0.5913256 0.5912107
0.6290020 0.5990415 0.5989561
0.6317046 0.6058615 0.6057978
0.6341474 0.6118716 0.6118240
0.6363418 0.6171530 0.6171175
0.6383017 0.6217821 0.6217554
0.6400437 0.6258295 0.6258096
0.1489404 0.2101140 0.1489404
0.1487212 0.2099595 0.1479485
0.1482067 0.2096027 0.1455498
0.1473267 0.2090120 0.1411986
0.1459579 0.2081433 0.1337102
0.1438957 0.2069528 0.1202813
0.1492557 0.2065577 0.1107757
0.1631892 0.2072735 0.1134081
0.1782497 0.2081970 0.1166349
0.1941945 0.2093676 0.1204947
0.2108277 0.2108277 0.1250148
0.2279967 0.2126226 0.1302101
0.2455847 0.2147983 0.1360838
0.2635041 0.2174003 0.1426284
0.2816888 0.2204719 0.1498273
0.3000892 0.2240526 0.1576571
0.3186676 0.2281771 0.1660892
0.3373947 0.2328740 0.1750925
0.3562476 0.2381652 0.1846343
0.3752077 0.2440659 0.1946816
0.3942596 0.2505840 0.2052026
0.4133905 0.2577208 0.2161667
0.4325896 0.2654712 0.2275453
0.4518474 0.2738250 0.2393120
0.4711560 0.2827669 0.2514422
0.4905083 0.2922782 0.2639138
0.5098980 0.3023370 0.2767065
0.5293200 0.3129197 0.2898021
0.5487693 0.3240015 0.3031840
0.5682419 0.3355571 0.3168372
0.5749357 0.3687544 0.3567375
0.5789609 0.4011094 0.3934761
0.5831908 0.4290924 0.4240282
0.5875303 0.4535441 0.4500796
0.5919303 0.4752187 0.4727975
0.5963392 0.4945929 0.4928742
0.6007058 0.5119897 0.5107549
0.6049812 0.5276420 0.5267466
0.6090851 0.5416091 0.5409538
0.6127187 0.5532440 0.5527552
0.6161750 0.5637613 0.5633948
0.6194371 0.5732530 0.5729771
0.6228630 0.5828172 0.5826126
0.6260872 0.5914772 0.5913253
0.6290456 0.5991596 0.5990466
0.6317394 0.6059532 0.6058690
0.6341751 0.6119426 0.6118797
0.6363636 0.6172078 0.6171608
0.6383189 0.6218243 0.6217890
0.6400571 0.6258619 0.6258355
0.1650451 0.2304100 0.1650451
0.1648709 0.2302922 0.1642343
0.1644631 0.2300203 0.1622922
0.1637695 0.2295697 0.1588380
0.1627023 0.2289060 0.1531099
0.1611268 0.2279931 0.1435587
0.1588144 0.2267990 0.1263202
0.1695758 0.2271139 0.1247360
0.1837157 0.2278598 0.1275178
0.1988699 0.2288059 0.1308741
0.2148358 0.2299883 0.1348413
0.2314466 0.2314466 0.1394462
0.2485691 0.2332228 0.1447051
0.2660989 0.2353602 0.1506235
0.2839555 0.2379019 0.1571976
0.3020771 0.2408899 0.1644149
0.3204163 0.2443633 0.1722560
0.3389363 0.2483573 0.1806966
0.3576085 0.2529021 0.1897086
0.3764099 0.2580223 0.1992624
0.3953220 0.2637362 0.2093272
0.4143294 0.2700556 0.2198726
0.4334191 0.2769862 0.2308692
0.4525802 0.2845272 0.2422889
0.4718031 0.2926724 0.2541053
0.4910795 0.3014106 0.2662939
0.5104022 0.3107264 0.2788321
0.5297649 0.3206011 0.2916992
0.5491619 0.3310134 0.3048764
0.5685882 0.3419403 0.3183465
0.5753576 0.3733410 0.3580474
0.5793188 0.4042249 0.3944390
0.5834422 0.4309753 0.4244358
0.5877364 0.4548712 0.4503873
0.5921218 0.4762789 0.4731441
0.5965144 0.4954465 0.4932203
0.6008639 0.5126799 0.5110800
0.6051219 0.5282014 0.5270408
0.6092176 0.5420918 0.5412425
0.6128341 0.5536387 0.5530050
0.6162748 0.5640839 0.5636087
0.6195226 0.5735164 0.5731586
0.6229442 0.5830540 0.5827886
0.6261532 0.5916622 0.5914652
0.6290989 0.5993038 0.5991572
0.6317820 0.6060652 0.6059559
0.6342090 0.6120293 0.6119477
0.6363903 0.6172749 0.6172138
0.6383399 0.6218759 0.6218301
0.6400735 0.6259016 0.6258673
0.1812735 0.2506331 0.1812735
0.1811341 0.2505431 0.1806051
0.1808085 0.2503351 0.1790152
0.1802570 0.2499903 0.1762270
0.1794146 0.2494818 0.1717185
0.1781873 0.2487807 0.1645339
0.1764288 0.2478591 0.1526727
0.1767529 0.2470296 0.1365624
0.1899269 0.2476375 0.1389609
0.2042255 0.2484084 0.1418753
0.2194511 0.2493727 0.1453472
0.2354308 0.2505642 0.1494116
0.2520198 0.2520198 0.1540948
0.2690999 0.2537790 0.1594137
0.2865767 0.2558825 0.1653762
0.3043760 0.2583716 0.1719809
0.3224396 0.2612869 0.1792189
0.3407220 0.2646668 0.1870741
0.3591877 0.2685468 0.1955256
0.3778082 0.2729582 0.2045486
0.3965611 0.2779273 0.2141157
0.4154277 0.2834752 0.2241984
0.4343925 0.2896167 0.2347678
0.4534427 0.2963609 0.2457956
0.4725671 0.3037110 0.2572543
0.4917559 0.3116644 0.2691177
0.5110009 0.3202135 0.2813614
0.5302945 0.3293462 0.2939626
0.5496302 0.3390467 0.3069002
0.5690022 0.3492962 0.3201549
0.5758682 0.3787044 0.3596049
0.5797964 0.4082225 0.3959349
0.5838826 0.4340333 0.4257914
0.5880867 0.4569855 0.4513041
0.5923632 0.4775983 0.4736060
0.5967263 0.4964736 0.4936359
0.6010549 0.5135114 0.5114712
0.6052921 0.5288758 0.5273953
0.6093778 0.5426743 0.5415910
0.6129738 0.5541153 0.5533067
0.6163955 0.5644736 0.5638670
0.6196261 0.5738349 0.5733780
0.6230424 0.5833398 0.5830010
0.6262331 0.5918858 0.5916342
0.6291633 0.5994781 0.5992908
0.6318336 0.6062007 0.6060610
0.6342500 0.6121343 0.6120299
0.6364227 0.6173560 0.6172779
0.6383653 0.6219384 0.6218799
0.6400933 0.6259497 0.6259058
0.1976158 0.2707876 0.1976158
0.1975037 0.2707187 0.1970609
0.1972423 0.2705595 0.1957478
0.1968009 0.2702953 0.1934688
0.1961302 0.2699055 0.1898491
0.1951618 0.2693672 0.1842540
0.1937955 0.2686574 0.1755019
0.1918729 0.2677559 0.1610207
0.1968939 0.2674959 0.1508992
0.2102900 0.2681288 0.1534285
0.2247135 0.2689206 0.1564617
0.2399945 0.2698997 0.1600381
0.2559827 0.2710980 0.1641913
0.2725503 0.2725503 0.1689470
0.2895914 0.2742937 0.1743230
0.3070198 0.2763669 0.1803286
0.3247664 0.2788096 0.1869647
0.3427763 0.2816608 0.1942250
0.3610059 0.2849585 0.2020967
0.3794206 0.2887379 0.2105615
0.3979927 0.2930312 0.2195973
0.4166995 0.2978661 0.2291792
0.4355228 0.3032654 0.2392805
0.4544471 0.3092469 0.2498739
0.4734593 0.3158224 0.2609321
0.4925481 0.3229982 0.2724283
0.5117039 0.3307753 0.2843367
0.5309180 0.3391491 0.2966330
0.5501830 0.3481107 0.3092943
0.5694920 0.3576471 0.3222991
0.5764808 0.3848903 0.3614344
0.5803688 0.4128813 0.3977008
0.5844100 0.4376214 0.4273960
0.5885661 0.4597878 0.4527169
0.5927933 0.4798059 0.4748250
0.5970441 0.4979602 0.4944029
0.6012839 0.5145032 0.5119372
0.6054959 0.5296813 0.5278183
0.6095699 0.5433707 0.5420079
0.6131413 0.5546856 0.5536677
0.6165402 0.5649402 0.5641765
0.6197503 0.5742163 0.5736409
0.6231599 0.5836817 0.5832550
0.6263287 0.5921534 0.5918364
0.6292405 0.5996869 0.5994508
0.6318955 0.6063631 0.6061870
0.6342992 0.6122603 0.6121286
0.6364616 0.6174534 0.6173548
0.6383958 0.6220135 0.6219397
0.6401172 0.6260074 0.6259520
0.2140636 0.2908769 0.2140636
0.2139732 0.2908242 0.2136002
0.2137625 0.2907025 0.2125079
0.2134075 0.2905005 0.2106268
0.2128702 0.2902023 0.2076781
0.2120993 0.2897899 0.2032174
0.2110231 0.2892451 0.1964846
0.2095356 0.2885503 0.1860277
0.2074643 0.2876926 0.1685459
0.2170793 0.2879344 0.1654734
0.2306533 0.2885887 0.1681207
0.2451767 0.2893979 0.1712613
0.2605011 0.2903891 0.1749330
0.2764938 0.2915924 0.1791678
0.2930407 0.2930407 0.1839913
0.3100457 0.2947693 0.1894216
0.3274294 0.2968151 0.1954693
0.3451273 0.2992162 0.2021373
0.3630873 0.3020104 0.2094214
0.3812676 0.3052349 0.2173113
0.3996345 0.3089250 0.2257913
0.4181607 0.3131130 0.2348417
0.4368240 0.3178277 0.2444398
0.4556061 0.3230937 0.2545606
0.4744915 0.3289305 0.2651782
0.4934671 0.3353527 0.2762664
0.5125216 0.3423693 0.2877991
0.5316453 0.3499840 0.2997511
0.5508293 0.3581955 0.3120980
0.5700661 0.3669975 0.3248169
0.5772102 0.3919341 0.3635582
0.5810494 0.4182461 0.3997629
0.5850366 0.4417844 0.4292762
0.5891353 0.4630564 0.4543763
0.5933037 0.4823910 0.4762594
0.5974961 0.5000132 0.4956242
0.6016657 0.5160855 0.5129118
0.6057664 0.5307326 0.5284191
0.6097870 0.5441591 0.5424641
0.6133405 0.5553622 0.5540963
0.6167125 0.5654944 0.5645440
0.6199102 0.5747038 0.5739878
0.6232995 0.5840871 0.5835562
0.6264425 0.5924712 0.5920764
0.6293324 0.5999351 0.5996410
0.6319691 0.6065564 0.6063368
0.6343577 0.6124103 0.6122461
0.6365079 0.6175694 0.6174465
0.6384323 0.6221030 0.6220109
0.6401457 0.6260763 0.6260072
0.2306096 0.3109038 0.2306096
0.2305364 0.3108637 0.2302206
0.2303661 0.3107711 0.2293065
0.2300796 0.3106173 0.2277415
0.2296473 0.3103901 0.2253128
0.2290299 0.3100758 0.2216962
0.2281746 0.3096599 0.2163725
0.2270066 0.3091282 0.2084374
0.2254127 0.3084685 0.1961133
0.2245969 0.3078015 0.1779583
0.2372901 0.3083453 0.1802679
0.2510090 0.3090177 0.1830223
0.2656136 0.3098415 0.1862609
0.2809722 0.3108425 0.1900199
0.2969665 0.3120493 0.1943303
0.3134932 0.3134932 0.1992173
0.3304644 0.3152078 0.2046995
0.3478067 0.3172285 0.2107883
0.3654593 0.3195919 0.2174883
0.3833728 0.3223350 0.2247972
0.4015069 0.3254939 0.2327069
0.4198287 0.3291038 0.2412039
0.4383116 0.3331973 0.2502706
0.4569335 0.3378039 0.2598862
0.4756763 0.3429494 0.2700274
0.4945244 0.3486551 0.2806696
0.5134648 0.3549376 0.2917877
0.5324862 0.3618083 0.3033563
0.5515785 0.3692736 0.3153507
0.5707331 0.3773347 0.3277466
0.5780727 0.3998589 0.3659953
0.5818529 0.4243541 0.4021463
0.5857754 0.4465628 0.4314579
0.5898061 0.4668305 0.4563071
0.5939050 0.4853893 0.4779321
0.5980285 0.5024027 0.4970512
0.6021314 0.5179922 0.5141142
0.6061691 0.5322538 0.5294219
0.6100997 0.5452683 0.5431875
