release/datafiles/colormanagement/LUTs/guard_rail_higher.cube
TITLE "Guard Rail sRGB"
# Higher Side of Guard Rail Formation for sRGB medium.
# The Guard Rail is designed to leaves valid value as-is, and only touch out of domain valuesModified from python script shared by Sakari Kapanen
# This LUT assumes target medium primaries encoded in DaVinciIntermediate curve
# LUT resolution 45
LUT_3D_SIZE 8
DOMAIN_MIN 0.000000 0.000000 0.000000
DOMAIN_MAX 0.954545 0.954545 0.954545
0.0000000 0.0000000 0.0000000
0.1363636 0.0000000 0.0000000
0.2727273 0.0000000 0.0000000
0.4090909 0.0000000 0.0000000
0.5138374 0.2302135 0.2302135
0.5138374 0.4187276 0.4187276
0.5138374 0.4798714 0.4798714
0.5138374 0.5025503 0.5025503
0.0000000 0.1363636 0.0000000
0.1363636 0.1363636 0.0000000
0.2727273 0.1363636 0.0000000
0.4090909 0.1363636 0.0000000
0.5138374 0.2537699 0.2343398
0.5138374 0.4201752 0.4195322
0.5138374 0.4800219 0.4799754
0.5138374 0.5025647 0.5025609
0.0000000 0.2727273 0.0000000
0.1363636 0.2727273 0.0000000
0.2727273 0.2727273 0.0000000
0.4090909 0.2727273 0.0000000
0.5138374 0.3101832 0.2477380
0.5138374 0.4250813 0.4222955
0.5138374 0.4805520 0.4803420
0.5138374 0.5026160 0.5025986
0.0000000 0.4090909 0.0000000
0.1363636 0.4090909 0.0000000
0.2727273 0.4090909 0.0000000
0.4090909 0.4090909 0.0000000
0.5138374 0.4041603 0.2842355
0.5138374 0.4399973 0.4310377
0.5138374 0.4823774 0.4816088
0.5138374 0.5027995 0.5027335
0.3291397 0.5138374 0.3291397
0.3369902 0.5138374 0.3295595
0.3610054 0.5138374 0.3310422
0.4188213 0.5138374 0.3361884
0.5138374 0.5138374 0.3522668
0.5138374 0.4728910 0.4520715
0.5138374 0.4879205 0.4854964
0.5138374 0.5034294 0.5031972
0.4726974 0.5138374 0.4726974
0.4729565 0.5138374 0.4727439
0.4738742 0.5138374 0.4729095
0.4770927 0.5138374 0.4734994
0.4874729 0.5138374 0.4755045
0.5138374 0.5138374 0.4813546
0.5138374 0.4999158 0.4941135
0.5138374 0.5053267 0.5045981
0.5015838 0.5138374 0.5015838
0.5016033 0.5138374 0.5015882
0.5016729 0.5138374 0.5016037
0.5019238 0.5138374 0.5016599
0.5028122 0.5138374 0.5018597
0.5057651 0.5138374 0.5025333
0.5138374 0.5138374 0.5044499
0.5138374 0.5093442 0.5075861
0.5100479 0.5138374 0.5100479
0.5100495 0.5138374 0.5100483
0.5100553 0.5138374 0.5100497
0.5100764 0.5138374 0.5100547
0.5101523 0.5138374 0.5100728
0.5104218 0.5138374 0.5101370
0.5113236 0.5138374 0.5103529
0.5138374 0.5138374 0.5109620
0.0000000 0.0000000 0.1363636
0.1363636 0.0000000 0.1363636
0.2727273 0.0000000 0.1363636
0.4090909 0.0000000 0.1363636
0.5138374 0.2311174 0.2511372
0.5138374 0.4189020 0.4195515
0.5138374 0.4798938 0.4799405
0.5138374 0.5025526 0.5025564
0.0000000 0.1363636 0.1363636
0.1363636 0.1363636 0.1363636
0.2727273 0.1363636 0.1363636
0.4090909 0.1363636 0.1363636
0.5138374 0.2544786 0.2544786
0.5138374 0.4203447 0.4203447
0.5138374 0.4800441 0.4800441
0.5138374 0.5025670 0.5025670
0.0000000 0.2727273 0.1363636
0.1363636 0.2727273 0.1363636
0.2727273 0.2727273 0.1363636
0.4090909 0.2727273 0.1363636
0.5138374 0.3105681 0.2654944
0.5138374 0.4252349 0.4230696
0.5138374 0.4805737 0.4804097
0.5138374 0.5026183 0.5026047
0.0000000 0.4090909 0.1363636
0.1363636 0.4090909 0.1363636
0.2727273 0.4090909 0.1363636
0.4090909 0.4090909 0.1363636
0.5138374 0.4042757 0.2966537
0.5138374 0.4401080 0.4316976
0.5138374 0.4823970 0.4816729
0.5138374 0.5028017 0.5027395
0.3294191 0.5138374 0.3368613
0.3372452 0.5138374 0.3372452
0.3611961 0.5138374 0.3386020
0.4189060 0.5138374 0.3433234
0.5138374 0.5138374 0.3581915
0.5138374 0.4729333 0.4524966
0.5138374 0.4879346 0.4855498
0.5138374 0.5034314 0.5032028
0.4727284 0.5138374 0.4729410
0.4729872 0.5138374 0.4729872
0.4739039 0.5138374 0.4731514
0.4771193 0.5138374 0.4737369
0.4874903 0.5138374 0.4757267
0.5138374 0.5138374 0.4815346
0.5138374 0.4999210 0.4941463
0.5138374 0.5053281 0.5046027
0.5015867 0.5138374 0.5016018
0.5016062 0.5138374 0.5016062
0.5016757 0.5138374 0.5016217
0.5019266 0.5138374 0.5016778
0.5028148 0.5138374 0.5018773
0.5057669 0.5138374 0.5025497
0.5138374 0.5138374 0.5044630
0.5138374 0.5093447 0.5075889
0.5100482 0.5138374 0.5100494
0.5100498 0.5138374 0.5100498
0.5100556 0.5138374 0.5100512
0.5100766 0.5138374 0.5100562
0.5101526 0.5138374 0.5100743
0.5104220 0.5138374 0.5101384
0.5113238 0.5138374 0.5103542
0.5138374 0.5138374 0.5109631
0.0000000 0.0000000 0.2727273
0.1363636 0.0000000 0.2727273
0.2727273 0.0000000 0.2727273
0.4090909 0.0000000 0.2727273
0.5138374 0.2342798 0.3034684
0.5138374 0.4195203 0.4224323
0.5138374 0.4799738 0.4801865
0.5138374 0.5025608 0.5025782
0.0000000 0.1363636 0.2727273
0.1363636 0.1363636 0.2727273
0.2727273 0.1363636 0.2727273
0.4090909 0.1363636 0.2727273
0.5138374 0.2569684 0.3053953
0.5138374 0.4209458 0.4231865
0.5138374 0.4801235 0.4802891
0.5138374 0.5025751 0.5025888
0.0000000 0.2727273 0.2727273
0.1363636 0.2727273 0.2727273
0.2727273 0.2727273 0.2727273
0.4090909 0.2727273 0.2727273
0.5138374 0.3119296 0.3119296
0.5138374 0.4257797 0.4257797
0.5138374 0.4806509 0.4806509
0.5138374 0.5026264 0.5026264
0.0000000 0.4090909 0.2727273
0.1363636 0.4090909 0.2727273
0.2727273 0.4090909 0.2727273
0.4090909 0.4090909 0.2727273
0.5138374 0.4046863 0.3318750
0.5138374 0.4405009 0.4340138
0.5138374 0.4824670 0.4819011
0.5138374 0.5028095 0.5027608
0.3304100 0.5138374 0.3605632
0.3381501 0.5138374 0.3608518
0.3618737 0.5138374 0.3618737
0.4192078 0.5138374 0.3654550
0.5138374 0.5138374 0.3769791
0.5138374 0.4730836 0.4539977
0.5138374 0.4879848 0.4857403
0.5138374 0.5034385 0.5032229
0.4728387 0.5138374 0.4738054
0.4730965 0.5138374 0.4738503
0.4740100 0.5138374 0.4740100
0.4772142 0.5138374 0.4745794
0.4875523 0.5138374 0.4765157
0.5138374 0.5138374 0.4821748
0.5138374 0.4999394 0.4942633
0.5138374 0.5053331 0.5046193
0.5015971 0.5138374 0.5016662
0.5016165 0.5138374 0.5016706
0.5016860 0.5138374 0.5016860
0.5019366 0.5138374 0.5017418
0.5028239 0.5138374 0.5019400
0.5057731 0.5138374 0.5026081
0.5138374 0.5138374 0.5045100
0.5138374 0.5093465 0.5075987
0.5100491 0.5138374 0.5100548
0.5100507 0.5138374 0.5100551
0.5100565 0.5138374 0.5100565
0.5100776 0.5138374 0.5100615
0.5101535 0.5138374 0.5100796
0.5104228 0.5138374 0.5101436
0.5113244 0.5138374 0.5103591
0.5138374 0.5138374 0.5109670
0.0000000 0.0000000 0.4090909
0.1363636 0.0000000 0.4090909
0.2727273 0.0000000 0.4090909
0.4090909 0.0000000 0.4090909
0.5138374 0.2449228 0.3961700
0.5138374 0.4216955 0.4321064
0.5138374 0.4802611 0.4810671
0.5138374 0.5025903 0.5026571
0.0000000 0.1363636 0.4090909
0.1363636 0.1363636 0.4090909
0.2727273 0.1363636 0.4090909
0.4090909 0.1363636 0.4090909
0.5138374 0.2654616 0.3967925
0.5138374 0.4230612 0.4327379
0.5138374 0.4804086 0.4811658
0.5138374 0.5026046 0.5026676
0.0000000 0.2727273 0.4090909
0.1363636 0.2727273 0.4090909
0.2727273 0.2727273 0.4090909
0.4090909 0.2727273 0.4090909
0.5138374 0.3166834 0.3989611
0.5138374 0.4277000 0.4349152
0.5138374 0.4809282 0.4815142
0.5138374 0.5026556 0.5027048
0.0000000 0.4090909 0.4090909
0.1363636 0.4090909 0.4090909
0.2727273 0.4090909 0.4090909
0.4090909 0.4090909 0.4090909
0.5138374 0.4061499 0.4061499
0.5138374 0.4418922 0.4418922
0.5138374 0.4827185 0.4827185
0.5138374 0.5028379 0.5028379
0.3339008 0.5138374 0.4180638
0.3413435 0.5138374 0.4181934
0.3642768 0.5138374 0.4186538
0.4202869 0.5138374 0.4202869
0.5138374 0.5138374 0.4257484
0.5138374 0.4736201 0.4592054
0.5138374 0.4881655 0.4864237
0.5138374 0.5034641 0.5032955
0.4732342 0.5138374 0.4768555
0.4734887 0.5138374 0.4768960
0.4743904 0.5138374 0.4770402
0.4775545 0.5138374 0.4775545
0.4877749 0.5138374 0.4793059
0.5138374 0.5138374 0.4844485
0.5138374 0.5000060 0.4946846
0.5138374 0.5053513 0.5046791
0.5016345 0.5138374 0.5018990
0.5016539 0.5138374 0.5019032
0.5017231 0.5138374 0.5019183
0.5019728 0.5138374 0.5019728
0.5028567 0.5138374 0.5021664
0.5057955 0.5138374 0.5028194
0.5138374 0.5138374 0.5046798
0.5138374 0.5093530 0.5076346
0.5100524 0.5138374 0.5100741
0.5100540 0.5138374 0.5100745
0.5100598 0.5138374 0.5100759
0.5100809 0.5138374 0.5100809
0.5101567 0.5138374 0.5100988
0.5104257 0.5138374 0.5101625
0.5113264 0.5138374 0.5103766
0.5138374 0.5138374 0.5109810
0.1945620 0.1945620 0.5138374
0.2238760 0.1965368 0.5138374
0.2896230 0.2032843 0.5138374
0.3928664 0.2243929 0.5138374
0.5138374 0.2754778 0.5138374
0.5138374 0.4287747 0.4596311
0.5138374 0.4812644 0.4841039
0.5138374 0.5026961 0.5029399
0.2005352 0.2269294 0.5138374
0.2283561 0.2283561 0.5138374
0.2919019 0.2332864 0.5138374
0.3935280 0.2492380 0.5138374
0.5138374 0.2907425 0.5138374
0.5138374 0.4299565 0.4599762
0.5138374 0.4814042 0.4841899
0.5138374 0.5027102 0.5029499
0.2192669 0.2964821 0.5138374
0.2428021 0.2971674 0.5138374
0.2995728 0.2995728 0.5138374
0.3958304 0.3077501 0.5138374
0.5138374 0.3318196 0.5138374
0.5138374 0.4339903 0.4611748
0.5138374 0.4818973 0.4844935
0.5138374 0.5027604 0.5029858
0.2664083 0.4002432 0.5138374
0.2814989 0.4004305 0.5138374
0.3225056 0.4010948 0.5138374
0.4034376 0.4034376 0.5138374
0.5138374 0.4111257 0.5138374
0.5138374 0.4465153 0.4651050
0.5138374 0.4835987 0.4855453
0.5138374 0.5029397 0.5031143
0.3453254 0.5138374 0.5138374
0.3518560 0.5138374 0.5138374
0.3723128 0.5138374 0.5138374
0.4239948 0.5138374 0.5138374
0.5138374 0.5138374 0.5138374
0.5138374 0.4754539 0.4754539
0.5138374 0.4888011 0.4888011
0.5138374 0.5035561 0.5035561
0.4746079 0.5138374 0.4868927
0.4748509 0.5138374 0.4869200
0.4757122 0.5138374 0.4870173
0.4787382 0.5138374 0.4873644
0.4885526 0.5138374 0.4885526
0.5138374 0.5138374 0.4920935
0.5138374 0.5002423 0.4961698
0.5138374 0.5054166 0.5048941
0.5017687 0.5138374 0.5027288
0.5017878 0.5138374 0.5027327
0.5018560 0.5138374 0.5027465
0.5021022 0.5138374 0.5027965
0.5029742 0.5138374 0.5029742
0.5058759 0.5138374 0.5035739
0.5138374 0.5138374 0.5052879
0.5138374 0.5093763 0.5077637
0.5100645 0.5138374 0.5101442
0.5100661 0.5138374 0.5101446
0.5100719 0.5138374 0.5101459
0.5100928 0.5138374 0.5101508
0.5101683 0.5138374 0.5101683
0.5104363 0.5138374 0.5102306
0.5113337 0.5138374 0.5104401
0.5138374 0.5138374 0.5110319
0.3914644 0.3914644 0.5138374
0.3928837 0.3919170 0.5138374
0.3977669 0.3935060 0.5138374
0.4133440 0.3989118 0.5138374
0.4522780 0.4147843 0.5138374
0.5138374 0.4470998 0.5138374
0.5138374 0.4844498 0.4933805
0.5138374 0.5030643 0.5039196
0.3928506 0.3938049 0.5138374
0.3942404 0.3942404 0.5138374
0.3990255 0.3957701 0.5138374
0.4143207 0.4009816 0.5138374
0.4527255 0.4163449 0.5138374
0.5138374 0.4478743 0.5138374
0.5138374 0.4845669 0.4934323
0.5138374 0.5030776 0.5039285
0.3975376 0.4015683 0.5138374
0.3988309 0.4019503 0.5138374
0.4032935 0.4032935 0.5138374
0.4176538 0.4078904 0.5138374
0.4542728 0.4216192 0.5138374
0.5138374 0.4505489 0.5138374
0.5138374 0.4849801 0.4936153
0.5138374 0.5031249 0.5039600
0.4116805 0.4237715 0.5138374
0.4127091 0.4240237 0.5138374
0.4162803 0.4249135 0.5138374
0.4279941 0.4279941 0.5138374
0.4592752 0.4375190 0.5138374
0.5138374 0.4591641 0.5138374
0.5138374 0.4864133 0.4942532
0.5138374 0.5032942 0.5040727
0.4422494 0.4671473 0.5138374
0.4428253 0.4672301 0.5138374
0.4448471 0.4675239 0.5138374
0.4517248 0.4685598 0.5138374
0.4719568 0.4719568 0.5138374
0.5138374 0.4808968 0.5138374
0.5138374 0.4908653 0.4962651
0.5138374 0.5038769 0.5044614
0.4788940 0.5138374 0.5138374
0.4791025 0.5138374 0.5138374
0.4798424 0.5138374 0.5138374
0.4824521 0.5138374 0.5138374
0.4910232 0.5138374 0.5138374
0.5138374 0.5138374 0.5138374
0.5138374 0.5010365 0.5010365
0.5138374 0.5056454 0.5056454
0.5022319 0.5138374 0.5055533
0.5022501 0.5138374 0.5055561
0.5023151 0.5138374 0.5055659
0.5025495 0.5138374 0.5056013
0.5033805 0.5138374 0.5057275
0.5061548 0.5138374 0.5061548
0.5138374 0.5138374 0.5073886
0.5138374 0.5094589 0.5082206
0.5101076 0.5138374 0.5103947
0.5101092 0.5138374 0.5103950
0.5101149 0.5138374 0.5103963
0.5101355 0.5138374 0.5104007
0.5102100 0.5138374 0.5104169
0.5104743 0.5138374 0.5104743
0.5113599 0.5138374 0.5106674
0.5138374 0.5138374 0.5112143
0.4662121 0.4662121 0.5138374
0.4663489 0.4662790 0.5138374
0.4668343 0.4665164 0.5138374
0.4685472 0.4673589 0.5138374
0.4741794 0.4701782 0.5138374
0.4891515 0.4780367 0.5138374
0.5138374 0.4921378 0.5138374
0.5138374 0.5042185 0.5069550
0.4664179 0.4664877 0.5138374
0.4665538 0.4665538 0.5138374
0.4670358 0.4667888 0.5138374
0.4687369 0.4676225 0.5138374
0.4743330 0.4704134 0.5138374
0.4892270 0.4782017 0.5138374
0.5138374 0.4922081 0.5138374
0.5138374 0.5042294 0.5069604
0.4671396 0.4674523 0.5138374
0.4672721 0.4675160 0.5138374
0.4677423 0.4677423 0.5138374
0.4694026 0.4685456 0.5138374
0.4748729 0.4712385 0.5138374
0.4894931 0.4787827 0.5138374
0.5138374 0.4924571 0.5138374
0.5138374 0.5042684 0.5069798
0.4695826 0.4707017 0.5138374
0.4697041 0.4707575 0.5138374
0.4701355 0.4709559 0.5138374
0.4716611 0.4716611 0.5138374
0.4767139 0.4740359 0.5138374
0.4904127 0.4807774 0.5138374
0.5138374 0.4933310 0.5138374
0.5138374 0.5044078 0.5070491
0.4766293 0.4799413 0.5138374
0.4767217 0.4799776 0.5138374
0.4770503 0.4801069 0.5138374
0.4782175 0.4805682 0.5138374
0.4821413 0.4821413 0.5138374
0.4932368 0.4867805 0.5138374
0.5138374 0.4961534 0.5138374
0.5138374 0.5048904 0.5072897
0.4902124 0.4972543 0.5138374
0.4902595 0.4972654 0.5138374
0.4904272 0.4973047 0.5138374
0.4910280 0.4974458 0.5138374
0.4931056 0.4979387 0.5138374
0.4995036 0.4995036 0.5138374
0.5138374 0.5032764 0.5138374
0.5138374 0.5063813 0.5080363
0.5036516 0.5138374 0.5138374
0.5036670 0.5138374 0.5138374
0.5037223 0.5138374 0.5138374
0.5039217 0.5138374 0.5138374
0.5046308 0.5138374 0.5138374
0.5070218 0.5138374 0.5138374
0.5138374 0.5138374 0.5138374
0.5138374 0.5097348 0.5097348
0.5102563 0.5138374 0.5112543
0.5102578 0.5138374 0.5112545
0.5102632 0.5138374 0.5112554
0.5102828 0.5138374 0.5112586
0.5103536 0.5138374 0.5112702
0.5106052 0.5138374 0.5113115
0.5114508 0.5138374 0.5114508
0.5138374 0.5138374 0.5118489
0.4972938 0.4972938 0.5138374
0.4973069 0.4973012 0.5138374
0.4973537 0.4973275 0.5138374
0.4975225 0.4974224 0.5138374
0.4981182 0.4977581 0.5138374
0.5000802 0.4988696 0.5138374
0.5053031 0.5018717 0.5138374
0.5138374 0.5069122 0.5138374
0.4973166 0.4973223 0.5138374
0.4973296 0.4973296 0.5138374
0.4973764 0.4973559 0.5138374
0.4975447 0.4974505 0.5138374
0.4981392 0.4977852 0.5138374
0.5000972 0.4988933 0.5138374
0.5053114 0.5018877 0.5138374
0.5138374 0.5069185 0.5138374
0.4973975 0.4974236 0.5138374
0.4974105 0.4974309 0.5138374
0.4974568 0.4974568 0.5138374
0.4976239 0.4975504 0.5138374
0.4982138 0.4978814 0.5138374
0.5001577 0.4989779 0.5138374
0.5053412 0.5019445 0.5138374
0.5138374 0.5069409 0.5138374
0.4976848 0.4977831 0.5138374
0.4976974 0.4977901 0.5138374
0.4977425 0.4978150 0.5138374
0.4979049 0.4979049 0.5138374
0.4984789 0.4982231 0.5138374
0.5003732 0.4992787 0.5138374
0.5054474 0.5021475 0.5138374
0.5138374 0.5070214 0.5138374
0.4986486 0.4989873 0.5138374
0.4986600 0.4989933 0.5138374
0.4987009 0.4990150 0.5138374
0.4988483 0.4990931 0.5138374
0.4993701 0.4993701 0.5138374
0.5011016 0.5002938 0.5138374
0.5058119 0.5028423 0.5138374
0.5138374 0.5073041 0.5138374
0.5013526 0.5023514 0.5138374
0.5013611 0.5023552 0.5138374
0.5013913 0.5023690 0.5138374
0.5015002 0.5024185 0.5138374
0.5018874 0.5025950 0.5138374
0.5031924 0.5031924 0.5138374
0.5069055 0.5049140 0.5138374
0.5138374 0.5082150 0.5138374
0.5062527 0.5083956 0.5138374
0.5062568 0.5083967 0.5138374
0.5062713 0.5084006 0.5138374
0.5063240 0.5084148 0.5138374
0.5065127 0.5084659 0.5138374
0.5071671 0.5086434 0.5138374
0.5091999 0.5091999 0.5138374
0.5138374 0.5104988 0.5138374
0.5107091 0.5138374 0.5138374
0.5107104 0.5138374 0.5138374
0.5107150 0.5138374 0.5138374
0.5107316 0.5138374 0.5138374
0.5107916 0.5138374 0.5138374
0.5110055 0.5138374 0.5138374
0.5117311 0.5138374 0.5138374
0.5138374 0.5138374 0.5138374
