release/datafiles/colormanagement/luts/guard_rail_higher.cube
TITLE "Guard Rail sRGB"
# Higher Side of Guard Rail Formation
# The Guard Rail is designed to leaves valid value as-is, and only touch out of domain values
# Modified from python script shared by Sakari Kapanen
# This LUT assumes target medium primaries encoded in ST2084 (100) curve and then power 0.6
# LUT resolution 37
LUT_3D_SIZE 7
0.0000000 0.0000000 0.0000000
0.1666667 0.0000000 0.0000000
0.3333333 0.0000000 0.0000000
0.5000000 0.0000000 0.0000000
0.6666667 0.0000000 0.0000000
0.6661292 0.5966741 0.5966741
0.6661292 0.6633035 0.6633035
0.0000000 0.1666667 0.0000000
0.1666667 0.1666667 0.0000000
0.3333333 0.1666667 0.0000000
0.5000000 0.1666667 0.0000000
0.6666667 0.1666667 0.0000000
0.6661292 0.5967048 0.5966971
0.6661292 0.6633037 0.6633036
0.0000000 0.3333333 0.0000000
0.1666667 0.3333333 0.0000000
0.3333333 0.3333333 0.0000000
0.5000000 0.3333333 0.0000000
0.6666667 0.3333333 0.0000000
0.6661292 0.5972803 0.5971281
0.6661292 0.6633062 0.6633059
0.0000000 0.5000000 0.0000000
0.1666667 0.5000000 0.0000000
0.3333333 0.5000000 0.0000000
0.5000000 0.5000000 0.0000000
0.6666667 0.5000000 0.0000000
0.6661292 0.6023957 0.6010183
0.6661292 0.6633302 0.6633267
0.0000000 0.6666667 0.0000000
0.1666667 0.6666667 0.0000000
0.3333333 0.6666667 0.0000000
0.5000000 0.6666667 0.0000000
0.6666667 0.6666667 0.0000000
0.6661292 0.6301864 0.6240742
0.6661292 0.6635155 0.6634885
0.6582720 0.6661292 0.6582720
0.6582730 0.6661292 0.6582724
0.6582912 0.6661292 0.6582798
0.6584611 0.6661292 0.6583487
0.6597432 0.6661292 0.6588793
0.6661292 0.6661292 0.6619331
0.6661292 0.6646217 0.6644746
0.6659075 0.6661292 0.6659075
0.6659075 0.6661292 0.6659075
0.6659075 0.6661292 0.6659075
0.6659079 0.6661292 0.6659077
0.6659113 0.6661292 0.6659091
0.6659395 0.6661292 0.6659212
0.6661292 0.6661292 0.6660122
0.0000000 0.0000000 0.1666667
0.1666667 0.0000000 0.1666667
0.3333333 0.0000000 0.1666667
0.5000000 0.0000000 0.1666667
0.6666667 0.0000000 0.1666667
0.6661292 0.5966791 0.5966868
0.6661292 0.6633036 0.6633036
0.0000000 0.1666667 0.1666667
0.1666667 0.1666667 0.1666667
0.3333333 0.1666667 0.1666667
0.5000000 0.1666667 0.1666667
0.6666667 0.1666667 0.1666667
0.6661292 0.5967097 0.5967097
0.6661292 0.6633037 0.6633037
0.0000000 0.3333333 0.1666667
0.1666667 0.3333333 0.1666667
0.3333333 0.3333333 0.1666667
0.5000000 0.3333333 0.1666667
0.6666667 0.3333333 0.1666667
0.6661292 0.5972852 0.5971407
0.6661292 0.6633062 0.6633059
0.0000000 0.5000000 0.1666667
0.1666667 0.5000000 0.1666667
0.3333333 0.5000000 0.1666667
0.5000000 0.5000000 0.1666667
0.6666667 0.5000000 0.1666667
0.6661292 0.6024001 0.6010299
0.6661292 0.6633302 0.6633268
0.0000000 0.6666667 0.1666667
0.1666667 0.6666667 0.1666667
0.3333333 0.6666667 0.1666667
0.5000000 0.6666667 0.1666667
0.6666667 0.6666667 0.1666667
0.6661292 0.6301885 0.6240807
0.6661292 0.6635155 0.6634885
0.6582723 0.6661292 0.6582728
0.6582732 0.6661292 0.6582732
0.6582915 0.6661292 0.6582806
0.6584614 0.6661292 0.6583496
0.6597434 0.6661292 0.6588800
0.6661292 0.6661292 0.6619335
0.6661292 0.6646217 0.6644746
0.6659075 0.6661292 0.6659075
0.6659075 0.6661292 0.6659075
0.6659075 0.6661292 0.6659075
0.6659079 0.6661292 0.6659077
0.6659113 0.6661292 0.6659091
0.6659395 0.6661292 0.6659212
0.6661292 0.6661292 0.6660122
0.0000000 0.0000000 0.3333333
0.1666667 0.0000000 0.3333333
0.3333333 0.0000000 0.3333333
0.5000000 0.0000000 0.3333333
0.6666667 0.0000000 0.3333333
0.6661292 0.5967722 0.5969255
0.6661292 0.6633040 0.6633044
0.0000000 0.1666667 0.3333333
0.1666667 0.1666667 0.3333333
0.3333333 0.1666667 0.3333333
0.5000000 0.1666667 0.3333333
0.6666667 0.1666667 0.3333333
0.6661292 0.5968028 0.5969483
0.6661292 0.6633042 0.6633045
0.0000000 0.3333333 0.3333333
0.1666667 0.3333333 0.3333333
0.3333333 0.3333333 0.3333333
0.5000000 0.3333333 0.3333333
0.6666667 0.3333333 0.3333333
0.6661292 0.5973772 0.5973772
0.6661292 0.6633067 0.6633067
0.0000000 0.5000000 0.3333333
0.1666667 0.5000000 0.3333333
0.3333333 0.5000000 0.3333333
0.5000000 0.5000000 0.3333333
0.6666667 0.5000000 0.3333333
0.6661292 0.6024831 0.6012478
0.6661292 0.6633307 0.6633276
0.0000000 0.6666667 0.3333333
0.1666667 0.6666667 0.3333333
0.3333333 0.6666667 0.3333333
0.5000000 0.6666667 0.3333333
0.6666667 0.6666667 0.3333333
0.6661292 0.6302280 0.6242018
0.6661292 0.6635159 0.6634892
0.6582772 0.6661292 0.6582886
0.6582781 0.6661292 0.6582890
0.6582964 0.6661292 0.6582964
0.6584661 0.6661292 0.6583651
0.6597472 0.6661292 0.6588944
0.6661292 0.6661292 0.6619411
0.6661292 0.6646219 0.6644750
0.6659075 0.6661292 0.6659075
0.6659075 0.6661292 0.6659075
0.6659075 0.6661292 0.6659075
0.6659079 0.6661292 0.6659077
0.6659113 0.6661292 0.6659091
0.6659396 0.6661292 0.6659212
0.6661292 0.6661292 0.6660122
0.0000000 0.0000000 0.5000000
0.1666667 0.0000000 0.5000000
0.3333333 0.0000000 0.5000000
0.5000000 0.0000000 0.5000000
0.6666667 0.0000000 0.5000000
0.6661292 0.5976404 0.5991236
0.6661292 0.6633085 0.6633120
0.0000000 0.1666667 0.5000000
0.1666667 0.1666667 0.5000000
0.3333333 0.1666667 0.5000000
0.5000000 0.1666667 0.5000000
0.6666667 0.1666667 0.5000000
0.6661292 0.5976705 0.5991454
0.6661292 0.6633087 0.6633121
0.0000000 0.3333333 0.5000000
0.1666667 0.3333333 0.5000000
0.3333333 0.3333333 0.5000000
0.5000000 0.3333333 0.5000000
0.6666667 0.3333333 0.5000000
0.6661292 0.5982352 0.5995552
0.6661292 0.6633112 0.6633144
0.0000000 0.5000000 0.5000000
0.1666667 0.5000000 0.5000000
0.3333333 0.5000000 0.5000000
0.5000000 0.5000000 0.5000000
0.6666667 0.5000000 0.5000000
0.6661292 0.6032569 0.6032569
0.6661292 0.6633351 0.6633351
0.0000000 0.6666667 0.5000000
0.1666667 0.6666667 0.5000000
0.3333333 0.6666667 0.5000000
0.5000000 0.6666667 0.5000000
0.6666667 0.6666667 0.5000000
0.6661292 0.6305978 0.6253247
0.6661292 0.6635200 0.6634963
0.6583231 0.6661292 0.6584359
0.6583241 0.6661292 0.6584363
0.6583422 0.6661292 0.6584435
0.6585108 0.6661292 0.6585108
0.6597832 0.6661292 0.6590286
0.6661292 0.6661292 0.6620131
0.6661292 0.6646238 0.6644789
0.6659076 0.6661292 0.6659079
0.6659076 0.6661292 0.6659079
0.6659076 0.6661292 0.6659079
0.6659081 0.6661292 0.6659081
0.6659114 0.6661292 0.6659095
0.6659397 0.6661292 0.6659216
0.6661292 0.6661292 0.6660124
0.0000000 0.0000000 0.6666667
0.1666667 0.0000000 0.6666667
0.3333333 0.0000000 0.6666667
0.5000000 0.0000000 0.6666667
0.6666667 0.0000000 0.6666667
0.6661292 0.6042019 0.6142799
0.6661292 0.6633448 0.6633734
0.0000000 0.1666667 0.6666667
0.1666667 0.1666667 0.6666667
0.3333333 0.1666667 0.6666667
0.5000000 0.1666667 0.6666667
0.6666667 0.1666667 0.6666667
0.6661292 0.6042282 0.6142953
0.6661292 0.6633450 0.6633735
0.0000000 0.3333333 0.6666667
0.1666667 0.3333333 0.6666667
0.3333333 0.3333333 0.6666667
0.5000000 0.3333333 0.6666667
0.6666667 0.3333333 0.6666667
0.6661292 0.6047215 0.6145850
0.6661292 0.6633475 0.6633757
0.0000000 0.5000000 0.6666667
0.1666667 0.5000000 0.6666667
0.3333333 0.5000000 0.6666667
0.5000000 0.5000000 0.6666667
0.6666667 0.5000000 0.6666667
0.6661292 0.6091205 0.6172164
0.6661292 0.6633710 0.6633959
0.0000000 0.6666667 0.6666667
0.1666667 0.6666667 0.6666667
0.3333333 0.6666667 0.6666667
0.5000000 0.6666667 0.6666667
0.6666667 0.6666667 0.6666667
0.6661292 0.6334318 0.6334318
0.6661292 0.6635527 0.6635527
0.6586833 0.6661292 0.6595716
0.6586842 0.6661292 0.6595719
0.6587013 0.6661292 0.6595779
0.6588608 0.6661292 0.6596339
0.6600654 0.6661292 0.6600654
0.6661292 0.6661292 0.6625751
0.6661292 0.6646393 0.6645105
0.6659085 0.6661292 0.6659108
0.6659085 0.6661292 0.6659108
0.6659086 0.6661292 0.6659108
0.6659090 0.6661292 0.6659110
0.6659124 0.6661292 0.6659124
0.6659405 0.6661292 0.6659243
0.6661292 0.6661292 0.6660138
0.5442705 0.5442705 0.6661292
0.5443062 0.5442862 0.6661292
0.5449776 0.5445818 0.6661292
0.5510032 0.5473158 0.6661292
0.5866784 0.5667361 0.6661292
0.6661292 0.6375057 0.6661292
0.6661292 0.6636377 0.6638602
0.5443189 0.5443390 0.6661292
0.5443547 0.5443547 0.6661292
0.5450256 0.5446500 0.6661292
0.5510472 0.5473816 0.6661292
0.5867038 0.5667867 0.6661292
0.6661292 0.6375152 0.6661292
0.6661292 0.6636378 0.6638603
0.5452285 0.5456203 0.6661292
0.5452638 0.5456357 0.6661292
0.5459263 0.5459263 0.6661292
0.5518750 0.5486144 0.6661292
0.5871810 0.5677337 0.6661292
0.6661292 0.6376945 0.6661292
0.6661292 0.6636399 0.6638620
0.5533496 0.5566984 0.6661292
0.5533810 0.5567117 0.6661292
0.5539714 0.5569633 0.6661292
0.5592935 0.5592935 0.6661292
0.5915193 0.5760313 0.6661292
0.6661292 0.6393165 0.6661292
0.6661292 0.6636601 0.6638779
0.5985708 0.6099212 0.6661292
0.5985854 0.6099267 0.6661292
0.5988600 0.6100303 0.6661292
0.6013761 0.6109948 0.6661292
0.6181361 0.6181361 0.6661292
0.6661292 0.6491054 0.6661292
0.6661292 0.6638166 0.6640012
0.6610414 0.6661292 0.6661292
0.6610419 0.6661292 0.6661292
0.6610528 0.6661292 0.6661292
0.6611546 0.6661292 0.6661292
0.6619322 0.6661292 0.6661292
0.6661292 0.6661292 0.6661292
0.6661292 0.6647662 0.6647662
0.6659167 0.6661292 0.6659355
0.6659167 0.6661292 0.6659355
0.6659168 0.6661292 0.6659355
0.6659172 0.6661292 0.6659356
0.6659204 0.6661292 0.6659369
0.6659473 0.6661292 0.6659473
0.6661292 0.6661292 0.6660259
0.6592937 0.6592937 0.6661292
0.6592939 0.6592939 0.6661292
0.6592972 0.6592964 0.6661292
0.6593285 0.6593199 0.6661292
0.6595769 0.6595073 0.6661292
0.6613600 0.6608838 0.6661292
0.6661292 0.6652263 0.6661292
0.6592941 0.6592942 0.6661292
0.6592943 0.6592943 0.6661292
0.6592976 0.6592968 0.6661292
0.6593289 0.6593204 0.6661292
0.6595773 0.6595078 0.6661292
0.6613603 0.6608841 0.6661292
0.6661292 0.6652264 0.6661292
0.6593019 0.6593027 0.6661292
0.6593021 0.6593029 0.6661292
0.6593054 0.6593054 0.6661292
0.6593366 0.6593289 0.6661292
0.6595846 0.6595160 0.6661292
0.6613651 0.6608901 0.6661292
0.6661292 0.6652269 0.6661292
0.6593742 0.6593827 0.6661292
0.6593743 0.6593828 0.6661292
0.6593776 0.6593853 0.6661292
0.6594084 0.6594084 0.6661292
0.6596530 0.6595926 0.6661292
0.6614103 0.6609458 0.6661292
0.6661292 0.6652320 0.6661292
0.6599243 0.6599893 0.6661292
0.6599245 0.6599894 0.6661292
0.6599274 0.6599916 0.6661292
0.6599550 0.6600120 0.6661292
0.6601740 0.6601740 0.6661292
0.6617568 0.6613713 0.6661292
0.6661292 0.6652721 0.6661292
0.6628671 0.6631598 0.6661292
0.6628671 0.6631599 0.6661292
0.6628684 0.6631607 0.6661292
0.6628803 0.6631682 0.6661292
0.6629755 0.6632286 0.6661292
0.6636923 0.6636923 0.6661292
0.6661292 0.6655448 0.6661292
0.6659870 0.6661292 0.6661292
0.6659870 0.6661292 0.6661292
0.6659870 0.6661292 0.6661292
0.6659873 0.6661292 0.6661292
0.6659893 0.6661292 0.6661292
0.6660062 0.6661292 0.6661292
0.6661292 0.6661292 0.6661292
