release/datafiles/colormanagement/LUTs/guard_rail_bt2020.cube
TITLE "Guard Rail BT.2020"
# Guard Rail Formation for BT.2020 medium.
# The Guard Rail is designed to leaves valid value as-is, and only touch out of domain valuesModified from python script shared by Sakari Kapanen
# This LUT assumes E Gamut encoded in ST2084 (10) curve and then power 1.5
# LUT resolution 50
LUT_3D_SIZE 8
0.0000000 0.0000000 0.0000000
0.1369213 0.0431267 0.0431240
0.2748647 0.1079987 0.1079930
0.4132134 0.1870250 0.1870165
0.5517571 0.2776229 0.2776121
0.6378779 0.4515176 0.4515033
0.6443005 0.5736142 0.5735982
0.6487123 0.6233883 0.6233717
0.0464976 0.1431473 0.0464950
0.1460765 0.1460767 0.0646761
0.2786477 0.1658963 0.1165402
0.4147018 0.2150572 0.1905266
0.5523569 0.2904054 0.2791205
0.6379136 0.4543797 0.4526530
0.6443216 0.5740613 0.5738859
0.6487173 0.6234579 0.6234218
0.1152464 0.2854861 0.1152411
0.1717118 0.2860065 0.1218495
0.2897875 0.2897877 0.1505668
0.4207666 0.3054309 0.2075291
0.5553029 0.3447289 0.2870729
0.6381107 0.4691516 0.4588327
0.6444375 0.5764911 0.5754561
0.6487450 0.6238420 0.6236985
0.1982363 0.4274490 0.1982286
0.2254649 0.4275890 0.2008150
0.3123298 0.4284832 0.2140435
0.4324321 0.4324324 0.2486309
0.5623198 0.4461544 0.3097531
0.6387470 0.5080514 0.4771218
0.6448052 0.5839436 0.5803373
0.6488353 0.6250859 0.6245963
0.2927890 0.5691118 0.2927791
0.3051140 0.5691541 0.2938565
0.3573402 0.5694063 0.2996821
0.4538231 0.5704299 0.3173286
0.5742751 0.5742754 0.3560198
0.6402989 0.5726820 0.5139230
0.6456795 0.6002683 0.5913799
0.6490653 0.6282072 0.6268620
0.5363954 0.6368456 0.5363817
0.5372249 0.6368667 0.5365553
0.5417495 0.6369838 0.5375180
0.5558076 0.6373733 0.5406872
0.5878063 0.6384230 0.5490065
0.6408164 0.6408176 0.5669209
0.6472120 0.6249686 0.6090812
0.6495302 0.6343121 0.6313504
0.6175724 0.6463461 0.6175579
0.6176537 0.6463506 0.6175831
0.6181055 0.6463752 0.6177230
0.6196004 0.6464573 0.6181890
0.6235825 0.6466807 0.6194535
0.6324768 0.6472067 0.6224073
0.6482443 0.6482461 0.6281662
0.6502250 0.6429134 0.6378388
0.6406278 0.6499567 0.6406131
0.6406381 0.6499574 0.6406167
0.6406959 0.6499612 0.6406364
0.6408896 0.6499742 0.6407028
0.6414252 0.6500101 0.6408871
0.6427382 0.6500992 0.6413432
0.6455814 0.6502967 0.6423541
0.6506676 0.6506696 0.6442631
0.0434563 0.0434567 0.1057134
0.1339416 0.0602510 0.1339405
0.2794360 0.0823014 0.1526937
0.4195527 0.1500132 0.1880962
0.5542081 0.2651957 0.2781841
0.6379084 0.4505562 0.4522899
0.6443084 0.5735482 0.5736925
0.6487134 0.6233783 0.6233813
0.0539056 0.1433887 0.1433878
0.1428571 0.1428571 0.1428571
0.2857143 0.1428571 0.1428571
0.4201895 0.1913237 0.1913188
0.5547058 0.2796626 0.2796531
0.6379438 0.4534395 0.4534253
0.6443294 0.5739953 0.5739793
0.6487184 0.6234479 0.6234313
0.0458318 0.2856462 0.1471636
0.1428571 0.2857143 0.1428571
0.2860560 0.2860560 0.1481557
0.4232311 0.2989097 0.2074356
0.5571651 0.3389255 0.2874258
0.6381392 0.4683144 0.4595304
0.6444450 0.5764257 0.5755448
0.6487461 0.6238321 0.6237078
0.1584630 0.4278742 0.1958047
0.1985370 0.4279330 0.1985324
0.3037106 0.4284325 0.2123798
0.4315363 0.4315365 0.2479819
0.5631712 0.4444478 0.3097885
0.6387704 0.5074444 0.4776209
0.6448118 0.5838806 0.5804121
0.6488363 0.6250761 0.6246049
0.2790390 0.5694041 0.2919117
0.2930166 0.5694364 0.2930079
0.3502727 0.5696355 0.2989302
0.4514203 0.5705060 0.3168210
0.5740660 0.5740663 0.3558551
0.6403174 0.5724330 0.5142368
0.6456840 0.6002137 0.5914276
0.6490661 0.6281979 0.6268689
0.5358516 0.6368510 0.5365003
0.5366865 0.6368721 0.5366729
0.5412401 0.6369889 0.5376303
0.5553840 0.6373775 0.5407829
0.5875583 0.6384254 0.5490645
0.6408168 0.6408180 0.5669246
0.6472139 0.6249359 0.6090977
0.6495307 0.6343043 0.6313545
0.6175205 0.6463461 0.6175624
0.6176020 0.6463505 0.6175875
0.6180545 0.6463751 0.6177274
0.6195520 0.6464572 0.6181931
0.6235409 0.6466806 0.6194568
0.6324503 0.6472065 0.6224092
0.6482443 0.6482461 0.6281666
0.6502252 0.6429089 0.6378401
0.6406212 0.6499566 0.6406134
0.6406316 0.6499573 0.6406169
0.6406894 0.6499612 0.6406367
0.6408832 0.6499741 0.6407031
0.6414192 0.6500101 0.6408873
0.6427330 0.6500992 0.6413433
0.6455781 0.6502967 0.6423542
0.6506676 0.6506696 0.6442631
0.1063728 0.1063735 0.2196571
0.1448384 0.1139640 0.2312324
0.2687461 0.1410441 0.2687445
0.4167900 0.1682023 0.2923423
0.5630499 0.2052284 0.3102810
0.6380849 0.4450578 0.4567750
0.6443530 0.5731810 0.5742250
0.6487196 0.6233225 0.6234350
0.1130666 0.1528699 0.2526692
0.1445757 0.1445758 0.2812483
0.2833908 0.1505897 0.2833905
0.4248589 0.1672748 0.2883792
0.5667025 0.2023855 0.3009038
0.6381185 0.4480629 0.4578301
0.6443737 0.5736286 0.5745069
0.6487246 0.6233922 0.6234848
0.1298901 0.2856339 0.2856326
0.1428571 0.2857143 0.2857143
0.2857143 0.2857143 0.2857143
0.4285714 0.2857143 0.2857143
0.5703479 0.2905562 0.2905555
0.6383044 0.4635288 0.4635155
0.6444876 0.5760618 0.5760459
0.6487521 0.6237766 0.6237600
0.1248279 0.4281662 0.2927868
0.1428571 0.4285714 0.2857143
0.2857143 0.4285714 0.2857143
0.4285714 0.4285714 0.2857143
0.5689254 0.4333169 0.3103099
0.6389058 0.5039719 0.4804842
0.6448491 0.5835288 0.5808350
0.6488419 0.6250214 0.6246532
0.0842477 0.5713224 0.2894937
0.1514983 0.5713745 0.2877047
0.2942717 0.5712270 0.2942707
0.4357681 0.5711086 0.3137507
0.5728715 0.5728716 0.3549144
0.6404076 0.5708676 0.5157302
0.6457099 0.5999073 0.5916971
0.6490707 0.6281459 0.6269079
0.5326971 0.6368824 0.5371792
0.5335636 0.6369031 0.5373463
0.5382865 0.6370184 0.5382733
0.5529311 0.6374020 0.5413307
0.5861258 0.6384390 0.5493967
0.6408189 0.6408201 0.5669455
0.6472244 0.6247518 0.6091910
0.6495337 0.6342605 0.6313778
0.6172275 0.6463457 0.6175879
0.6173097 0.6463501 0.6176129
0.6177666 0.6463747 0.6177522
0.6192784 0.6464567 0.6182162
0.6233057 0.6466800 0.6194755
0.6323006 0.6472059 0.6224198
0.6482446 0.6482464 0.6281685
0.6502263 0.6428839 0.6378476
0.6405845 0.6499563 0.6406149
0.6405949 0.6499570 0.6406185
0.6406529 0.6499609 0.6406382
0.6408474 0.6499738 0.6407045
0.6413853 0.6500098 0.6408887
0.6427038 0.6500989 0.6413444
0.6455593 0.6502965 0.6423547
0.6506677 0.6506697 0.6442633
0.1812281 0.1812291 0.3370134
0.1947795 0.1818337 0.3375821
0.2690703 0.2011254 0.3639693
0.4037721 0.2336736 0.4037700
0.5543085 0.2656040 0.4309439
0.6391798 0.4405771 0.4832292
0.6445115 0.5719700 0.5761074
0.6487410 0.6231356 0.6236214
0.1721401 0.1883566 0.3478993
0.1928636 0.1928644 0.3541671
0.2750405 0.2111605 0.3786568
0.4095444 0.2378485 0.4095427
0.5575616 0.2660599 0.4309467
0.6391792 0.4426350 0.4833031
0.6445311 0.5724179 0.5763720
0.6487459 0.6232053 0.6236704
0.2028929 0.2899062 0.3982555
0.2081277 0.2889569 0.4059565
0.2857143 0.2857143 0.4285714
0.4285714 0.2857143 0.4285714
0.5714286 0.2857143 0.4285714
0.6391698 0.4533896 0.4835727
0.6446388 0.5748545 0.5778173
0.6487731 0.6235903 0.6239413
0.2193368 0.4273462 0.4273445
0.2196071 0.4277478 0.4277467
0.2857143 0.4285714 0.4285714
0.4285714 0.4285714 0.4285714
0.5714286 0.4285714 0.4285714
0.6396030 0.4949999 0.4949887
0.6449813 0.5823458 0.5823301
0.6488614 0.6248373 0.6248208
0.2160281 0.5704404 0.4366012
0.2137454 0.5708076 0.4337589
0.2857143 0.5714286 0.4285714
0.4285714 0.5714286 0.4285714
0.5714286 0.5714286 0.4285714
0.6407241 0.5647772 0.5208242
0.6458016 0.5988546 0.5926499
0.6490869 0.6279699 0.6270431
0.5257785 0.6374124 0.5440374
0.5261059 0.6373846 0.5436891
0.5306453 0.6374438 0.5439740
0.5459312 0.6377377 0.5459192
0.5808428 0.6385264 0.5510102
0.6408261 0.6408272 0.5670158
0.6472614 0.6241070 0.6095202
0.6495438 0.6341113 0.6314585
0.6161923 0.6463443 0.6176779
0.6162774 0.6463487 0.6177026
0.6167496 0.6463732 0.6178400
0.6183121 0.6464550 0.6182978
0.6224745 0.6466777 0.6195416
0.6317714 0.6472034 0.6224568
0.6482456 0.6482473 0.6281750
0.6502299 0.6427981 0.6378733
0.6404583 0.6499552 0.6406203
0.6404688 0.6499559 0.6406238
0.6405275 0.6499598 0.6406435
0.6407243 0.6499728 0.6407096
0.6412687 0.6500088 0.6408933
0.6426035 0.6500979 0.6413479
0.6454946 0.6502958 0.6423566
0.6506678 0.6506698 0.6442641
0.2652019 0.2652032 0.4561258
0.2695768 0.2639805 0.4543358
0.3028965 0.2699863 0.4617970
0.3971591 0.2975902 0.4963478
0.5387164 0.3352875 0.5387139
0.6428771 0.4459621 0.5492310
0.6452219 0.5719271 0.5845727
0.6488069 0.6226250 0.6241964
0.2579435 0.2639273 0.4545148
0.2652133 0.2652145 0.4561412
0.3039469 0.2748169 0.4684424
0.4003334 0.3018432 0.5020437
0.5412410 0.3372644 0.5412387
0.6428743 0.4479265 0.5492457
0.6452350 0.5723088 0.5847453
0.6488115 0.6226947 0.6242429
0.2674167 0.3100620 0.4909945
0.2710948 0.3088675 0.4960733
0.3095216 0.3095223 0.5153506
0.4162913 0.3260200 0.5341393
0.5548279 0.3479490 0.5548265
0.6428545 0.4582209 0.5492604
0.6453063 0.5743789 0.5856792
0.6488373 0.6230798 0.6245003
0.3019928 0.4285141 0.5403348
0.3039407 0.4286257 0.5429257
0.3164323 0.4288821 0.5594488
0.4285714 0.4285714 0.5714286
0.5714286 0.4285714 0.5714286
0.6429434 0.4931522 0.5517348
0.6455388 0.5809013 0.5886869
0.6489213 0.6243285 0.6253368
0.3194311 0.5686325 0.5686306
0.3196528 0.5689307 0.5689290
0.3208772 0.5705761 0.5705755
0.4285714 0.5714286 0.5714286
0.5714286 0.5714286 0.5714286
0.6436615 0.5649578 0.5649489
0.6462351 0.5972984 0.5972832
0.6491362 0.6274744 0.6274579
0.5258387 0.6407038 0.5781086
0.5261688 0.6406825 0.5778874
0.5279791 0.6405591 0.5766010
0.5432542 0.6407447 0.5772252
0.5804512 0.6414361 0.5804416
0.6430240 0.6430250 0.5875163
0.6474692 0.6227015 0.6114939
0.6495747 0.6336799 0.6317043
0.6151203 0.6466340 0.6199300
0.6151488 0.6466305 0.6199013
0.6153407 0.6466149 0.6197677
0.6168984 0.6466820 0.6201152
0.6210718 0.6468650 0.6210578
0.6305466 0.6472966 0.6232595
0.6482482 0.6482500 0.6281932
0.6502409 0.6425444 0.6379507
0.6400825 0.6499522 0.6406364
0.6400934 0.6499529 0.6406399
0.6401542 0.6499567 0.6406595
0.6403580 0.6499697 0.6407250
0.6409218 0.6500057 0.6409072
0.6423046 0.6500951 0.6413586
0.6453016 0.6502937 0.6423620
0.6506682 0.6506701 0.6442664
0.3562518 0.3562534 0.5756789
0.3575248 0.3550645 0.5741177
0.3691780 0.3538386 0.5722781
0.4181275 0.3661898 0.5869705
0.5256638 0.4008835 0.6275198
0.6418608 0.4694496 0.6418568
0.6472001 0.5731457 0.6061450
0.6491334 0.6228222 0.6271701
0.3510549 0.3535747 0.5723241
0.3533167 0.3533182 0.5719471
0.3678710 0.3546665 0.5733798
0.4192332 0.3686122 0.5900668
0.5272960 0.4028843 0.6300155
0.6419063 0.4710330 0.6419023
0.6472088 0.5735219 0.6062515
0.6491366 0.6228814 0.6272026
0.3431210 0.3614928 0.5826673
0.3470089 0.3624293 0.5838000
0.3676527 0.3676540 0.5901050
0.4261977 0.3836733 0.6091967
0.5305573 0.4181297 0.6341353
0.6421560 0.4794315 0.6421520
0.6472562 0.5755614 0.6068281
0.6491545 0.6232080 0.6273819
0.3729376 0.4396670 0.6306619
0.3757394 0.4393711 0.6306931
0.3907121 0.4378542 0.6308756
0.4400465 0.4400475 0.6318348
0.5341069 0.4637495 0.6353082
0.6429426 0.5031296 0.6429387
0.6473993 0.5817621 0.6085660
0.6492122 0.6242623 0.6279581
0.4568119 0.5481105 0.6358504
0.4580107 0.5479833 0.6358734
0.4645633 0.5472563 0.6360021
0.4851433 0.5445722 0.6364402
0.5512622 0.5512631 0.6391846
0.6457010 0.5652791 0.6456965
0.6478169 0.5971826 0.6134675
0.6493722 0.6270797 0.6295420
0.5329393 0.6443860 0.6443786
0.5332476 0.6443990 0.6443917
0.5349405 0.6444710 0.6444638
0.5403229 0.6447049 0.6446983
0.5798333 0.6467002 0.6466935
0.6518801 0.6518810 0.6518741
0.6486726 0.6229988 0.6229844
0.6497516 0.6332376 0.6332213
0.6156807 0.6478929 0.6289265
0.6157094 0.6478903 0.6289057
0.6158684 0.6478754 0.6287871
0.6164913 0.6478317 0.6284245
0.6208508 0.6479863 0.6291121
0.6307373 0.6483515 0.6307239
0.6490828 0.6490845 0.6338993
0.6503265 0.6421349 0.6386488
0.6398795 0.6500780 0.6414820
0.6398830 0.6500775 0.6414786
0.6399026 0.6500749 0.6414595
0.6400245 0.6500741 0.6414429
0.6405797 0.6501040 0.6415846
0.6419499 0.6501779 0.6419354
0.6449713 0.6503426 0.6427130
0.6506691 0.6506711 0.6442723
0.4528352 0.4528370 0.6324313
0.4527569 0.4521249 0.6324118
0.4539501 0.4497341 0.6323820
0.4668441 0.4513932 0.6327479
0.5103294 0.4744877 0.6346922
0.5794015 0.5238223 0.6394122
0.6464421 0.5783830 0.6464331
0.6499686 0.6234137 0.6345556
0.4500206 0.4506688 0.6323113
0.4502090 0.4502108 0.6323045
0.4524594 0.4488399 0.6323246
0.4667511 0.4519240 0.6327584
0.5107864 0.4756585 0.6347418
0.5796475 0.5246512 0.6394580
0.6464628 0.5787345 0.6464537
0.6499707 0.6234716 0.6345774
0.4426411 0.4471467 0.6320574
0.4435600 0.4473647 0.6320832
0.4489175 0.4489192 0.6322430
0.4678124 0.4566250 0.6329040
0.5135325 0.4823011 0.6350351
0.5810095 0.5291614 0.6397121
0.6465754 0.5806415 0.6465663
0.6499827 0.6237908 0.6346976
0.4530037 0.4682380 0.6328386
0.4536389 0.4682439 0.6328539
0.4598467 0.4707110 0.6330748
0.4805247 0.4805264 0.6339154
0.5239001 0.5041468 0.6361274
0.5854077 0.5429403 0.6405384
0.6469270 0.5864520 0.6469177
0.6500212 0.6248212 0.6350838
0.5158115 0.5400076 0.6372343
0.5162820 0.5401136 0.6372560
0.5187261 0.5405889 0.6373661
0.5268101 0.5423211 0.6377483
0.5500923 0.5500940 0.6390770
0.5956026 0.5717421 0.6425216
0.6477277 0.5989482 0.6477180
0.6501155 0.6273856 0.6360293
0.5764335 0.6059397 0.6434714
0.5766268 0.6059675 0.6434833
0.5776948 0.6061200 0.6435494
0.5811705 0.6065998 0.6437659
0.5904674 0.6079553 0.6443705
0.6137736 0.6137753 0.6461893
0.6494780 0.6233148 0.6494673
0.6503565 0.6332611 0.6383955
0.6179163 0.6491622 0.6491488
0.6179452 0.6491643 0.6491508
0.6181056 0.6491759 0.6491625
0.6186375 0.6492144 0.6492010
0.6206644 0.6493623 0.6493491
0.6311087 0.6501554 0.6501420
0.6518874 0.6518891 0.6518754
0.6507582 0.6422656 0.6422496
0.6401124 0.6505207 0.6443365
0.6401159 0.6505204 0.6443339
0.6401356 0.6505184 0.6443197
0.6402017 0.6505118 0.6442703
0.6405078 0.6505059 0.6442034
0.6419300 0.6505678 0.6444669
0.6450660 0.6507057 0.6450517
0.6509682 0.6509701 0.6461629
0.5282408 0.5282427 0.6372035
0.5280021 0.5278897 0.6371798
0.5270000 0.5262355 0.6370738
0.5265336 0.5234960 0.6369465
0.5356212 0.5267166 0.6374389
0.5675367 0.5495664 0.6398836
0.6144621 0.5903858 0.6447518
0.6496408 0.6253856 0.6496284
0.5270228 0.5271402 0.6371111
0.5268334 0.5268353 0.6370914
0.5260698 0.5254146 0.6370047
0.5261209 0.5231892 0.6369183
0.5357515 0.5269776 0.6374548
0.5678014 0.5499959 0.6399168
0.6145903 0.5906587 0.6447765
0.6496451 0.6254396 0.6496327
0.5221628 0.5229688 0.6367581
0.5221728 0.5228573 0.6367541
0.5223938 0.5223957 0.6367443
0.5246753 0.5223786 0.6368306
0.5367372 0.5287108 0.6375658
0.5692923 0.5523921 0.6401043
0.6152902 0.5921438 0.6449112
0.6496684 0.6257377 0.6496560
0.5191386 0.5223365 0.6366201
0.5194209 0.5224867 0.6366364
0.5210196 0.5233565 0.6367303
0.5265927 0.5265946 0.6370724
0.5422231 0.5367361 0.6381331
0.5743699 0.5603107 0.6407487
0.6174649 0.5967135 0.6453334
0.6497442 0.6267008 0.6497317
0.5426201 0.5499709 0.6387428
0.5428504 0.5500937 0.6387585
0.5441437 0.5507923 0.6388470
0.5487918 0.5534985 0.6391793
0.5623523 0.5623542 0.6402443
0.5875401 0.5796406 0.6424811
0.6223582 0.6067739 0.6463035
0.6499351 0.6291024 0.6499225
0.5896345 0.5993491 0.6437670
0.5897669 0.5994201 0.6437790
0.5904993 0.5998132 0.6438456
0.5928871 0.6011014 0.6440647
0.5990117 0.6044568 0.6446419
0.6115153 0.6115172 0.6458891
0.6299710 0.6220200 0.6478798
0.6503107 0.6337297 0.6502979
0.6253122 0.6350038 0.6485105
0.6253377 0.6350091 0.6485127
0.6254794 0.6350384 0.6485249
0.6259512 0.6351349 0.6485653
0.6272329 0.6353865 0.6486749
0.6305629 0.6361304 0.6489699
0.6386154 0.6386173 0.6497576
0.6510429 0.6423956 0.6510295
0.6408594 0.6509446 0.6509289
0.6408631 0.6509449 0.6509292
0.6408834 0.6509465 0.6509309
0.6409515 0.6509522 0.6509365
0.6411401 0.6509679 0.6509522
0.6419356 0.6510341 0.6510185
0.6452395 0.6513131 0.6512975
0.6518897 0.6518916 0.6518758
