release/datafiles/colormanagement/LUTs/guard_rail_higher.cube
TITLE "Guard Rail sRGB"
# Higher Side of Guard Rail Formation for sRGB medium.
# The Guard Rail is designed to leaves valid value as-is, and only touch out of domain valuesModified from python script shared by Sakari Kapanen
# This LUT assumes target medium primaries encoded in DaVinciIntermediate curve
# LUT resolution 45
LUT_3D_SIZE 45
0.0000000 0.0000000 0.0000000
0.0227273 0.0000000 0.0000000
0.0454545 0.0000000 0.0000000
0.0681818 0.0000000 0.0000000
0.0909091 0.0000000 0.0000000
0.1136364 0.0000000 0.0000000
0.1363636 0.0000000 0.0000000
0.1590909 0.0000000 0.0000000
0.1818182 0.0000000 0.0000000
0.2045455 0.0000000 0.0000000
0.2272727 0.0000000 0.0000000
0.2500000 0.0000000 0.0000000
0.2727273 0.0000000 0.0000000
0.2954545 0.0000000 0.0000000
0.3181818 0.0000000 0.0000000
0.3409091 0.0000000 0.0000000
0.3636364 0.0000000 0.0000000
0.3863636 0.0000000 0.0000000
0.4090909 0.0000000 0.0000000
0.4318182 0.0000000 0.0000000
0.4545455 0.0000000 0.0000000
0.4772727 0.0000000 0.0000000
0.5000000 0.0000000 0.0000000
0.5227273 0.0000000 0.0000000
0.5138374 0.2302135 0.2302135
0.5138374 0.2873543 0.2873543
0.5138374 0.3267214 0.3267214
0.5138374 0.3569131 0.3569131
0.5138374 0.3813123 0.3813123
0.5138374 0.4015972 0.4015972
0.5138374 0.4187276 0.4187276
0.5138374 0.4333130 0.4333130
0.5138374 0.4457758 0.4457758
0.5138374 0.4564317 0.4564317
0.5138374 0.4655316 0.4655316
0.5138374 0.4732849 0.4732849
0.5138374 0.4798714 0.4798714
0.5138374 0.4854491 0.4854491
0.5138374 0.4901573 0.4901573
0.5138374 0.4941194 0.4941194
0.5138374 0.4974441 0.4974441
0.5138374 0.5002267 0.5002267
0.5138374 0.5025503 0.5025503
0.5138374 0.5044867 0.5044867
0.5138374 0.5060975 0.5060975
0.0000000 0.0227273 0.0000000
0.0227273 0.0227273 0.0000000
0.0454545 0.0227273 0.0000000
0.0681818 0.0227273 0.0000000
0.0909091 0.0227273 0.0000000
0.1136364 0.0227273 0.0000000
0.1363636 0.0227273 0.0000000
0.1590909 0.0227273 0.0000000
0.1818182 0.0227273 0.0000000
0.2045455 0.0227273 0.0000000
0.2272727 0.0227273 0.0000000
0.2500000 0.0227273 0.0000000
0.2727273 0.0227273 0.0000000
0.2954545 0.0227273 0.0000000
0.3181818 0.0227273 0.0000000
0.3409091 0.0227273 0.0000000
0.3636364 0.0227273 0.0000000
0.3863636 0.0227273 0.0000000
0.4090909 0.0227273 0.0000000
0.4318182 0.0227273 0.0000000
0.4545455 0.0227273 0.0000000
0.4772727 0.0227273 0.0000000
0.5000000 0.0227273 0.0000000
0.5227273 0.0227273 0.0000000
0.5138374 0.2329365 0.2306525
0.5138374 0.2887289 0.2877065
0.5138374 0.3275292 0.3269939
0.5138374 0.3574230 0.3571202
0.5138374 0.3816469 0.3814677
0.5138374 0.4018217 0.4017125
0.5138374 0.4188802 0.4188122
0.5138374 0.4334173 0.4333744
0.5138374 0.4458474 0.4458200
0.5138374 0.4564808 0.4564632
0.5138374 0.4655653 0.4655539
0.5138374 0.4733079 0.4733005
0.5138374 0.4798872 0.4798823
0.5138374 0.4854598 0.4854566
0.5138374 0.4901646 0.4901625
0.5138374 0.4941243 0.4941229
0.5138374 0.4974474 0.4974465
0.5138374 0.5002290 0.5002284
0.5138374 0.5025518 0.5025514
0.5138374 0.5044877 0.5044874
0.5138374 0.5060981 0.5060980
0.0000000 0.0454545 0.0000000
0.0227273 0.0454545 0.0000000
0.0454545 0.0454545 0.0000000
0.0681818 0.0454545 0.0000000
0.0909091 0.0454545 0.0000000
0.1136364 0.0454545 0.0000000
0.1363636 0.0454545 0.0000000
0.1590909 0.0454545 0.0000000
0.1818182 0.0454545 0.0000000
0.2045455 0.0454545 0.0000000
0.2272727 0.0454545 0.0000000
0.2500000 0.0454545 0.0000000
0.2727273 0.0454545 0.0000000
0.2954545 0.0454545 0.0000000
0.3181818 0.0454545 0.0000000
0.3409091 0.0454545 0.0000000
0.3636364 0.0454545 0.0000000
0.3863636 0.0454545 0.0000000
0.4090909 0.0454545 0.0000000
0.4318182 0.0454545 0.0000000
0.4545455 0.0454545 0.0000000
0.4772727 0.0454545 0.0000000
0.5000000 0.0454545 0.0000000
0.5227273 0.0454545 0.0000000
0.5138374 0.2357775 0.2311206
0.5138374 0.2901814 0.2880824
0.5138374 0.3283874 0.3272849
0.5138374 0.3579662 0.3573415
0.5138374 0.3820040 0.3816337
0.5138374 0.4020616 0.4018357
0.5138374 0.4190433 0.4189026
0.5138374 0.4335290 0.4334401
0.5138374 0.4459240 0.4458673
0.5138374 0.4565334 0.4564969
0.5138374 0.4656014 0.4655778
0.5138374 0.4733326 0.4733172
0.5138374 0.4799040 0.4798939
0.5138374 0.4854713 0.4854647
0.5138374 0.4901724 0.4901680
0.5138374 0.4941296 0.4941267
0.5138374 0.4974510 0.4974491
0.5138374 0.5002314 0.5002301
0.5138374 0.5025534 0.5025526
0.5138374 0.5044887 0.5044882
0.5138374 0.5060989 0.5060985
0.0000000 0.0681818 0.0000000
0.0227273 0.0681818 0.0000000
0.0454545 0.0681818 0.0000000
0.0681818 0.0681818 0.0000000
0.0909091 0.0681818 0.0000000
0.1136364 0.0681818 0.0000000
0.1363636 0.0681818 0.0000000
0.1590909 0.0681818 0.0000000
0.1818182 0.0681818 0.0000000
0.2045455 0.0681818 0.0000000
0.2272727 0.0681818 0.0000000
0.2500000 0.0681818 0.0000000
0.2727273 0.0681818 0.0000000
0.2954545 0.0681818 0.0000000
0.3181818 0.0681818 0.0000000
0.3409091 0.0681818 0.0000000
0.3636364 0.0681818 0.0000000
0.3863636 0.0681818 0.0000000
0.4090909 0.0681818 0.0000000
0.4318182 0.0681818 0.0000000
0.4545455 0.0681818 0.0000000
0.4772727 0.0681818 0.0000000
0.5000000 0.0681818 0.0000000
0.5227273 0.0681818 0.0000000
0.5138374 0.2391803 0.2316954
0.5138374 0.2919456 0.2885442
0.5138374 0.3294360 0.3276426
0.5138374 0.3586321 0.3576137
0.5138374 0.3824425 0.3818382
0.5138374 0.4023565 0.4019874
0.5138374 0.4192440 0.4190141
0.5138374 0.4336665 0.4335211
0.5138374 0.4460184 0.4459256
0.5138374 0.4565983 0.4565385
0.5138374 0.4656459 0.4656072
0.5138374 0.4733631 0.4733378
0.5138374 0.4799248 0.4799083
0.5138374 0.4854854 0.4854746
0.5138374 0.4901820 0.4901748
0.5138374 0.4941361 0.4941314
0.5138374 0.4974554 0.4974523
0.5138374 0.5002343 0.5002323
0.5138374 0.5025554 0.5025541
0.5138374 0.5044901 0.5044892
0.5138374 0.5060998 0.5060992
0.0000000 0.0909091 0.0000000
0.0227273 0.0909091 0.0000000
0.0454545 0.0909091 0.0000000
0.0681818 0.0909091 0.0000000
0.0909091 0.0909091 0.0000000
0.1136364 0.0909091 0.0000000
0.1363636 0.0909091 0.0000000
0.1590909 0.0909091 0.0000000
0.1818182 0.0909091 0.0000000
0.2045455 0.0909091 0.0000000
0.2272727 0.0909091 0.0000000
0.2500000 0.0909091 0.0000000
0.2727273 0.0909091 0.0000000
0.2954545 0.0909091 0.0000000
0.3181818 0.0909091 0.0000000
0.3409091 0.0909091 0.0000000
0.3636364 0.0909091 0.0000000
0.3863636 0.0909091 0.0000000
0.4090909 0.0909091 0.0000000
0.4318182 0.0909091 0.0000000
0.4545455 0.0909091 0.0000000
0.4772727 0.0909091 0.0000000
0.5000000 0.0909091 0.0000000
0.5227273 0.0909091 0.0000000
0.5138374 0.2432489 0.2324030
0.5138374 0.2940900 0.2891131
0.5138374 0.3307197 0.3280838
0.5138374 0.3594505 0.3579496
0.5138374 0.3829828 0.3820906
0.5138374 0.4027204 0.4021749
0.5138374 0.4194920 0.4191518
0.5138374 0.4338364 0.4336213
0.5138374 0.4461352 0.4459977
0.5138374 0.4566785 0.4565900
0.5138374 0.4657010 0.4656436
0.5138374 0.4734008 0.4733634
0.5138374 0.4799505 0.4799261
0.5138374 0.4855029 0.4854869
0.5138374 0.4901939 0.4901833
0.5138374 0.4941441 0.4941372
0.5138374 0.4974608 0.4974562
0.5138374 0.5002380 0.5002350
0.5138374 0.5025579 0.5025559
0.5138374 0.5044917 0.5044904
0.5138374 0.5061009 0.5061000
0.0000000 0.1136364 0.0000000
0.0227273 0.1136364 0.0000000
0.0454545 0.1136364 0.0000000
0.0681818 0.1136364 0.0000000
0.0909091 0.1136364 0.0000000
0.1136364 0.1136364 0.0000000
0.1363636 0.1136364 0.0000000
0.1590909 0.1136364 0.0000000
0.1818182 0.1136364 0.0000000
0.2045455 0.1136364 0.0000000
0.2272727 0.1136364 0.0000000
0.2500000 0.1136364 0.0000000
0.2727273 0.1136364 0.0000000
0.2954545 0.1136364 0.0000000
0.3181818 0.1136364 0.0000000
0.3409091 0.1136364 0.0000000
0.3636364 0.1136364 0.0000000
0.3863636 0.1136364 0.0000000
0.4090909 0.1136364 0.0000000
0.4318182 0.1136364 0.0000000
0.4545455 0.1136364 0.0000000
0.4772727 0.1136364 0.0000000
0.5000000 0.1136364 0.0000000
0.5227273 0.1136364 0.0000000
0.5138374 0.2480796 0.2332728
0.5138374 0.2966853 0.2898131
0.5138374 0.3322869 0.3286271
0.5138374 0.3604543 0.3583638
0.5138374 0.3836473 0.3824021
0.5138374 0.4031689 0.4024065
0.5138374 0.4197980 0.4193221
0.5138374 0.4340464 0.4337452
0.5138374 0.4462796 0.4460870
0.5138374 0.4567778 0.4566537
0.5138374 0.4657691 0.4656886
0.5138374 0.4734475 0.4733950
0.5138374 0.4799824 0.4799481
0.5138374 0.4855247 0.4855021
0.5138374 0.4902086 0.4901938
0.5138374 0.4941541 0.4941444
0.5138374 0.4974676 0.4974611
0.5138374 0.5002425 0.5002383
0.5138374 0.5025609 0.5025581
0.5138374 0.5044938 0.5044919
0.5138374 0.5061022 0.5061010
0.0000000 0.1363636 0.0000000
0.0227273 0.1363636 0.0000000
0.0454545 0.1363636 0.0000000
0.0681818 0.1363636 0.0000000
0.0909091 0.1363636 0.0000000
0.1136364 0.1363636 0.0000000
0.1363636 0.1363636 0.0000000
0.1590909 0.1363636 0.0000000
0.1818182 0.1363636 0.0000000
0.2045455 0.1363636 0.0000000
0.2272727 0.1363636 0.0000000
0.2500000 0.1363636 0.0000000
0.2727273 0.1363636 0.0000000
0.2954545 0.1363636 0.0000000
0.3181818 0.1363636 0.0000000
0.3409091 0.1363636 0.0000000
0.3636364 0.1363636 0.0000000
0.3863636 0.1363636 0.0000000
0.4090909 0.1363636 0.0000000
0.4318182 0.1363636 0.0000000
0.4545455 0.1363636 0.0000000
0.4772727 0.1363636 0.0000000
0.5000000 0.1363636 0.0000000
0.5227273 0.1363636 0.0000000
0.5138374 0.2537699 0.2343398
0.5138374 0.2998108 0.2906729
0.5138374 0.3341937 0.3292952
0.5138374 0.3616825 0.3588736
0.5138374 0.3844633 0.3827859
0.5138374 0.4037209 0.4026920
0.5138374 0.4201752 0.4195322
0.5138374 0.4343055 0.4338982
0.5138374 0.4464579 0.4461973
0.5138374 0.4569005 0.4567324
0.5138374 0.4658534 0.4657444
0.5138374 0.4735052 0.4734341
0.5138374 0.4800219 0.4799754
0.5138374 0.4855515 0.4855210
0.5138374 0.4902269 0.4902068
0.5138374 0.4941665 0.4941533
0.5138374 0.4974759 0.4974672
0.5138374 0.5002482 0.5002424
0.5138374 0.5025647 0.5025609
0.5138374 0.5044963 0.5044938
0.5138374 0.5061039 0.5061023
0.0000000 0.1590909 0.0000000
0.0227273 0.1590909 0.0000000
0.0454545 0.1590909 0.0000000
0.0681818 0.1590909 0.0000000
0.0909091 0.1590909 0.0000000
0.1136364 0.1590909 0.0000000
0.1363636 0.1590909 0.0000000
0.1590909 0.1590909 0.0000000
0.1818182 0.1590909 0.0000000
0.2045455 0.1590909 0.0000000
0.2272727 0.1590909 0.0000000
0.2500000 0.1590909 0.0000000
0.2727273 0.1590909 0.0000000
0.2954545 0.1590909 0.0000000
0.3181818 0.1590909 0.0000000
0.3409091 0.1590909 0.0000000
0.3636364 0.1590909 0.0000000
0.3863636 0.1590909 0.0000000
0.4090909 0.1590909 0.0000000
0.4318182 0.1590909 0.0000000
0.4545455 0.1590909 0.0000000
0.4772727 0.1590909 0.0000000
0.5000000 0.1590909 0.0000000
0.5227273 0.1590909 0.0000000
0.5138374 0.2604133 0.2356456
0.5138374 0.3035526 0.2917265
0.5138374 0.3365040 0.3301152
0.5138374 0.3631808 0.3595003
0.5138374 0.3854630 0.3832583
0.5138374 0.4043990 0.4030439
0.5138374 0.4206395 0.4197913
0.5138374 0.4346249 0.4340870
0.5138374 0.4466780 0.4463335
0.5138374 0.4570521 0.4568297
0.5138374 0.4659576 0.4658133
0.5138374 0.4735766 0.4734825
0.5138374 0.4800707 0.4800091
0.5138374 0.4855848 0.4855444
0.5138374 0.4902495 0.4902229
0.5138374 0.4941818 0.4941643
0.5138374 0.4974863 0.4974747
0.5138374 0.5002551 0.5002475
0.5138374 0.5025694 0.5025644
0.5138374 0.5044995 0.5044961
0.5138374 0.5061060 0.5061038
0.0000000 0.1818182 0.0000000
0.0227273 0.1818182 0.0000000
0.0454545 0.1818182 0.0000000
0.0681818 0.1818182 0.0000000
0.0909091 0.1818182 0.0000000
0.1136364 0.1818182 0.0000000
0.1363636 0.1818182 0.0000000
0.1590909 0.1818182 0.0000000
0.1818182 0.1818182 0.0000000
0.2045455 0.1818182 0.0000000
0.2272727 0.1818182 0.0000000
0.2500000 0.1818182 0.0000000
0.2727273 0.1818182 0.0000000
0.2954545 0.1818182 0.0000000
0.3181818 0.1818182 0.0000000
0.3409091 0.1818182 0.0000000
0.3636364 0.1818182 0.0000000
0.3863636 0.1818182 0.0000000
0.4090909 0.1818182 0.0000000
0.4318182 0.1818182 0.0000000
0.4545455 0.1818182 0.0000000
0.4772727 0.1818182 0.0000000
0.5000000 0.1818182 0.0000000
0.5227273 0.1818182 0.0000000
0.5138374 0.2680935 0.2372392
0.5138374 0.3080014 0.2930145
0.5138374 0.3392899 0.3311195
0.5138374 0.3650023 0.3602691
0.5138374 0.3866844 0.3838387
0.5138374 0.4052305 0.4034767
0.5138374 0.4212102 0.4201105
0.5138374 0.4350182 0.4343198
0.5138374 0.4469494 0.4465016
0.5138374 0.4572391 0.4569499
0.5138374 0.4660863 0.4658985
0.5138374 0.4736649 0.4735424
0.5138374 0.4801311 0.4800509
0.5138374 0.4856260 0.4855733
0.5138374 0.4902774 0.4902428
0.5138374 0.4942008 0.4941779
0.5138374 0.4974991 0.4974840
0.5138374 0.5002638 0.5002538
0.5138374 0.5025752 0.5025686
0.5138374 0.5045034 0.5044990
0.5138374 0.5061087 0.5061058
0.0000000 0.2045455 0.0000000
0.0227273 0.2045455 0.0000000
0.0454545 0.2045455 0.0000000
0.0681818 0.2045455 0.0000000
0.0909091 0.2045455 0.0000000
0.1136364 0.2045455 0.0000000
0.1363636 0.2045455 0.0000000
0.1590909 0.2045455 0.0000000
0.1818182 0.2045455 0.0000000
0.2045455 0.2045455 0.0000000
0.2272727 0.2045455 0.0000000
0.2500000 0.2045455 0.0000000
0.2727273 0.2045455 0.0000000
0.2954545 0.2045455 0.0000000
0.3181818 0.2045455 0.0000000
0.3409091 0.2045455 0.0000000
0.3636364 0.2045455 0.0000000
0.3863636 0.2045455 0.0000000
0.4090909 0.2045455 0.0000000
0.4318182 0.2045455 0.0000000
0.4545455 0.2045455 0.0000000
0.4772727 0.2045455 0.0000000
0.5000000 0.2045455 0.0000000
0.5227273 0.2045455 0.0000000
0.5138374 0.2768782 0.2391770
0.5138374 0.3132495 0.2945838
0.5138374 0.3426298 0.3323459
0.5138374 0.3672069 0.3612099
0.5138374 0.3881719 0.3845503
0.5138374 0.4062472 0.4040083
0.5138374 0.4219102 0.4205030
0.5138374 0.4355017 0.4346065
0.5138374 0.4472835 0.4467088
0.5138374 0.4574698 0.4570982
0.5138374 0.4662451 0.4660036
0.5138374 0.4737740 0.4736163
0.5138374 0.4802057 0.4801025
0.5138374 0.4856769 0.4856091
0.5138374 0.4903121 0.4902674
0.5138374 0.4942242 0.4941948
0.5138374 0.4975149 0.4974955
0.5138374 0.5002745 0.5002616
0.5138374 0.5025824 0.5025739
0.5138374 0.5045082 0.5045026
0.5138374 0.5061119 0.5061082
0.0000000 0.2272727 0.0000000
0.0227273 0.2272727 0.0000000
0.0454545 0.2272727 0.0000000
0.0681818 0.2272727 0.0000000
0.0909091 0.2272727 0.0000000
0.1136364 0.2272727 0.0000000
0.1363636 0.2272727 0.0000000
0.1590909 0.2272727 0.0000000
0.1818182 0.2272727 0.0000000
0.2045455 0.2272727 0.0000000
0.2272727 0.2272727 0.0000000
0.2500000 0.2272727 0.0000000
0.2727273 0.2272727 0.0000000
0.2954545 0.2272727 0.0000000
0.3181818 0.2272727 0.0000000
0.3409091 0.2272727 0.0000000
0.3636364 0.2272727 0.0000000
0.3863636 0.2272727 0.0000000
0.4090909 0.2272727 0.0000000
0.4318182 0.2272727 0.0000000
0.4545455 0.2272727 0.0000000
0.4772727 0.2272727 0.0000000
0.5000000 0.2272727 0.0000000
0.5227273 0.2272727 0.0000000
0.5138374 0.2868135 0.2415236
0.5138374 0.3193857 0.2964887
0.5138374 0.3466072 0.3338385
0.5138374 0.3698618 0.3623578
0.5138374 0.3899763 0.3854205
0.5138374 0.4074868 0.4046597
0.5138374 0.4227667 0.4209848
0.5138374 0.4360949 0.4349589
0.5138374 0.4476943 0.4469638
0.5138374 0.4577538 0.4572810
0.5138374 0.4664410 0.4661334
0.5138374 0.4739086 0.4737077
0.5138374 0.4802980 0.4801662
0.5138374 0.4857398 0.4856533
0.5138374 0.4903549 0.4902979
0.5138374 0.4942533 0.4942157
0.5138374 0.4975346 0.4975097
0.5138374 0.5002877 0.5002713
0.5138374 0.5025913 0.5025805
0.5138374 0.5045142 0.5045070
0.5138374 0.5061159 0.5061111
0.0000000 0.2500000 0.0000000
0.0227273 0.2500000 0.0000000
0.0454545 0.2500000 0.0000000
0.0681818 0.2500000 0.0000000
0.0909091 0.2500000 0.0000000
0.1136364 0.2500000 0.0000000
0.1363636 0.2500000 0.0000000
0.1590909 0.2500000 0.0000000
0.1818182 0.2500000 0.0000000
0.2045455 0.2500000 0.0000000
0.2272727 0.2500000 0.0000000
0.2500000 0.2500000 0.0000000
0.2727273 0.2500000 0.0000000
0.2954545 0.2500000 0.0000000
0.3181818 0.2500000 0.0000000
0.3409091 0.2500000 0.0000000
0.3636364 0.2500000 0.0000000
0.3863636 0.2500000 0.0000000
0.4090909 0.2500000 0.0000000
0.4318182 0.2500000 0.0000000
0.4545455 0.2500000 0.0000000
0.4772727 0.2500000 0.0000000
0.5000000 0.2500000 0.0000000
0.5227273 0.2500000 0.0000000
0.5138374 0.2979185 0.2443510
0.5138374 0.3264895 0.2987903
0.5138374 0.3513070 0.3356477
0.5138374 0.3730396 0.3637533
0.5138374 0.3921547 0.3864813
0.5138374 0.4089923 0.4054556
0.5138374 0.4238115 0.4215749
0.5138374 0.4368208 0.4353914
0.5138374 0.4481983 0.4472773
0.5138374 0.4581029 0.4575059
0.5138374 0.4666821 0.4662932
0.5138374 0.4740746 0.4738203
0.5138374 0.4804118 0.4802450
0.5138374 0.4858176 0.4857079
0.5138374 0.4904078 0.4903356
0.5138374 0.4942892 0.4942415
0.5138374 0.4975589 0.4975274
0.5138374 0.5003041 0.5002833
0.5138374 0.5026024 0.5025886
0.5138374 0.5045216 0.5045125
0.5138374 0.5061209 0.5061148
0.0000000 0.2727273 0.0000000
0.0227273 0.2727273 0.0000000
0.0454545 0.2727273 0.0000000
0.0681818 0.2727273 0.0000000
0.0909091 0.2727273 0.0000000
0.1136364 0.2727273 0.0000000
0.1363636 0.2727273 0.0000000
0.1590909 0.2727273 0.0000000
0.1818182 0.2727273 0.0000000
0.2045455 0.2727273 0.0000000
0.2272727 0.2727273 0.0000000
0.2500000 0.2727273 0.0000000
0.2727273 0.2727273 0.0000000
0.2954545 0.2727273 0.0000000
0.3181818 0.2727273 0.0000000
0.3409091 0.2727273 0.0000000
0.3636364 0.2727273 0.0000000
0.3863636 0.2727273 0.0000000
0.4090909 0.2727273 0.0000000
0.4318182 0.2727273 0.0000000
0.4545455 0.2727273 0.0000000
0.4772727 0.2727273 0.0000000
0.5000000 0.2727273 0.0000000
0.5227273 0.2727273 0.0000000
0.5138374 0.3101832 0.2477380
0.5138374 0.3346248 0.3015561
0.5138374 0.3568116 0.3378298
0.5138374 0.3768165 0.3654425
0.5138374 0.3947699 0.3877696
0.5138374 0.4108126 0.4064251
0.5138374 0.4250813 0.4222955
0.5138374 0.4377066 0.4359206
0.5138374 0.4488151 0.4476617
0.5138374 0.4585313 0.4577822
0.5138374 0.4669785 0.4664899
0.5138374 0.4742789 0.4739590
0.5138374 0.4805520 0.4803420
0.5138374 0.4859135 0.4857754
0.5138374 0.4904732 0.4903821
0.5138374 0.4943336 0.4942735
0.5138374 0.4975889 0.4975492
0.5138374 0.5003244 0.5002981
0.5138374 0.5026160 0.5025986
0.5138374 0.5045308 0.5045193
0.5138374 0.5061271 0.5061194
0.0000000 0.2954545 0.0000000
0.0227273 0.2954545 0.0000000
0.0454545 0.2954545 0.0000000
0.0681818 0.2954545 0.0000000
0.0909091 0.2954545 0.0000000
0.1136364 0.2954545 0.0000000
0.1363636 0.2954545 0.0000000
0.1590909 0.2954545 0.0000000
0.1818182 0.2954545 0.0000000
0.2045455 0.2954545 0.0000000
0.2272727 0.2954545 0.0000000
0.2500000 0.2954545 0.0000000
0.2727273 0.2954545 0.0000000
0.2954545 0.2954545 0.0000000
0.3181818 0.2954545 0.0000000
0.3409091 0.2954545 0.0000000
0.3636364 0.2954545 0.0000000
0.3863636 0.2954545 0.0000000
0.4090909 0.2954545 0.0000000
0.4318182 0.2954545 0.0000000
0.4545455 0.2954545 0.0000000
0.4772727 0.2954545 0.0000000
0.5000000 0.2954545 0.0000000
0.5227273 0.2954545 0.0000000
0.5138374 0.3235677 0.2517673
0.5138374 0.3438334 0.3048584
0.5138374 0.3631946 0.3404466
0.5138374 0.3812687 0.3674767
0.5138374 0.3978885 0.3893270
0.5138374 0.4130016 0.4076013
0.5138374 0.4266179 0.4231724
0.5138374 0.4387836 0.4365665
0.5138374 0.4495679 0.4481320
0.5138374 0.4590556 0.4581210
0.5138374 0.4673422 0.4667315
0.5138374 0.4745301 0.4741297
0.5138374 0.4807248 0.4804616
0.5138374 0.4860318 0.4858585
0.5138374 0.4905538 0.4904395
0.5138374 0.4943884 0.4943129
0.5138374 0.4976261 0.4975761
0.5138374 0.5003495 0.5003164
0.5138374 0.5026329 0.5026111
0.5138374 0.5045422 0.5045277
0.5138374 0.5061347 0.5061251
0.0000000 0.3181818 0.0000000
0.0227273 0.3181818 0.0000000
0.0454545 0.3181818 0.0000000
0.0681818 0.3181818 0.0000000
0.0909091 0.3181818 0.0000000
0.1136364 0.3181818 0.0000000
0.1363636 0.3181818 0.0000000
0.1590909 0.3181818 0.0000000
0.1818182 0.3181818 0.0000000
0.2045455 0.3181818 0.0000000
0.2272727 0.3181818 0.0000000
0.2500000 0.3181818 0.0000000
0.2727273 0.3181818 0.0000000
0.2954545 0.3181818 0.0000000
0.3181818 0.3181818 0.0000000
0.3409091 0.3181818 0.0000000
0.3636364 0.3181818 0.0000000
0.3863636 0.3181818 0.0000000
0.4090909 0.3181818 0.0000000
0.4318182 0.3181818 0.0000000
0.4545455 0.3181818 0.0000000
0.4772727 0.3181818 0.0000000
0.5000000 0.3181818 0.0000000
0.5227273 0.3181818 0.0000000
0.5138374 0.3380037 0.2565229
0.5138374 0.3541294 0.3087718
0.5138374 0.3705148 0.3435629
0.5138374 0.3864679 0.3699113
0.5138374 0.4015786 0.3911996
0.5138374 0.4156170 0.4090215
0.5138374 0.4284674 0.4242352
0.5138374 0.4400874 0.4373520
0.5138374 0.4504833 0.4487056
0.5138374 0.4596955 0.4585352
0.5138374 0.4677873 0.4670275
0.5138374 0.4748382 0.4743393
0.5138374 0.4809370 0.4806087
0.5138374 0.4861774 0.4859609
0.5138374 0.4906533 0.4905104
0.5138374 0.4944560 0.4943616
0.5138374 0.4976719 0.4976094
0.5138374 0.5003805 0.5003391
0.5138374 0.5026538 0.5026264
0.5138374 0.5045562 0.5045380
0.5138374 0.5061441 0.5061321
0.0000000 0.3409091 0.0000000
0.0227273 0.3409091 0.0000000
0.0454545 0.3409091 0.0000000
0.0681818 0.3409091 0.0000000
0.0909091 0.3409091 0.0000000
0.1136364 0.3409091 0.0000000
0.1363636 0.3409091 0.0000000
0.1590909 0.3409091 0.0000000
0.1818182 0.3409091 0.0000000
0.2045455 0.3409091 0.0000000
0.2272727 0.3409091 0.0000000
0.2500000 0.3409091 0.0000000
0.2727273 0.3409091 0.0000000
0.2954545 0.3409091 0.0000000
0.3181818 0.3409091 0.0000000
0.3409091 0.3409091 0.0000000
0.3636364 0.3409091 0.0000000
0.3863636 0.3409091 0.0000000
0.4090909 0.3409091 0.0000000
0.4318182 0.3409091 0.0000000
0.4545455 0.3409091 0.0000000
0.4772727 0.3409091 0.0000000
0.5000000 0.3409091 0.0000000
0.5227273 0.3409091 0.0000000
0.5138374 0.3533992 0.2620852
0.5138374 0.3654951 0.3133693
0.5138374 0.3788091 0.3472444
0.5138374 0.3924754 0.3728036
0.5138374 0.4059055 0.3934363
0.5138374 0.4187184 0.4107262
0.5138374 0.4306797 0.4255168
0.5138374 0.4416574 0.4383029
0.5138374 0.4515917 0.4494026
0.5138374 0.4604736 0.4590401
0.5138374 0.4683305 0.4673893
0.5138374 0.4752153 0.4745960
0.5138374 0.4811975 0.4807892
0.5138374 0.4863563 0.4860868
0.5138374 0.4907757 0.4905976
0.5138374 0.4945394 0.4944216
0.5138374 0.4977285 0.4976505
0.5138374 0.5004188 0.5003671
0.5138374 0.5026797 0.5026454
0.5138374 0.5045736 0.5045509
0.5138374 0.5061558 0.5061407
0.0000000 0.3636364 0.0000000
0.0227273 0.3636364 0.0000000
0.0454545 0.3636364 0.0000000
0.0681818 0.3636364 0.0000000
0.0909091 0.3636364 0.0000000
0.1136364 0.3636364 0.0000000
0.1363636 0.3636364 0.0000000
0.1590909 0.3636364 0.0000000
0.1818182 0.3636364 0.0000000
0.2045455 0.3636364 0.0000000
0.2272727 0.3636364 0.0000000
0.2500000 0.3636364 0.0000000
0.2727273 0.3636364 0.0000000
0.2954545 0.3636364 0.0000000
0.3181818 0.3636364 0.0000000
0.3409091 0.3636364 0.0000000
0.3636364 0.3636364 0.0000000
0.3863636 0.3636364 0.0000000
0.4090909 0.3636364 0.0000000
0.4318182 0.3636364 0.0000000
0.4545455 0.3636364 0.0000000
0.4772727 0.3636364 0.0000000
0.5000000 0.3636364 0.0000000
0.5227273 0.3636364 0.0000000
0.5138374 0.3696424 0.2685252
0.5138374 0.3778795 0.3187172
0.5138374 0.3880864 0.3515532
0.5138374 0.3993351 0.3762105
0.5138374 0.4109270 0.3960874
0.5138374 0.4223636 0.4127586
0.5138374 0.4333061 0.4270529
0.5138374 0.4435364 0.4394483
0.5138374 0.4529266 0.4502456
0.5138374 0.4614156 0.4596531
0.5138374 0.4689909 0.4678300
0.5138374 0.4756754 0.4749096
0.5138374 0.4815161 0.4810103
0.5138374 0.4865758 0.4862414
0.5138374 0.4909261 0.4907048
0.5138374 0.4946421 0.4944955
0.5138374 0.4977983 0.4977012
0.5138374 0.5004660 0.5004016
0.5138374 0.5027116 0.5026689
0.5138374 0.5045951 0.5045668
0.5138374 0.5061702 0.5061514
0.0000000 0.3863636 0.0000000
0.0227273 0.3863636 0.0000000
0.0454545 0.3863636 0.0000000
0.0681818 0.3863636 0.0000000
0.0909091 0.3863636 0.0000000
0.1136364 0.3863636 0.0000000
0.1363636 0.3863636 0.0000000
0.1590909 0.3863636 0.0000000
0.1818182 0.3863636 0.0000000
0.2045455 0.3863636 0.0000000
0.2272727 0.3863636 0.0000000
0.2500000 0.3863636 0.0000000
0.2727273 0.3863636 0.0000000
0.2954545 0.3863636 0.0000000
0.3181818 0.3863636 0.0000000
0.3409091 0.3863636 0.0000000
0.3636364 0.3863636 0.0000000
0.3863636 0.3863636 0.0000000
0.4090909 0.3863636 0.0000000
0.4318182 0.3863636 0.0000000
0.4545455 0.3863636 0.0000000
0.4772727 0.3863636 0.0000000
0.5000000 0.3863636 0.0000000
