release/datafiles/colormanagement/LUTs/guard_rail_p3.cube
TITLE "Guard Rail P3"
# Guard Rail Formation for P3 medium.
# The Guard Rail is designed to leaves valid value as-is, and only touch out of domain valuesModified from python script shared by Sakari Kapanen
# This LUT assumes E Gamut encoded in ST2084 (10) curve and then power 1.5
# LUT resolution 50
LUT_3D_SIZE 8
0.0000000 0.0000000 0.0000000
0.1370042 0.0427287 0.0427287
0.2750230 0.1071938 0.1071938
0.4134450 0.1858509 0.1858509
0.5520629 0.2761305 0.2761305
0.6102224 0.4753249 0.4753249
0.6299891 0.5785706 0.5785706
0.6428879 0.6246630 0.6246630
0.0776181 0.1447558 0.0776181
0.1464501 0.1464501 0.0679328
0.2785635 0.1661929 0.1172629
0.4148008 0.2146563 0.1899732
0.5526018 0.2893203 0.2778953
0.6104537 0.4773662 0.4763583
0.6300717 0.5789442 0.5788359
0.6429051 0.6247237 0.6247100
0.1737570 0.2866227 0.1737570
0.1763723 0.2861430 0.1313225
0.2902593 0.2902593 0.1566093
0.4205537 0.3060233 0.2098926
0.5552841 0.3447884 0.2872011
0.6117168 0.4880817 0.4818840
0.6305243 0.5809788 0.5802831
0.6430002 0.6250589 0.6249696
0.2797394 0.4271209 0.2797394
0.2780054 0.4273317 0.2654978
0.3164314 0.4285467 0.2266533
0.4328777 0.4328777 0.2569783
0.5619848 0.4468383 0.3136051
0.6156531 0.5176578 0.4979555
0.6319513 0.5872606 0.5847779
0.6433095 0.6261461 0.6258119
0.3928970 0.5665022 0.3928970
0.3924087 0.5667789 0.3878661
0.3891845 0.5683641 0.3507903
0.4575411 0.5703269 0.3324183
0.5745990 0.5745990 0.3662150
0.6245975 0.5709771 0.5289254
0.6352961 0.6012663 0.5949246
0.6440962 0.6288880 0.6279385
0.5559298 0.6341419 0.5559298
0.5561227 0.6341228 0.5556494
0.5571785 0.6340097 0.5540123
0.5604854 0.6335356 0.5474600
0.5888136 0.6355154 0.5539549
0.6402006 0.6402006 0.5692529
0.6410450 0.6234051 0.6111551
0.6456823 0.6343213 0.6321564
0.6223123 0.6454249 0.6223123
0.6223315 0.6454226 0.6222871
0.6224382 0.6454091 0.6221445
0.6227877 0.6453586 0.6216314
0.6242026 0.6452853 0.6204768
0.6325150 0.6462025 0.6232255
0.6480378 0.6480378 0.6286362
0.6480585 0.6422568 0.6382783
0.6421085 0.6496454 0.6421085
0.6421109 0.6496451 0.6421054
0.6421245 0.6496434 0.6420883
0.6421697 0.6496372 0.6420290
0.6422928 0.6496174 0.6418481
0.6428819 0.6496224 0.6416206
0.6455679 0.6499578 0.6425810
0.6505998 0.6505998 0.6444114
0.0455191 0.0455191 0.1063487
0.1329689 0.0688375 0.1329689
0.2728096 0.1185018 0.1642218
0.4126685 0.1898598 0.2141291
0.5518907 0.2770140 0.2884676
0.6102672 0.4752389 0.4762578
0.6299959 0.5785546 0.5786635
0.6428882 0.6246586 0.6246723
0.0934159 0.1470789 0.1470789
0.1428571 0.1428571 0.1428571
0.2857143 0.1428571 0.1428571
0.4204394 0.1901452 0.1901452
0.5550177 0.2781686 0.2781686
0.6104319 0.4768124 0.4768124
0.6300754 0.5789160 0.5789160
0.6429054 0.6247193 0.6247193
0.1788196 0.2869380 0.2042652
0.1733532 0.2860623 0.1733532
0.2864744 0.2864744 0.1540970
0.4230177 0.2994604 0.2094463
0.5571824 0.3388721 0.2873378
0.6116943 0.4875718 0.4823011
0.6305275 0.5809497 0.5803594
0.6430005 0.6250545 0.6249787
0.2815407 0.4271576 0.2919446
0.2799244 0.4273564 0.2799244
0.3082731 0.4284493 0.2252346
0.4319698 0.4319698 0.2563071
0.5628332 0.4451273 0.3135268
0.6156289 0.5172548 0.4982714
0.6319530 0.5872293 0.5848429
0.6433097 0.6261415 0.6258204
0.3935900 0.5664892 0.3978631
0.3931165 0.5667645 0.3931165
0.3899896 0.5683409 0.3585208
0.4552523 0.5703904 0.3319991
0.5743877 0.5743877 0.3660460
0.6245878 0.5707916 0.5291681
0.6352951 0.6012334 0.5949672
0.6440961 0.6288831 0.6279454
0.5559635 0.6341927 0.5564349
0.5561565 0.6341737 0.5561565
0.5572126 0.6340612 0.5545308
0.5605205 0.6335895 0.5480249
0.5885883 0.6355093 0.5540152
0.6402010 0.6402010 0.5692564
0.6410419 0.6233794 0.6111708
0.6456819 0.6343164 0.6321606
0.6223182 0.6454324 0.6223625
0.6223375 0.6454300 0.6223375
0.6224442 0.6454166 0.6221951
0.6227937 0.6453662 0.6216829
0.6241653 0.6452835 0.6204806
0.6324902 0.6462012 0.6232277
0.6480378 0.6480378 0.6286366
0.6480580 0.6422532 0.6382796
0.6421093 0.6496465 0.6421148
0.6421118 0.6496461 0.6421118
0.6421253 0.6496444 0.6420947
0.6421706 0.6496382 0.6420354
0.6422937 0.6496185 0.6418546
0.6428772 0.6496221 0.6416209
0.6455647 0.6499576 0.6425811
0.6505998 0.6505998 0.6444114
0.1105219 0.1105219 0.2207324
0.1477381 0.1193110 0.2306299
0.2662768 0.1565522 0.2662768
0.4080956 0.2119213 0.2989475
0.5496655 0.2877163 0.3429601
0.6106341 0.4755877 0.4821669
0.6300609 0.5785735 0.5792896
0.6428982 0.6246601 0.6247505
0.1354005 0.1628790 0.2458406
0.1463118 0.1463118 0.2772294
0.2790137 0.1655279 0.2790137
0.4151630 0.2136681 0.2963176
0.5529272 0.2880946 0.3378649
0.6107772 0.4770095 0.4825531
0.6301354 0.5789154 0.5795203
0.6429138 0.6247157 0.6247922
0.2008495 0.2890966 0.2890966
0.1996939 0.2876355 0.2876355
0.2857143 0.2857143 0.2857143
0.4285714 0.2857143 0.2857143
0.5706877 0.2890535 0.2890535
0.6115757 0.4847057 0.4847057
0.6305464 0.5807908 0.5807908
0.6430022 0.6250300 0.6250300
0.2908085 0.4274066 0.3421946
0.2897426 0.4275442 0.3366740
0.2857143 0.4285714 0.2857143
0.4285714 0.4285714 0.2857143
0.5685871 0.4339611 0.3133260
0.6154975 0.5149773 0.5000921
0.6319634 0.5870571 0.5852103
0.6433108 0.6261161 0.6258679
0.3973468 0.5664227 0.4223421
0.3969517 0.5666902 0.4188284
0.3943341 0.5682189 0.3943341
0.4404141 0.5709151 0.3294932
0.5731810 0.5731810 0.3650807
0.6245153 0.5696681 0.5304301
0.6352898 0.6010499 0.5952076
0.6440957 0.6288559 0.6279840
0.5561529 0.6344769 0.5592344
0.5563461 0.6344585 0.5589667
0.5574037 0.6343494 0.5574037
0.5607174 0.6338911 0.5511524
0.5872896 0.6354741 0.5543599
0.6402032 0.6402032 0.5692764
0.6410249 0.6232351 0.6112597
0.6456795 0.6342888 0.6321841
0.6223516 0.6454740 0.6226433
0.6223708 0.6454717 0.6226185
0.6224776 0.6454584 0.6224776
0.6228275 0.6454087 0.6219708
0.6239545 0.6452733 0.6205020
0.6323503 0.6461938 0.6232401
0.6480381 0.6480381 0.6286384
0.6480549 0.6422330 0.6382874
0.6421142 0.6496523 0.6421503
0.6421167 0.6496520 0.6421473
0.6421302 0.6496503 0.6421302
0.6421755 0.6496442 0.6420711
0.6422986 0.6496245 0.6418910
0.6428507 0.6496205 0.6416223
0.6455469 0.6499564 0.6425819
0.6505999 0.6505999 0.6444116
0.1872988 0.1872988 0.3384207
0.2001615 0.1881095 0.3381893
0.2712983 0.2099396 0.3615401
0.3994577 0.2544960 0.3994577
0.5433260 0.3151566 0.4340619
0.6118839 0.4767953 0.5007065
0.6302824 0.5786409 0.5813997
0.6429348 0.6246747 0.6250244
0.1950593 0.2069350 0.3446869
0.1970090 0.1970090 0.3524725
0.2762490 0.2185979 0.3746624
0.4045655 0.2584184 0.4045655
0.5462549 0.3163771 0.4342784
0.6120239 0.4781954 0.5010281
0.6303562 0.5789822 0.5816221
0.6429503 0.6247302 0.6250656
0.2425319 0.2987544 0.3864483
0.2441842 0.2966823 0.3915355
0.2857143 0.2857143 0.4285714
0.4285714 0.2857143 0.4285714
0.5623229 0.3221301 0.4325309
0.6127861 0.4856506 0.5027142
0.6307587 0.5808354 0.5828287
0.6430360 0.6250364 0.6252930
0.3150367 0.4286962 0.4286962
0.3150243 0.4286814 0.4286814
0.3149779 0.4286263 0.4286263
0.4285714 0.4285714 0.4285714
0.5714286 0.4285714 0.4285714
0.6155205 0.5093846 0.5093846
0.6320120 0.5865139 0.5865139
0.6433156 0.6260331 0.6260331
0.4087895 0.5662659 0.4802970
0.4086086 0.5665098 0.4788454
0.4073666 0.5678935 0.4693286
0.4285714 0.5714286 0.4285714
0.5714286 0.5714286 0.4285714
0.6240595 0.5647817 0.5337822
0.6352779 0.6004381 0.5960583
0.6440953 0.6287658 0.6281182
0.5568036 0.6354456 0.5684339
0.5569978 0.6354294 0.5682004
0.5580611 0.6353324 0.5668376
0.5613961 0.6349206 0.5613961
0.5823289 0.6353425 0.5556423
0.6402107 0.6402107 0.5693437
0.6409669 0.6227351 0.6115732
0.6456716 0.6341957 0.6322655
0.6224647 0.6456150 0.6235908
0.6224840 0.6456128 0.6235668
0.6225911 0.6456001 0.6234310
0.6229421 0.6455526 0.6229421
0.6238453 0.6453744 0.6212751
0.6318570 0.6461676 0.6232836
0.6480391 0.6480391 0.6286447
0.6480443 0.6421638 0.6383142
0.6421307 0.6496721 0.6422702
0.6421332 0.6496718 0.6422672
0.6421467 0.6496701 0.6422503
0.6421920 0.6496641 0.6421920
0.6423154 0.6496449 0.6420142
0.6427596 0.6496150 0.6416270
0.6454860 0.6499526 0.6425844
0.6506000 0.6506000 0.6444124
0.2729805 0.2729805 0.4577780
0.2769432 0.2717323 0.4555982
0.3084682 0.2781861 0.4611751
0.3979701 0.3091000 0.4918794
0.5321706 0.3598468 0.5321706
0.6155012 0.4804261 0.5443942
0.6309233 0.5788621 0.5873235
0.6430394 0.6247182 0.6258021
0.2727750 0.2779271 0.4555976
0.2717813 0.2717813 0.4561713
0.3088523 0.2820602 0.4668149
0.4007128 0.3128129 0.4969869
0.5344623 0.3617251 0.5344623
0.6156336 0.4817686 0.5446054
0.6309951 0.5792018 0.5875236
0.6430548 0.6247735 0.6258420
0.2982529 0.3275408 0.4791119
0.2995220 0.3255195 0.4823660
0.3129028 0.3129028 0.5104128
0.4151030 0.3344153 0.5266571
0.5469261 0.3719737 0.5469261
0.6163560 0.4889314 0.5457217
0.6313871 0.5810457 0.5886093
0.6431395 0.6250788 0.6260622
0.3559469 0.4344761 0.5238045
0.3567333 0.4342613 0.5256403
0.3621499 0.4329167 0.5378474
0.4285714 0.4285714 0.5714286
0.5714286 0.4285714 0.5714286
0.6185675 0.5094901 0.5486078
0.6326032 0.5866771 0.5919129
0.6434136 0.6260651 0.6267714
0.4337397 0.5662908 0.5662908
0.4339099 0.5664838 0.5664838
0.4348605 0.5675615 0.5675615
0.4379458 0.5710572 0.5710572
0.5714286 0.5714286 0.5714286
0.6266797 0.5648460 0.5648460
0.6355194 0.5995889 0.5995889
0.6441022 0.6285307 0.6285307
0.5587354 0.6382577 0.5925829
0.5589331 0.6382479 0.5924328
0.5600164 0.6381883 0.5915575
0.5634274 0.6379200 0.5880689
0.5810198 0.6379259 0.5810198
0.6423523 0.6423523 0.5876876
0.6409310 0.6216014 0.6130990
0.6456523 0.6339355 0.6325138
0.6227883 0.6460164 0.6262611
0.6228078 0.6460145 0.6262397
0.6229159 0.6460037 0.6261181
0.6232705 0.6459627 0.6256804
0.6241856 0.6458060 0.6241856
0.6303858 0.6461151 0.6235888
0.6480418 0.6480418 0.6286625
0.6480138 0.6419620 0.6383949
0.6421775 0.6497283 0.6426095
0.6421800 0.6497281 0.6426066
0.6421936 0.6497264 0.6425904
0.6422391 0.6497208 0.6425343
0.6423631 0.6497025 0.6423631
0.6426524 0.6496376 0.6418196
0.6453046 0.6499411 0.6425919
0.6506004 0.6506004 0.6444146
0.3654947 0.3654947 0.5774933
0.3665132 0.3642265 0.5757301
0.3771142 0.3629273 0.5728616
0.4230174 0.3756438 0.5846458
0.5244436 0.4139427 0.6206543
0.6254127 0.4909866 0.6254127
0.6326800 0.5796259 0.6023718
0.6433184 0.6248447 0.6278427
0.3633562 0.3656276 0.5740376
0.3618640 0.3618640 0.5729366
0.3753832 0.3631729 0.5733845
0.4238124 0.3776434 0.5873148
0.5259055 0.4157271 0.6229298
0.6255333 0.4921984 0.6255333
0.6327471 0.5799613 0.6025211
0.6433333 0.6248997 0.6278793
0.3698608 0.3837641 0.5779595
0.3701025 0.3821187 0.5789827
0.3735108 0.3735108 0.5875175
0.4294641 0.3906693 0.6045095
0.5319273 0.4270111 0.6321508
0.6261970 0.4987019 0.6261970
0.6331128 0.5817822 0.6033318
0.6434155 0.6252027 0.6280808
0.4084013 0.4532874 0.6120999
0.4091723 0.4529556 0.6136151
0.4141230 0.4510866 0.6230424
0.4421999 0.4421999 0.6298673
0.5351237 0.4682122 0.6334894
0.6282977 0.5177068 0.6282977
0.6342476 0.5873417 0.6058068
0.6436815 0.6261814 0.6287305
0.4838630 0.5579106 0.6359219
0.4845475 0.5577062 0.6359285
0.4883650 0.5565444 0.6359660
0.5011566 0.5523127 0.6360976
0.5510246 0.5510246 0.6378880
0.6347123 0.5650903 0.6347123
0.6368080 0.5994533 0.6111201
0.6443475 0.6286212 0.6303360
0.5644057 0.6459858 0.6459858
0.5646166 0.6459965 0.6459965
0.5657768 0.6460557 0.6460557
0.5694868 0.6462481 0.6462481
0.5798188 0.6468084 0.6468084
0.6518940 0.6518940 0.6518940
0.6420102 0.6218246 0.6218246
0.6457526 0.6336828 0.6336828
0.6236544 0.6470778 0.6331325
0.6236744 0.6470768 0.6331176
0.6237855 0.6470711 0.6330334
0.6241510 0.6470482 0.6327294
0.6251030 0.6469520 0.6316852
0.6305593 0.6471310 0.6305593
0.6488657 0.6488657 0.6338848
0.6480138 0.6416165 0.6389303
0.6423004 0.6498752 0.6434930
0.6423029 0.6498749 0.6434904
0.6423167 0.6498736 0.6434759
0.6423627 0.6498688 0.6434255
0.6424882 0.6498533 0.6432717
0.6427825 0.6497968 0.6427825
0.6448860 0.6499409 0.6427768
0.6506013 0.6506013 0.6444204
0.4622493 0.4622493 0.6309495
0.4620385 0.4614700 0.6309187
0.4627453 0.4589506 0.6308545
0.4740577 0.4600280 0.6311826
0.5140301 0.4806934 0.6331332
0.5801806 0.5274982 0.6380369
0.6375430 0.5824768 0.6375430
0.6440534 0.6252370 0.6330266
0.4606370 0.4612101 0.6308756
0.4593263 0.4593263 0.6307824
0.4610364 0.4577698 0.6307743
0.4737740 0.4602800 0.6311831
0.5144131 0.4817046 0.6331842
0.5804062 0.5282470 0.6380861
0.6375986 0.5828021 0.6375986
0.6440672 0.6252909 0.6330551
0.4588662 0.4626650 0.6308802
0.4583633 0.4616124 0.6308333
0.4563241 0.4563241 0.6306141
0.4738393 0.4635388 0.6312917
0.5167932 0.4875546 0.6334907
0.5816624 0.5323441 0.6383598
0.6379024 0.5845683 0.6379024
0.6441432 0.6255881 0.6332128
0.4760834 0.4881712 0.6322410
0.4763418 0.4879627 0.6322399
0.4779842 0.4869682 0.6322461
0.4840921 0.4840921 0.6323072
0.5262810 0.5075479 0.6346667
0.5857888 0.5450717 0.6392608
0.6388488 0.5899624 0.6388488
0.6443894 0.6265484 0.6337210
0.5248029 0.5464438 0.6365660
0.5251362 0.5464756 0.6365802
0.5270144 0.5466766 0.6366618
0.5335201 0.5476397 0.6369664
0.5509052 0.5509052 0.6378758
0.5956814 0.5725396 0.6414763
0.6409928 0.6016257 0.6409928
0.6450061 0.6289423 0.6349790
0.5824682 0.6089943 0.6434405
0.5826259 0.6090115 0.6434502
0.5834969 0.6091043 0.6435035
0.5863262 0.6093759 0.6436761
0.5935486 0.6098223 0.6441084
0.6136417 0.6136417 0.6456239
0.6451805 0.6225025 0.6451805
0.6462388 0.6336812 0.6374247
0.6259593 0.6498024 0.6498024
0.6259811 0.6498040 0.6498040
0.6261024 0.6498130 0.6498130
0.6265044 0.6498431 0.6498431
0.6275814 0.6499238 0.6499238
0.6311174 0.6501928 0.6501928
0.6518940 0.6518940 0.6518940
0.6484037 0.6417207 0.6417207
0.6426142 0.6502463 0.6457060
0.6426167 0.6502462 0.6457041
0.6426309 0.6502455 0.6456939
0.6426784 0.6502431 0.6456585
0.6428085 0.6502348 0.6455500
0.6431171 0.6502007 0.6452022
0.6449748 0.6502926 0.6449748
0.6508982 0.6508982 0.6461636
0.5350361 0.5350361 0.6363342
0.5347399 0.5346366 0.6363014
0.5335984 0.5329049 0.6361657
0.5325680 0.5298002 0.6359654
0.5399717 0.5317315 0.6363616
0.5691206 0.5520330 0.6387886
0.6144216 0.5911121 0.6439073
0.6460492 0.6265621 0.6460492
0.5341526 0.5342565 0.6362582
0.5335315 0.5335315 0.6361957
0.5325861 0.5319906 0.6360785
0.5320606 0.5293857 0.6359244
0.5400178 0.5318893 0.6363717
0.5693490 0.5524080 0.6388217
0.6145507 0.5913810 0.6439353
0.6460603 0.6266134 0.6460603
0.5309322 0.5316428 0.6359961
0.5305186 0.5311249 0.6359534
0.5284339 0.5284339 0.6357361
0.5300759 0.5279644 0.6357754
0.5405504 0.5330699 0.6364547
0.5706482 0.5545178 0.6390099
0.6152553 0.5928440 0.6440884
0.6461216 0.6268966 0.6461216
0.5308388 0.5335734 0.6360928
0.5307557 0.5333881 0.6360799
0.5303919 0.5324435 0.6360167
0.5303007 0.5303007 0.6359027
0.5447501 0.5395501 0.6369738
0.5752038 0.5616658 0.6396711
0.6174433 0.5973452 0.6445676
0.6463203 0.6278117 0.6463203
0.5503479 0.5568774 0.6382051
0.5504766 0.5569180 0.6382132
0.5512159 0.5571659 0.6382605
0.5539429 0.5582516 0.6384469
0.5629697 0.5629697 0.6391518
0.5876089 0.5798900 0.6415166
0.6223596 0.6072518 0.6456670
0.6468203 0.6300955 0.6468203
0.5911061 0.6004007 0.6432153
0.5912270 0.6004642 0.6432270
0.5918955 0.6008158 0.6432916
0.5940743 0.6019646 0.6435040
0.5996568 0.6049327 0.6440599
0.6114707 0.6114707 0.6453062
0.6299859 0.6222533 0.6474489
0.6478019 0.6345030 0.6478019
0.6276472 0.6363471 0.6485784
0.6276676 0.6363504 0.6485801
0.6277814 0.6363687 0.6485896
0.6281598 0.6364278 0.6486211
0.6291839 0.6365717 0.6487050
0.6315845 0.6368010 0.6488931
0.6385631 0.6385631 0.6495589
0.6495290 0.6420279 0.6495290
0.6434234 0.6511748 0.6511748
0.6434262 0.6511750 0.6511750
0.6434417 0.6511763 0.6511763
0.6434939 0.6511806 0.6511806
0.6436384 0.6511926 0.6511926
0.6439932 0.6512220 0.6512220
0.6452455 0.6513264 0.6513264
0.6518940 0.6518940 0.6518940
