release/datafiles/colormanagement/luts/luminance_compensation_bt2020.cube
TITLE "Pre-formation 2012 Luminance Compensation for BT.2020 Target"
# Use CIE 2012 Luminance to Compensate for Some Out-of-Domain Values
# This LUT assumes input and output to be E Gamut encoded in Log2 (-10 stop to +15 stop)
# LUT resolution 50
LUT_3D_SIZE 5
DOMAIN_MIN 0.000000 0.000000 0.000000
DOMAIN_MAX 0.816327 0.816327 0.816327
-0.0000000 0.0000000 -0.0000000
0.2023088 0.0625050 0.0625003
0.4055297 0.2657282 0.2657214
0.6095861 0.4697846 0.4697778
0.8136670 0.6738655 0.6738587
0.0674457 0.2053624 0.0674414
0.2085881 0.2085882 0.1047507
0.4059359 0.2820072 0.2676458
0.6095985 0.4703275 0.4698350
0.8136674 0.6738814 0.6738603
0.2720991 0.4100140 0.2720932
0.2875278 0.4101041 0.2735930
0.4135619 0.4135620 0.3097246
0.6100080 0.4864693 0.4717601
0.8136798 0.6744241 0.6739176
0.4761973 0.6141121 0.4761913
0.4767101 0.6141147 0.4762355
0.4920074 0.6142052 0.4777334
0.6176693 0.6176695 0.5138320
0.8140894 0.6905619 0.6758427
0.6802794 0.8181942 0.6802734
0.6802944 0.8181943 0.6802747
0.6808070 0.8181969 0.6803189
0.6961006 0.8182874 0.6818167
0.8217517 0.8217518 0.7179144
0.0779340 0.0779347 0.1822454
0.2017874 0.1019186 0.2017865
0.4061155 0.2434108 0.2646931
0.6095990 0.4692616 0.4697458
0.8136674 0.6738504 0.6738577
0.0841814 0.2060868 0.2060861
0.2040816 0.2040816 0.2040816
0.4063904 0.2665867 0.2665819
0.6096113 0.4698098 0.4698030
0.8136677 0.6738663 0.6738594
0.2496212 0.4093658 0.2699495
0.2715273 0.4094440 0.2715231
0.4126697 0.4126698 0.3088324
0.6100176 0.4860889 0.4717274
0.8136802 0.6744091 0.6739167
0.4756630 0.6140930 0.4761305
0.4761808 0.6140956 0.4761748
0.4916094 0.6141857 0.4776747
0.6176435 0.6176437 0.5138062
0.8140896 0.6905509 0.6758417
0.6802640 0.8181937 0.6802717
0.6802789 0.8181937 0.6802729
0.6807917 0.8181963 0.6803172
0.6960891 0.8182868 0.6818150
0.8217509 0.8217511 0.7179136
0.2761687 0.2761695 0.3804803
0.2860412 0.2782898 0.3824680
0.4054205 0.3055516 0.4054194
0.6101889 0.4466576 0.4687187
0.8136803 0.6733272 0.6738257
0.2708833 0.2801805 0.3846281
0.2820156 0.2820163 0.3863271
0.4058690 0.3060003 0.4058681
0.6101971 0.4474925 0.4687747
0.8136807 0.6733433 0.6738274
0.2888663 0.4107719 0.4107711
0.2882630 0.4101684 0.4101678
0.4081633 0.4081633 0.4081633
0.6104721 0.4706683 0.4706636
0.8136930 0.6738914 0.6738847
0.4529208 0.6134452 0.4739846
0.4537028 0.6134475 0.4740311
0.4756089 0.6135256 0.4756047
0.6167513 0.6167514 0.5129140
0.8140992 0.6901705 0.6758091
0.6797294 0.8181745 0.6802109
0.6797446 0.8181746 0.6802121
0.6802624 0.8181772 0.6802564
0.6956910 0.8182673 0.6817563
0.8217252 0.8217253 0.7178879
0.4800709 0.4800717 0.5843824
0.4803779 0.4801372 0.5844441
0.4902210 0.4822656 0.5864400
0.6094890 0.5096201 0.6094879
0.8142703 0.6507147 0.6727987
0.4799423 0.4801859 0.5845005
0.4802503 0.4802511 0.5845619
0.4901228 0.4823715 0.5865497
0.6095021 0.5096332 0.6095010
0.8142705 0.6507392 0.6728003
0.4746132 0.4842057 0.5886573
0.4749649 0.4842622 0.5887097
0.4860972 0.4860980 0.5904087
0.6099507 0.5100819 0.6099498
0.8142788 0.6515741 0.6728564
0.4929654 0.6148711 0.6148702
0.4929480 0.6148536 0.6148528
0.4923446 0.6142501 0.6142494
0.6122449 0.6122449 0.6122449
0.8145537 0.6747499 0.6747452
0.6569795 0.8175268 0.6780649
0.6570024 0.8175268 0.6780663
0.6577844 0.8175291 0.6781128
0.6796906 0.8176073 0.6796863
0.8208330 0.8208331 0.7169956
0.6841473 0.6841481 0.7884588
0.6841562 0.6841500 0.7884606
0.6844632 0.6842155 0.7885223
0.6943055 0.6863441 0.7905185
0.8135702 0.7137013 0.8135692
0.6841435 0.6841514 0.7884623
0.6841525 0.6841533 0.7884641
0.6844595 0.6842188 0.7885257
0.6943027 0.6863472 0.7905217
0.8135706 0.7137017 0.8135695
0.6840149 0.6842656 0.7885804
0.6840239 0.6842675 0.7885821
0.6843319 0.6843328 0.7886435
0.6942045 0.6864531 0.7906313
0.8135837 0.7137148 0.8135827
0.6786845 0.6882857 0.7927374
0.6786948 0.6882873 0.7927389
0.6790466 0.6883438 0.7927914
0.6901789 0.6901796 0.7944903
0.8140323 0.7141635 0.8140314
0.6970476 0.8189532 0.8189524
0.6970471 0.8189527 0.8189519
0.6970296 0.8189352 0.8189344
0.6964263 0.8183317 0.8183310
0.8163265 0.8163265 0.8163265
