release/datafiles/colormanagement/luts/luminance_compensation_bt2020.cube
TITLE "Pre-formation 2012 Luminance Compensation for BT.2020 Target"
# Use CIE 2012 Luminance to Compensate for Some Out-of-Domain Values
# This LUT assumes input and output to be E Gamut encoded in Log2 (-10 stop to +15 stop)
# LUT resolution 50
LUT_3D_SIZE 8
-0.0000000 0.0000000 -0.0000000
0.1427232 0.0029147 0.0029143
0.2832715 0.1434695 0.1434631
0.4259301 0.2861286 0.2861218
0.5687705 0.4289691 0.4289622
0.7116263 0.5718248 0.5718180
0.8544833 0.7146818 0.7146750
0.9973404 0.8575390 0.8575321
0.0050918 0.1430125 0.0050913
0.1455870 0.1455871 0.0417497
0.2842334 0.1803795 0.1484792
0.4260265 0.2902754 0.2865704
0.5687788 0.4293292 0.4290002
0.7116270 0.5718552 0.5718212
0.8544834 0.7146844 0.7146753
0.9973404 0.8575392 0.8575321
0.1495246 0.2874399 0.1495191
0.1846845 0.2876818 0.1535320
0.2909175 0.2909177 0.1870802
0.4270531 0.3252107 0.2915976
0.5688756 0.4334502 0.4294488
0.7116352 0.5722151 0.5718591
0.8544841 0.7147148 0.7146784
0.9973405 0.8575417 0.8575324
0.2925124 0.4304272 0.2925064
0.2964330 0.4304478 0.2928538
0.3296700 0.4306965 0.2968254
0.4339780 0.4339781 0.3301407
0.5699075 0.4682299 0.4344769
0.7117321 0.5763340 0.5723078
0.8544923 0.7150747 0.7147164
0.9973412 0.8575721 0.8575356
0.4353805 0.5732953 0.4353745
0.4357206 0.5732970 0.4354038
0.4396169 0.5733176 0.4357508
0.4727020 0.5735669 0.4397190
0.5768522 0.5768523 0.4730149
0.7127644 0.6111006 0.5773359
0.8545892 0.7191933 0.7151651
0.9973494 0.8579320 0.8575735
0.5782385 0.7161533 0.5782325
0.5782672 0.7161535 0.5782350
0.5786072 0.7161552 0.5782643
0.5825014 0.7161759 0.5786113
0.6155738 0.7164252 0.5825792
0.7197108 0.7197109 0.6158734
0.8556215 0.7539589 0.7201932
0.9974463 0.8620507 0.8580222
0.7210958 0.8590105 0.7210898
0.7210982 0.8590106 0.7210900
0.7211269 0.8590107 0.7210924
0.7214668 0.8590124 0.7211217
0.7253608 0.8590331 0.7214688
0.7584322 0.8592824 0.7254366
0.8625680 0.8625682 0.7587307
0.9984786 0.8968161 0.8630503
0.8639529 1.0018677 0.8639469
0.8639531 1.0018677 0.8639469
0.8639555 1.0018677 0.8639471
0.8639842 1.0018679 0.8639496
0.8643242 1.0018696 0.8639789
0.8682182 1.0018902 0.8643259
0.9012894 1.0021395 0.8682938
1.0054252 1.0054253 0.9015879
0.0266258 0.0266263 0.1309370
0.1414259 0.0415574 0.1414252
0.2846855 0.0881363 0.1563512
0.4260387 0.2818452 0.2858732
0.5687791 0.4286233 0.4289410
0.7116270 0.5717958 0.5718162
0.8544834 0.7146794 0.7146748
0.9973404 0.8575388 0.8575321
0.0217646 0.1436696 0.1436693
0.1428571 0.1428571 0.1428571
0.2855804 0.1457719 0.1457715
0.4261286 0.2863266 0.2863203
0.5687873 0.4289858 0.4289789
0.7116277 0.5718262 0.5718194
0.8544834 0.7146820 0.7146751
0.9973404 0.8575390 0.8575321
0.0059455 0.2857278 0.1433534
0.1479489 0.2858697 0.1479484
0.2884442 0.2884442 0.1846068
0.4270906 0.3232366 0.2913363
0.5688836 0.4331326 0.4294275
0.7116359 0.5721863 0.5718573
0.8544841 0.7147123 0.7146783
0.9973405 0.8575415 0.8575324
0.2881455 0.4302770 0.2920250
0.2923818 0.4302970 0.2923762
0.3275416 0.4305389 0.2963891
0.4337747 0.4337748 0.3299374
0.5699102 0.4680678 0.4344547
0.7117328 0.5763073 0.5723060
0.8544924 0.7150723 0.7147162
0.9973412 0.8575719 0.8575356
0.4350272 0.5732826 0.4353342
0.4353695 0.5732843 0.4353635
0.4392902 0.5733049 0.4357109
0.4725272 0.5735536 0.4396825
0.5768351 0.5768353 0.4729978
0.7127646 0.6110870 0.5773340
0.8545892 0.7191911 0.7151649
0.9973494 0.8579318 0.8575735
0.5782089 0.7161523 0.5782291
0.5782376 0.7161524 0.5782316
0.5785778 0.7161541 0.5782609
0.5824740 0.7161748 0.5786080
0.6155591 0.7164240 0.5825761
0.7197093 0.7197095 0.6158720
0.8556215 0.7539578 0.7201930
0.9974463 0.8620505 0.8580222
0.7210933 0.8590105 0.7210895
0.7210957 0.8590105 0.7210897
0.7211244 0.8590106 0.7210921
0.7214643 0.8590123 0.7211214
0.7253585 0.8590330 0.7214685
0.7584309 0.8592823 0.7254363
0.8625679 0.8625681 0.7587306
0.9984786 0.8968160 0.8630503
0.8639527 1.0018677 0.8639469
0.8639529 1.0018677 0.8639469
0.8639553 1.0018677 0.8639471
0.8639840 1.0018678 0.8639496
0.8643239 1.0018696 0.8639789
0.8682180 1.0018902 0.8643259
0.9012893 1.0021395 0.8682937
1.0054252 1.0054253 0.9015879
0.1550598 0.1550606 0.2593713
0.1792068 0.1601034 0.2640517
0.2830706 0.1832017 0.2830696
0.4272483 0.2325744 0.3024248
0.5688882 0.4243094 0.4286925
0.7116355 0.5714499 0.5717950
0.8544841 0.7146504 0.7146730
0.9973405 0.8575363 0.8575320
0.1505809 0.1752764 0.2697315
0.1694830 0.1694834 0.2737942
0.2842830 0.1844145 0.2842824
0.4275426 0.2309934 0.2992083
0.5688958 0.4247024 0.4287303
0.7116362 0.5714804 0.5717982
0.8544841 0.7146530 0.7146733
0.9973405 0.8575365 0.8575320
0.1662850 0.2881905 0.2881898
0.1646217 0.2865268 0.2865265
0.2857143 0.2857143 0.2857143
0.4284375 0.2886290 0.2886286
0.5689858 0.4291837 0.4291774
0.7116444 0.5718429 0.5718361
0.8544848 0.7146834 0.7146765
0.9973406 0.8575391 0.8575322
0.1075016 0.4286282 0.2877700
0.1488026 0.4285850 0.2862105
0.2908061 0.4287268 0.2908056
0.4313013 0.4313014 0.3274639
0.5699477 0.4660937 0.4341935
0.7117407 0.5759897 0.5722846
0.8544931 0.7150435 0.7147145
0.9973413 0.8575695 0.8575354
0.4306317 0.5731325 0.4348525
0.4310027 0.5731342 0.4348822
0.4352389 0.5731542 0.4352333
0.4703988 0.5733961 0.4392463
0.5766318 0.5766320 0.4727945
0.7127673 0.6109249 0.5773119
0.8545899 0.7191645 0.7151631
0.9973495 0.8579294 0.8575734
0.5778554 0.7161396 0.5781889
0.5778843 0.7161397 0.5781914
0.5782267 0.7161415 0.5782207
0.5821473 0.7161621 0.5785681
0.6153843 0.7164108 0.5825396
0.7196923 0.7196924 0.6158549
0.8556217 0.7539441 0.7201912
0.9974464 0.8620483 0.8580220
0.7210636 0.8590094 0.7210861
0.7210661 0.8590094 0.7210863
0.7210948 0.8590095 0.7210888
0.7214349 0.8590113 0.7211181
0.7253311 0.8590319 0.7214651
0.7584163 0.8592812 0.7254333
0.8625665 0.8625666 0.7587292
0.9984787 0.8968149 0.8630502
0.8639502 1.0018676 0.8639466
0.8639504 1.0018676 0.8639466
0.8639528 1.0018676 0.8639468
0.8639815 1.0018678 0.8639493
0.8643215 1.0018695 0.8639786
0.8682157 1.0018901 0.8643256
0.9012881 1.0021394 0.8682935
1.0054251 1.0054252 0.9015877
0.2965218 0.2965227 0.4008334
0.2989043 0.2970302 0.4013105
0.3225620 0.3022282 0.4061486
0.4258246 0.3259557 0.4258235
0.5700808 0.3755607 0.4455408
0.7117447 0.5671334 0.5715465
0.8544926 0.7143044 0.7146518
0.9973412 0.8575073 0.8575302
0.2954714 0.2974255 0.4017668
0.2979169 0.2979177 0.4022285
0.3220639 0.3029606 0.4069088
0.4259278 0.3260589 0.4259267
0.5701054 0.3754316 0.4452819
0.7117453 0.5671665 0.5715496
0.8544927 0.7143070 0.7146521
0.9973412 0.8575076 0.8575302
0.2930397 0.3192708 0.4122076
0.2934381 0.3181336 0.4125886
0.3123401 0.3123406 0.4166513
0.4271401 0.3272717 0.4271395
0.5703998 0.3738505 0.4420655
0.7117529 0.5675595 0.5715874
0.8544934 0.7143376 0.7146553
0.9973413 0.8575101 0.8575305
0.3092799 0.4311855 0.4311846
0.3091421 0.4310477 0.4310469
0.3074789 0.4293839 0.4293836
0.4285714 0.4285714 0.4285714
0.5712947 0.4314861 0.4314858
0.7118429 0.5720409 0.5720345
0.8545016 0.7147000 0.7146932
0.9973420 0.8575405 0.8575337
0.2514491 0.5714962 0.4310104
0.2503587 0.5714854 0.4306271
0.2916598 0.5714421 0.4290677
0.4336632 0.5715840 0.4336627
0.5741584 0.5741585 0.4703211
0.7128049 0.6089509 0.5770506
0.8545979 0.7188468 0.7151418
0.9973502 0.8579006 0.8575716
0.5734575 0.7159895 0.5777072
0.5734888 0.7159896 0.5777097
0.5738598 0.7159913 0.5777393
0.5780961 0.7160113 0.5780905
0.6132559 0.7162532 0.5821034
0.7194890 0.7194891 0.6156516
0.8556245 0.7537821 0.7201690
0.9974471 0.8620216 0.8580203
0.7207101 0.8589967 0.7210458
0.7207126 0.8589967 0.7210460
0.7207414 0.8589969 0.7210485
0.7210838 0.8589986 0.7210778
0.7250044 0.8590192 0.7214252
0.7582415 0.8592679 0.7253968
0.8625494 0.8625495 0.7587121
0.9984789 0.8968013 0.8630483
0.8639206 1.0018665 0.8639432
0.8639208 1.0018665 0.8639432
0.8639232 1.0018665 0.8639434
0.8639519 1.0018667 0.8639459
0.8642920 1.0018684 0.8639752
0.8681883 1.0018891 0.8643223
0.9012734 1.0021383 0.8682904
1.0054236 1.0054238 0.9015863
0.4392601 0.4392609 0.5435717
0.4394636 0.4393043 0.5436125
0.4418410 0.4398131 0.5440909
0.4654594 0.4450240 0.5489421
0.5686731 0.4688042 0.5686720
0.7129358 0.5184286 0.5884196
0.8546017 0.7099877 0.7144033
0.9973498 0.8571613 0.8575090
0.4391751 0.4393365 0.5436498
0.4393790 0.4393798 0.5436906
0.4417614 0.4398873 0.5441677
0.4654191 0.4450853 0.5490057
0.5686817 0.4688128 0.5686807
0.7129379 0.5184178 0.5883979
0.8546018 0.7099905 0.7144036
0.9973498 0.8571616 0.8575090
0.4381191 0.4402406 0.5445846
0.4383285 0.4402826 0.5446240
0.4407740 0.4407749 0.5450856
0.4649211 0.4458177 0.5497660
0.5687849 0.4689160 0.5687839
0.7129626 0.5182887 0.5881391
0.8546024 0.7100237 0.7144068
0.9973498 0.8571641 0.8575093
0.4358646 0.4622221 0.5550339
0.4358968 0.4621279 0.5550647
0.4362952 0.4609907 0.5554458
0.4551973 0.4551977 0.5595084
0.5699973 0.4701288 0.5699967
0.7132569 0.5167077 0.5849226
0.8546101 0.7104167 0.7144446
0.9973505 0.8571947 0.8575124
0.4521486 0.5740542 0.5740534
0.4521370 0.5740426 0.5740418
0.4519993 0.5739048 0.5739040
0.4503360 0.5722410 0.5722408
0.5714286 0.5714286 0.5714286
0.7141518 0.5743433 0.5743429
0.8547000 0.7148980 0.7148917
0.9973587 0.8575572 0.8575504
0.3943970 0.7143543 0.5738997
0.3943063 0.7143533 0.5738676
0.3932159 0.7143425 0.5734842
0.4345169 0.7142993 0.5719248
0.5765204 0.7144411 0.5765198
0.7170156 0.7170157 0.6131782
0.8556620 0.7518080 0.7199078
0.9974550 0.8617040 0.8579989
0.7163120 0.8588466 0.7205641
0.7163146 0.8588466 0.7205643
0.7163459 0.8588468 0.7205668
0.7167170 0.8588485 0.7205964
0.7209532 0.8588685 0.7209476
0.7561130 0.8591104 0.7249606
0.8623461 0.8623462 0.7585088
0.9984816 0.8966392 0.8630262
0.8635671 1.0018539 0.8639029
0.8635673 1.0018539 0.8639030
0.8635697 1.0018539 0.8639032
0.8635986 1.0018540 0.8639056
0.8639409 1.0018558 0.8639350
0.8678616 1.0018764 0.8642824
0.9010986 1.0021250 0.8682539
1.0054065 1.0054067 0.9015692
0.5821072 0.5821081 0.6864188
0.5821243 0.5821117 0.6864222
0.5823278 0.5821551 0.6864631
0.5847048 0.5826640 0.6869416
0.6083199 0.5878760 0.6917939
0.7115295 0.6116606 0.7115284
0.8557928 0.6612867 0.7312786
0.9974589 0.8528446 0.8572605
0.5821001 0.5821144 0.6864254
0.5821172 0.5821181 0.6864288
0.5823207 0.5821615 0.6864696
0.5846981 0.5826702 0.6869480
0.6083165 0.5878812 0.6917993
0.7115302 0.6116613 0.7115291
0.8557930 0.6612858 0.7312767
0.9974589 0.8528448 0.8572605
0.5820150 0.5821900 0.6865036
0.5820322 0.5821937 0.6865070
0.5822361 0.5822370 0.6865477
0.5846186 0.5827445 0.6870248
0.6082762 0.5879424 0.6918629
0.7115389 0.6116700 0.7115378
0.8557951 0.6612749 0.7312550
0.9974589 0.8528476 0.8572607
0.5809586 0.5830942 0.6874384
0.5809762 0.5830978 0.6874417
0.5811857 0.5831397 0.6874811
0.5836312 0.5836320 0.6879427
0.6077782 0.5886748 0.6926231
0.7116420 0.6117732 0.7116410
0.8558197 0.6611459 0.7309962
0.9974596 0.8528808 0.8572639
0.5787190 0.6050872 0.6978885
0.5787217 0.6050793 0.6978910
0.5787539 0.6049850 0.6979218
0.5791523 0.6038478 0.6983029
0.5980544 0.5980549 0.7023656
0.7128544 0.6129859 0.7128538
0.8561141 0.6595648 0.7277797
0.9974672 0.8532738 0.8573017
0.5950067 0.7169123 0.7169115
0.5950057 0.7169113 0.7169105
0.5949941 0.7168998 0.7168989
0.5948564 0.7167620 0.7167612
0.5931932 0.7150982 0.7150979
0.7142857 0.7142857 0.7142857
0.8570090 0.7172004 0.7172000
0.9975572 0.8577552 0.8577488
0.5372618 0.8572115 0.7167595
0.5372541 0.8572114 0.7167568
0.5371634 0.8572105 0.7167247
0.5360730 0.8571996 0.7163414
0.5773741 0.8571564 0.7147819
0.7193775 0.8572983 0.7193770
0.8598727 0.8598728 0.7560354
0.9985191 0.8946652 0.8627649
0.8591689 1.0017038 0.8634212
0.8591691 1.0017038 0.8634212
0.8591718 1.0017038 0.8634214
0.8592031 1.0017039 0.8634239
0.8595741 1.0017056 0.8634536
0.8638104 1.0017256 0.8638048
0.8989702 1.0019675 0.8678177
1.0052032 1.0052034 0.9013659
0.7249635 0.7249644 0.8292751
0.7249649 0.7249647 0.8292754
0.7249821 0.7249683 0.8292788
0.7251855 0.7250117 0.8293197
0.7275625 0.7255206 0.8297982
0.7511773 0.7307327 0.8346506
0.8543865 0.7545176 0.8543855
0.9986499 0.8041439 0.8741358
0.7249629 0.7249649 0.8292756
0.7249644 0.7249652 0.8292759
0.7249815 0.7249688 0.8292794
0.7251849 0.7250122 0.8293202
0.7275619 0.7255211 0.8297987
0.7511770 0.7307332 0.8346511
0.8543866 0.7545177 0.8543855
0.9986500 0.8041438 0.8741357
0.7249558 0.7249712 0.8292822
0.7249572 0.7249716 0.8292825
0.7249744 0.7249752 0.8292859
0.7251778 0.7250186 0.8293268
0.7275552 0.7255274 0.8298052
0.7511736 0.7307383 0.8346564
0.8543873 0.7545184 0.8543863
0.9986501 0.8041429 0.8741339
0.7248707 0.7250469 0.8293604
0.7248722 0.7250472 0.8293607
0.7248893 0.7250508 0.8293641
0.7250933 0.7250941 0.8294048
0.7274757 0.7256016 0.8298820
0.7511334 0.7307996 0.8347200
0.8543960 0.7545271 0.8543950
0.9986522 0.8041321 0.8741122
0.7238142 0.7259511 0.8302953
0.7238157 0.7259514 0.8302955
0.7238334 0.7259549 0.8302989
0.7240428 0.7259969 0.8303383
0.7264883 0.7264891 0.8307999
0.7506354 0.7315320 0.8354802
0.8544992 0.7546303 0.8544981
0.9986768 0.8040030 0.8738534
0.7215759 0.7479450 0.8407454
0.7215761 0.7479443 0.8407456
0.7215788 0.7479364 0.8407482
0.7216111 0.7478422 0.8407790
0.7220095 0.7467050 0.8411601
0.7409115 0.7409120 0.8452227
0.8557116 0.7558431 0.8557110
0.9989712 0.8024220 0.8706369
0.7378639 0.8597695 0.8597687
0.7378638 0.8597695 0.8597686
0.7378629 0.8597685 0.8597676
0.7378513 0.8597569 0.8597561
0.7377135 0.8596191 0.8596183
0.7360503 0.8579553 0.8579551
0.8571429 0.8571429 0.8571429
0.9998661 0.8600576 0.8600572
0.6801196 1.0000686 0.8596169
0.6801189 1.0000686 0.8596167
0.6801113 1.0000685 0.8596140
0.6800205 1.0000676 0.8595818
0.6789301 1.0000568 0.8591985
0.7202312 1.0000136 0.8576391
0.8622347 1.0001554 0.8622341
1.0027299 1.0027299 0.8988925
0.8678206 0.8678214 0.9721322
0.8678207 0.8678215 0.9721322
0.8678221 0.8678218 0.9721325
0.8678393 0.8678254 0.9721359
0.8680427 0.8678688 0.9721768
0.8704197 0.8683777 0.9726553
0.8940345 0.8735898 0.9775077
0.9972437 0.8973748 0.9972426
0.8678205 0.8678215 0.9721322
0.8678207 0.8678215 0.9721322
0.8678221 0.8678218 0.9721325
0.8678392 0.8678255 0.9721360
0.8680427 0.8678689 0.9721768
0.8704196 0.8683778 0.9726553
0.8940344 0.8735899 0.9775078
0.9972437 0.8973748 0.9972426
0.8678199 0.8678220 0.9721328
0.8678201 0.8678220 0.9721328
0.8678215 0.8678223 0.9721331
0.8678386 0.8678260 0.9721365
0.8680421 0.8678694 0.9721774
0.8704191 0.8683783 0.9726559
0.8940342 0.8735903 0.9775082
0.9972437 0.8973749 0.9972427
0.8678128 0.8678284 0.9721393
0.8678129 0.8678284 0.9721394
0.8678144 0.8678287 0.9721397
0.8678315 0.8678324 0.9721431
0.8680350 0.8678757 0.9721839
0.8704124 0.8683845 0.9726623
0.8940308 0.8735954 0.9775136
0.9972445 0.8973756 0.9972434
0.8677277 0.8679040 0.9722175
0.8677279 0.8679040 0.9722176
0.8677293 0.8679043 0.9722178
0.8677465 0.8679080 0.9722213
0.8679504 0.8679513 0.9722620
0.8703328 0.8684588 0.9727391
0.8939905 0.8736567 0.9775772
0.9972532 0.8973843 0.9972521
0.8666712 0.8688082 0.9731524
0.8666714 0.8688082 0.9731524
0.8666729 0.8688085 0.9731527
0.8666905 0.8688121 0.9731560
0.8669000 0.8688540 0.9731954
0.8693455 0.8693463 0.9736570
0.8934925 0.8743891 0.9783374
0.9973563 0.8974875 0.9973553
0.8644330 0.8908022 0.9836025
0.8644331 0.8908022 0.9836025
0.8644333 0.8908015 0.9836027
0.8644360 0.8907936 0.9836053
0.8644682 0.8906993 0.9836361
0.8648666 0.8895621 0.9840172
0.8837687 0.8837691 0.9880799
0.9985687 0.8987002 0.9985681
0.8807211 1.0026267 1.0026259
0.8807211 1.0026267 1.0026258
0.8807210 1.0026266 1.0026258
0.8807200 1.0026256 1.0026248
0.8807084 1.0026140 1.0026132
0.8805707 1.0024763 1.0024755
0.8789074 1.0008125 1.0008122
1.0000000 1.0000000 1.0000000
