release/datafiles/colormanagement/LUTs/luminance_compensation_bt2020.cube
TITLE "Pre-formation 2012 Luminance Compensation for BT.2020 Target"
# Use CIE 2012 Luminance to Compensate for Some Out-of-Domain Values
# This LUT assumes input and output to be E Gamut encoded in Log2 (-10 stop to +15 stop)
# LUT resolution 50
LUT_3D_SIZE 5
DOMAIN_MIN 0.000000 0.000000 0.000000
DOMAIN_MAX 0.816327 0.816327 0.816327
-0.0000000 0.0000000 -0.0000000
0.2001963 0.0603925 0.0603878
0.4005309 0.2607293 0.2607225
0.6002729 0.4604715 0.4604646
0.8043510 0.6645495 0.6645426
0.0663801 0.2042968 0.0663759
0.2067199 0.2067200 0.1028826
0.4010708 0.2771421 0.2627807
0.6002962 0.4610252 0.4605328
0.8043516 0.6645657 0.6645446
0.2696538 0.4075687 0.2696479
0.2850401 0.4076164 0.2711054
0.4099719 0.4099720 0.3061346
0.6010544 0.4775157 0.4628065
0.8043750 0.6651193 0.6646128
0.4722688 0.6101836 0.4722628
0.4727797 0.6101844 0.4723052
0.4880159 0.6102136 0.4737419
0.6121834 0.6121836 0.5083461
0.8051334 0.6816060 0.6668867
0.6763499 0.8142646 0.6763439
0.6763648 0.8142647 0.6763451
0.6768756 0.8142655 0.6763875
0.6921080 0.8142948 0.6778241
0.8162650 0.8162652 0.7124277
0.0652853 0.0652860 0.1695968
0.1967480 0.0968792 0.1967470
0.4027578 0.2400531 0.2613354
0.6003733 0.4600359 0.4605200
0.8043539 0.6645369 0.6645443
0.0826035 0.2045089 0.2045083
0.2040816 0.2040816 0.2040816
0.4030798 0.2632761 0.2632713
0.6003963 0.4605948 0.4605880
0.8043546 0.6645531 0.6645462
0.2479833 0.4077280 0.2683117
0.2698385 0.4077552 0.2698342
0.4096697 0.4096698 0.3058324
0.6011458 0.4772171 0.4628557
0.8043779 0.6651068 0.6646144
0.4717716 0.6102016 0.4722392
0.4722876 0.6102024 0.4722816
0.4876546 0.6102309 0.4737199
0.6121837 0.6121839 0.5083464
0.8051361 0.6815973 0.6668882
0.6763355 0.8142652 0.6763432
0.6763504 0.8142652 0.6763444
0.6768614 0.8142660 0.6763868
0.6920975 0.8142953 0.6778235
0.8162650 0.8162652 0.7124277
0.2552716 0.2552724 0.3595831
0.2632788 0.2555274 0.3597056
0.3956610 0.2957921 0.3956599
0.6040465 0.4405152 0.4625763
0.8044542 0.6641012 0.6645997
0.2493308 0.2586281 0.3630756
0.2612810 0.2612817 0.3655925
0.3978027 0.2979339 0.3978017
0.6040593 0.4413547 0.4626369
0.8044549 0.6641175 0.6646016
0.2855946 0.4075002 0.4074994
0.2857526 0.4076580 0.4076574
0.4081633 0.4081633 0.4081633
0.6044812 0.4646774 0.4646727
0.8044779 0.6646764 0.6646696
0.4503208 0.6108452 0.4713846
0.4511005 0.6108452 0.4714288
0.4729295 0.6108462 0.4729252
0.6121942 0.6121943 0.5083569
0.8052275 0.6812988 0.6669373
0.6758381 0.8142832 0.6763195
0.6758532 0.8142833 0.6763208
0.6763692 0.8142840 0.6763633
0.6917362 0.8143125 0.6778015
0.8162654 0.8162655 0.7124280
0.4383644 0.4383653 0.5426760
0.4383561 0.4381154 0.5424223
0.4427535 0.4347980 0.5389725
0.5909515 0.4910826 0.5909504
0.8081277 0.6445722 0.6666562
0.4374835 0.4377271 0.5420417
0.4375126 0.4375134 0.5418242
0.4425629 0.4348115 0.5389897
0.5910710 0.4912021 0.5910700
0.8081281 0.6445968 0.6666579
0.4307720 0.4403646 0.5448161
0.4311667 0.4404640 0.5449115
0.4439421 0.4439428 0.5482535
0.5950327 0.4951640 0.5950318
0.8081410 0.6454363 0.6667186
0.4877164 0.6096220 0.6096212
0.4877346 0.6096402 0.6096394
0.4883586 0.6102640 0.6102634
0.6122449 0.6122449 0.6122449
0.8085628 0.6687591 0.6687543
0.6543796 0.8149268 0.6754650
0.6544024 0.8149268 0.6754662
0.6551821 0.8149268 0.6755105
0.6770111 0.8149278 0.6770069
0.8162759 0.8162760 0.7124385
0.5229221 0.5229230 0.6272337
0.5229873 0.5229811 0.6272917
0.5251887 0.5249411 0.6292478
0.5758069 0.5678455 0.6720199
0.7950296 0.6951608 0.7950286
0.5230716 0.5230794 0.6273903
0.5231366 0.5231374 0.6274482
0.5253327 0.5250921 0.6293989
0.5758711 0.5679156 0.6720901
0.7950331 0.6951642 0.7950321
0.5279667 0.5282174 0.6325321
0.5280267 0.5282703 0.6325849
0.5300569 0.5300577 0.6343685
0.5780260 0.5702746 0.6744529
0.7951527 0.6952838 0.7951516
0.5993681 0.6089692 0.7134209
0.5993887 0.6089813 0.7134329
0.6000961 0.6093934 0.7138410
0.6215477 0.6215484 0.7258592
0.7991144 0.6992456 0.7991134
0.6917975 0.8137031 0.8137023
0.6917980 0.8137036 0.8137028
0.6918163 0.8137219 0.8137211
0.6924402 0.8143456 0.8143450
0.8163265 0.8163265 0.8163265
