release/datafiles/colormanagement/LUTs/luminance_compensation_bt2020.cube
TITLE "Pre-formation 2012 Luminance Compensation for BT.2020 Target"
# Use CIE 2012 Luminance to Compensate for Some Out-of-Domain Values
# This LUT assumes input and output to be E Gamut encoded in Log2 (-10 stop to +15 stop)
# LUT resolution 50
LUT_3D_SIZE 8
-0.0000000 0.0000000 -0.0000000
0.1425847 0.0027762 0.0027758
0.2797845 0.1399825 0.1399761
0.4206564 0.2808549 0.2808481
0.5596161 0.4198146 0.4198078
0.7023107 0.5625092 0.5625023
0.8451672 0.7053658 0.7053589
0.9880243 0.8482229 0.8482160
0.0049773 0.1428981 0.0049768
0.1445821 0.1445822 0.0407448
0.2809595 0.1771056 0.1452053
0.4207867 0.2850357 0.2813306
0.5596228 0.4201732 0.4198442
0.7023120 0.5625402 0.5625062
0.8451673 0.7053684 0.7053592
0.9880243 0.8482231 0.8482160
0.1478151 0.2857304 0.1478095
0.1828877 0.2858851 0.1517353
0.2883437 0.2883439 0.1845064
0.4221495 0.3203071 0.2866940
0.5597010 0.4242755 0.4202742
0.7023274 0.5629073 0.5625513
0.8451686 0.7053994 0.7053630
0.9880244 0.8482257 0.8482164
0.2899304 0.4278452 0.2899244
0.2938407 0.4278555 0.2902615
0.3269583 0.4279847 0.2941136
0.4301853 0.4301854 0.3263480
0.5615194 0.4598418 0.4260888
0.7025086 0.5671105 0.5630843
0.8451841 0.7057665 0.7054082
0.9880257 0.8482567 0.8482202
0.4314530 0.5693678 0.4314470
0.4317920 0.5693684 0.4314751
0.4356741 0.5693748 0.4318080
0.4685964 0.5694613 0.4356134
0.5713671 0.5713672 0.4675298
0.7043723 0.6027085 0.5689438
0.8453653 0.7099695 0.7059412
0.9880412 0.8486238 0.8482653
0.5743091 0.7122239 0.5743031
0.5743377 0.7122240 0.5743055
0.5746765 0.7122245 0.5743336
0.5785565 0.7122310 0.5746665
0.6114662 0.7123176 0.5784716
0.7142242 0.7142244 0.6103869
0.8472291 0.7455665 0.7118007
0.9882224 0.8528268 0.8487983
0.7171662 0.8550810 0.7171602
0.7171686 0.8550810 0.7171604
0.7171972 0.8550810 0.7171627
0.7175359 0.8550816 0.7171908
0.7214158 0.8550881 0.7175237
0.7543244 0.8551746 0.7213288
0.8570814 0.8570815 0.7532440
0.9900862 0.8884237 0.8546579
0.8600233 0.9979381 0.8600173
0.8600235 0.9979381 0.8600173
0.8600259 0.9979381 0.8600175
0.8600545 0.9979382 0.8600199
0.8603933 0.9979387 0.8600480
0.8642731 0.9979452 0.8603809
0.8971816 0.9980318 0.8641860
0.9999385 0.9999386 0.8961012
0.0206328 0.0206333 0.1249440
0.1386849 0.0388164 0.1386842
0.2835543 0.0870050 0.1552200
0.4211511 0.2769577 0.2809856
0.5596822 0.4195264 0.4198441
0.7023163 0.5624851 0.5625054
0.8451677 0.7053637 0.7053592
0.9880244 0.8482227 0.8482160
0.0211985 0.1431035 0.1431033
0.1428571 0.1428571 0.1428571
0.2853957 0.1455872 0.1455868
0.4212703 0.2814683 0.2814620
0.5596888 0.4198872 0.4198804
0.7023176 0.5625161 0.5625092
0.8451678 0.7053663 0.7053595
0.9880244 0.8482229 0.8482161
0.0059307 0.2857130 0.1433386
0.1477950 0.2857157 0.1477945
0.2870832 0.2870832 0.1832458
0.4225207 0.3186667 0.2867664
0.5597657 0.4240147 0.4203096
0.7023330 0.5628834 0.5625544
0.8451691 0.7053973 0.7053633
0.9880245 0.8482255 0.8482164
0.2857568 0.4278883 0.2896362
0.2899822 0.4278975 0.2899766
0.3250172 0.4280146 0.2938648
0.4301240 0.4301241 0.3262867
0.5615705 0.4597281 0.4261150
0.7025141 0.5670886 0.5630873
0.8451846 0.7057645 0.7054085
0.9880258 0.8482565 0.8482202
0.4311243 0.5693798 0.4314314
0.4314655 0.5693803 0.4314595
0.4353719 0.5693867 0.4317927
0.4684454 0.5694718 0.4356007
0.5713673 0.5713674 0.4675300
0.7043766 0.6026990 0.5689460
0.8453657 0.7099676 0.7059414
0.9880412 0.8486236 0.8482653
0.5742816 0.7122249 0.5743018
0.5743102 0.7122250 0.5743042
0.5746491 0.7122255 0.5743323
0.5785312 0.7122320 0.5746652
0.6114535 0.7123184 0.5784705
0.7142242 0.7142244 0.6103869
0.8472294 0.7455656 0.7118009
0.9882224 0.8528266 0.8487983
0.7171639 0.8550811 0.7171601
0.7171663 0.8550811 0.7171603
0.7171949 0.8550811 0.7171626
0.7175336 0.8550816 0.7171907
0.7214137 0.8550881 0.7175236
0.7543234 0.8551747 0.7213288
0.8570814 0.8570815 0.7532440
0.9900862 0.8884236 0.8546579
0.8600231 0.9979381 0.8600173
0.8600233 0.9979381 0.8600173
0.8600257 0.9979381 0.8600175
0.8600543 0.9979382 0.8600199
0.8603931 0.9979387 0.8600480
0.8642729 0.9979452 0.8603809
0.8971816 0.9980318 0.8641860
0.9999385 0.9999386 0.8961012
0.1386132 0.1386140 0.2429247
0.1632063 0.1441030 0.2480512
0.2760911 0.1762223 0.2760901
0.4252236 0.2305497 0.3004001
0.5604796 0.4159008 0.4202839
0.7023827 0.5621970 0.5625421
0.8451733 0.7053396 0.7053623
0.9880248 0.8482207 0.8482163
0.1389650 0.1636605 0.2581155
0.1614032 0.1614036 0.2657144
0.2805891 0.1807206 0.2805885
0.4259836 0.2294344 0.2976493
0.5604849 0.4162915 0.4203194
0.7023840 0.5622282 0.5625459
0.8451734 0.7053422 0.7053626
0.9880248 0.8482209 0.8482163
0.1639623 0.2858679 0.2858671
0.1638591 0.2857641 0.2857639
0.2857143 0.2857143 0.2857143
0.4281834 0.2883749 0.2883745
0.5605472 0.4207452 0.4207389
0.7023993 0.5625978 0.5625910
0.8451747 0.7053732 0.7053664
0.9880250 0.8482235 0.8482166
0.1074148 0.4285414 0.2876832
0.1487820 0.4285644 0.2861899
0.2905915 0.4285122 0.2905910
0.4293824 0.4293825 0.3255451
0.5621856 0.4583316 0.4264313
0.7025790 0.5668279 0.5631229
0.8451901 0.7057406 0.7054115
0.9880263 0.8482545 0.8482204
0.4270223 0.5695232 0.4312432
0.4273921 0.5695236 0.4312716
0.4316133 0.5695285 0.4316077
0.4666003 0.5695976 0.4354478
0.5713697 0.5713698 0.4675324
0.7044276 0.6025852 0.5689722
0.8453712 0.7099458 0.7059444
0.9880417 0.8486216 0.8482656
0.5739527 0.7122369 0.5742862
0.5739815 0.7122369 0.5742885
0.5743226 0.7122374 0.5743167
0.5782291 0.7122438 0.5746498
0.6113025 0.7123289 0.5784578
0.7142244 0.7142246 0.6103871
0.8472337 0.7455561 0.7118031
0.9882229 0.8528248 0.8487986
0.7171363 0.8550821 0.7171587
0.7171387 0.8550821 0.7171589
0.7171673 0.8550821 0.7171613
0.7175063 0.8550826 0.7171894
0.7213883 0.8550891 0.7175223
0.7543107 0.8551756 0.7213277
0.8570814 0.8570815 0.7532441
0.9900866 0.8884228 0.8546581
0.8600208 0.9979382 0.8600172
0.8600210 0.9979382 0.8600172
0.8600234 0.9979382 0.8600174
0.8600520 0.9979382 0.8600198
0.8603908 0.9979388 0.8600479
0.8642708 0.9979453 0.8603808
0.8971805 0.9980318 0.8641859
0.9999385 0.9999386 0.8961012
0.2745445 0.2745453 0.3788560
0.2761022 0.2742281 0.3785084
0.2986899 0.2783561 0.3822765
0.4155120 0.3156431 0.4155109
0.5666299 0.3721098 0.4420899
0.7031843 0.5585730 0.5629861
0.8452397 0.7050515 0.7053989
0.9880304 0.8481965 0.8482194
0.2719235 0.2738775 0.3782189
0.2740833 0.2740841 0.3783948
0.2988768 0.2797734 0.3837217
0.4160312 0.3161624 0.4160302
0.5667164 0.3720425 0.4418929
0.7031855 0.5586067 0.5629898
0.8452398 0.7050541 0.7053993
0.9880304 0.8481968 0.8482194
0.2758321 0.3020632 0.3950000
0.2769261 0.3016216 0.3960767
0.3010247 0.3010251 0.4053359
0.4219720 0.3221035 0.4219714
0.5677406 0.3711914 0.4394063
0.7031994 0.5590060 0.5630339
0.8452411 0.7050853 0.7054030
0.9880305 0.8481994 0.8482197
0.3058257 0.4277313 0.4277305
0.3058717 0.4277772 0.4277765
0.3064125 0.4283176 0.4283173
0.4285714 0.4285714 0.4285714
0.5708694 0.4310609 0.4310605
0.7033623 0.5635603 0.5635539
0.8452564 0.7054549 0.7054481
0.9880318 0.8482304 0.8482235
0.2512935 0.5713406 0.4308548
0.2502281 0.5713547 0.4304965
0.2916288 0.5714111 0.4290367
0.4333416 0.5712623 0.4333410
0.5713984 0.5713984 0.4675610
0.7050427 0.6011887 0.5692885
0.8454361 0.7096851 0.7059800
0.9880473 0.8485977 0.8482687
0.5698483 0.7123803 0.5740979
0.5698795 0.7123803 0.5741003
0.5702492 0.7123807 0.5741287
0.5744704 0.7123857 0.5744649
0.6094574 0.7124547 0.5783049
0.7142269 0.7142270 0.6103895
0.8472848 0.7454424 0.7118293
0.9882283 0.8528029 0.8488015
0.7168074 0.8550940 0.7171431
0.7168098 0.8550940 0.7171433
0.7168386 0.8550941 0.7171457
0.7171798 0.8550946 0.7171738
0.7210862 0.8551010 0.7175070
0.7541596 0.8551861 0.7213150
0.8570816 0.8570817 0.7532443
0.9900909 0.8884133 0.8546603
0.8599933 0.9979392 0.8600159
0.8599935 0.9979392 0.8600159
0.8599959 0.9979392 0.8600161
0.8600245 0.9979392 0.8600185
0.8603634 0.9979398 0.8600466
0.8642455 0.9979463 0.8603795
0.8971678 0.9980327 0.8641848
0.9999385 0.9999387 0.8961012
0.4051365 0.4051373 0.5094481
0.4051746 0.4050154 0.5093236
0.4059384 0.4039106 0.5081884
0.4271188 0.4066834 0.5106016
0.5501573 0.4502884 0.5501563
0.7093591 0.5148519 0.5848428
0.8460414 0.7014273 0.7058430
0.9880969 0.8479084 0.8482561
0.4046374 0.4047989 0.5091122
0.4046895 0.4046904 0.5090011
0.4055864 0.4037124 0.5079927
0.4271730 0.4068392 0.5107597
0.5502254 0.4503565 0.5502243
0.7093670 0.5148469 0.5848270
0.8460415 0.7014302 0.7058433
0.9880969 0.8479087 0.8482561
0.4006814 0.4028030 0.5071469
0.4008355 0.4027896 0.5071310
0.4027495 0.4027503 0.5070611
0.4279428 0.4088395 0.5127877
0.5511512 0.4512824 0.5511502
0.7094610 0.5147872 0.5846375
0.8460426 0.7014639 0.7058470
0.9880970 0.8479113 0.8482564
0.4092706 0.4356282 0.5284399
0.4094011 0.4356322 0.5285690
0.4109808 0.4356763 0.5301314
0.4383254 0.4383258 0.5426365
0.5612231 0.4613546 0.5612225
0.7105715 0.5140223 0.5822372
0.8460565 0.7018631 0.7058910
0.9880983 0.8479425 0.8482602
0.4469006 0.5688062 0.5688054
0.4469127 0.5688183 0.5688175
0.4470564 0.5689619 0.5689611
0.4487373 0.5706424 0.5706421
0.5714286 0.5714286 0.5714286
0.7137266 0.5739180 0.5739177
0.8462194 0.7064174 0.7064111
0.9881136 0.8483121 0.8483053
0.3942393 0.7141966 0.5737420
0.3941507 0.7141978 0.5737120
0.3930852 0.7142119 0.5733536
0.4344859 0.7142683 0.5718938
0.5761987 0.7141194 0.5761982
0.7142555 0.7142556 0.6104181
0.8478998 0.7440459 0.7121456
0.9882933 0.8525422 0.8488372
0.7127028 0.8552374 0.7169549
0.7127054 0.8552374 0.7169551
0.7127366 0.8552375 0.7169575
0.7131064 0.8552379 0.7169858
0.7173276 0.8552428 0.7173220
0.7523146 0.8553119 0.7211621
0.8570840 0.8570841 0.7532467
0.9901419 0.8882995 0.8546864
0.8596643 0.9979512 0.8600002
0.8596646 0.9979512 0.8600003
0.8596670 0.9979512 0.8600005
0.8596958 0.9979512 0.8600028
0.8600369 0.9979517 0.8600309
0.8639433 0.9979581 0.8603641
0.8970168 0.9980432 0.8641721
0.9999387 0.9999389 0.8961014
0.5033767 0.5033775 0.6076883
0.5033543 0.5033417 0.6076522
0.5030950 0.5029223 0.6072303
0.5008062 0.4987655 0.6030431
0.5238284 0.5033845 0.6073025
0.6929893 0.5931204 0.6929883
0.8522156 0.6577094 0.7277013
0.9888985 0.8442843 0.8487001
0.5032714 0.5032858 0.6075967
0.5032493 0.5032502 0.6075609
0.5029928 0.5028336 0.6071418
0.5007319 0.4987041 0.6029819
0.5238864 0.5034511 0.6073692
0.6929960 0.5931271 0.6929949
0.8522162 0.6577090 0.7277000
0.9888985 0.8442845 0.8487001
0.5020674 0.5022424 0.6065560
0.5020481 0.5022095 0.6065228
0.5018236 0.5018245 0.6061352
0.4998820 0.4980079 0.6022883
0.5245707 0.5042369 0.6081573
0.6930752 0.5932063 0.6930741
0.8522242 0.6577040 0.7276841
0.9888986 0.8442873 0.8487004
0.4928426 0.4949783 0.5993224
0.4928451 0.4949666 0.5993106
0.4928766 0.4948306 0.5991720
0.4935705 0.4935713 0.5978820
0.5320096 0.5129062 0.6168545
0.6940084 0.5941395 0.6940073
0.8523182 0.6576443 0.7274947
0.9888998 0.8443210 0.8487041
0.5361769 0.5625451 0.6553464
0.5361962 0.5625538 0.6553655
0.5364252 0.5626563 0.6555931
0.5391468 0.5638423 0.6582973
0.5734619 0.5734624 0.6777731
0.7040802 0.6042117 0.7040796
0.8534287 0.6568794 0.7250944
0.9889137 0.8447203 0.8487482
0.5897567 0.7116623 0.7116615
0.5897578 0.7116634 0.7116625
0.5897699 0.7116755 0.7116746
0.5899135 0.7118191 0.7118183
0.5915945 0.7134995 0.7134992
0.7142857 0.7142857 0.7142857
0.8565837 0.7167752 0.7167748
0.9890766 0.8492746 0.8492682
0.5371039 0.8570536 0.7166017
0.5370965 0.8570537 0.7165991
0.5370078 0.8570549 0.7165691
0.5359424 0.8570690 0.7162107
0.5773431 0.8571254 0.7147509
0.7190558 0.8569766 0.7190553
0.8571126 0.8571127 0.7532753
0.9907570 0.8869030 0.8550028
0.8555597 0.9980946 0.8598120
0.8555599 0.9980946 0.8598120
0.8555625 0.9980946 0.8598122
0.8555938 0.9980946 0.8598146
0.8559635 0.9980950 0.8598430
0.8601847 0.9981000 0.8601791
0.8951717 0.9981690 0.8640192
0.9999411 0.9999413 0.8961038
0.5637352 0.5637360 0.6680468
0.5637457 0.5637454 0.6680561
0.5638704 0.5638566 0.6681671
0.5653351 0.5651612 0.6694692
0.5806877 0.5786458 0.6829234
0.6666807 0.6462361 0.7501540
0.8358459 0.7359770 0.8358449
0.9950727 0.8005666 0.8705586
0.5637593 0.5637612 0.6680720
0.5637698 0.5637706 0.6680813
0.5638944 0.5638817 0.6681923
0.5653585 0.5651858 0.6694938
0.5807059 0.5786652 0.6829427
0.6666856 0.6462417 0.7501596
0.8358465 0.7359776 0.8358454
0.9950727 0.8005666 0.8705585
0.5640448 0.5640602 0.6683712
0.5640552 0.5640695 0.6683805
0.5641792 0.5641801 0.6684908
0.5656366 0.5654774 0.6697856
0.5809227 0.5788948 0.6831726
0.6667436 0.6463082 0.7502264
0.8358531 0.7359843 0.8358521
0.9950734 0.8005662 0.8705571
0.5673272 0.5675034 0.6718169
0.5673371 0.5675121 0.6718257
0.5674547 0.5676162 0.6719295
0.5688369 0.5688377 0.6731484
0.5834331 0.5815590 0.6858394
0.6674278 0.6470940 0.7510145
0.8359323 0.7360634 0.8359313
0.9950813 0.8005612 0.8705413
0.5958301 0.5979670 0.7023111
0.5958364 0.5979720 0.7023162
0.5959109 0.5980325 0.7023764
0.5967912 0.5987453 0.7030866
0.6065347 0.6065355 0.7108462
0.6748667 0.6557634 0.7597116
0.8368655 0.7369966 0.8368645
0.9951753 0.8005015 0.8703518
0.6790324 0.7054015 0.7982019
0.6790341 0.7054023 0.7982035
0.6790533 0.7054109 0.7982227
0.6792824 0.7055135 0.7984503
0.6820039 0.7066994 0.8011545
0.7163191 0.7163195 0.8206302
0.8469373 0.7470689 0.8469367
0.9962858 0.7997366 0.8679515
0.7326138 0.8545194 0.8545186
0.7326139 0.8545195 0.8545187
0.7326149 0.8545205 0.8545197
0.7326270 0.8545326 0.8545318
0.7327707 0.8546762 0.8546754
0.7344516 0.8563567 0.8563564
0.8571429 0.8571429 0.8571429
0.9994409 0.8596323 0.8596319
0.6799617 0.9999107 0.8594590
0.6799611 0.9999108 0.8594588
0.6799536 0.9999109 0.8594563
0.6798650 0.9999120 0.8594263
0.6787995 0.9999261 0.8590679
0.7202002 0.9999825 0.8576081
0.8619130 0.9998337 0.8619124
0.9999698 0.9999699 0.8961324
0.7065894 0.7065903 0.8109010
0.7065903 0.7065910 0.8109018
0.7066008 0.7066004 0.8109111
0.7067255 0.7067116 0.8110221
0.7081902 0.7080163 0.8123243
0.7235433 0.7215013 0.8257789
0.8095374 0.7890928 0.8930107
0.9787030 0.8788341 0.9787019
0.7065914 0.7065924 0.8109031
0.7065923 0.7065932 0.8109039
0.7066028 0.7066025 0.8109132
0.7067275 0.7067137 0.8110242
0.7081922 0.7080184 0.8123263
0.7235448 0.7215029 0.8257805
0.8095378 0.7890932 0.8930111
0.9787031 0.8788342 0.9787020
0.7066155 0.7066176 0.8109284
0.7066164 0.7066184 0.8109291
0.7066269 0.7066277 0.8109385
0.7067515 0.7067389 0.8110494
0.7082157 0.7080430 0.8123509
0.7235631 0.7215223 0.8257999
0.8095427 0.7890988 0.8930168
0.9787036 0.8788347 0.9787026
0.7069010 0.7069166 0.8112276
0.7069019 0.7069174 0.8112283
0.7069123 0.7069267 0.8112376
0.7070364 0.7070372 0.8113480
0.7084938 0.7083345 0.8126427
0.7237798 0.7217519 0.8260297
0.8096007 0.7891654 0.8930835
0.9787103 0.8788414 0.9787092
0.7101835 0.7103598 0.8146733
0.7101844 0.7103605 0.8146741
0.7101943 0.7103693 0.8146828
0.7103118 0.7104733 0.8147866
0.7116940 0.7116948 0.8160056
0.7262903 0.7244162 0.8286965
0.8102850 0.7899512 0.8938716
0.9787895 0.8789206 0.9787884
0.7386867 0.7408237 0.8451679
0.7386873 0.7408241 0.8451683
0.7386935 0.7408292 0.8451734
0.7387681 0.7408896 0.8452336
0.7396483 0.7416024 0.8459438
0.7493918 0.7493926 0.8537034
0.8177239 0.7986205 0.9025688
0.9797226 0.8798538 0.9797216
0.8218894 0.8482586 0.9410589
0.8218896 0.8482587 0.9410591
0.8218912 0.8482594 0.9410607
0.8219105 0.8482681 0.9410798
0.8221395 0.8483706 0.9413074
0.8248611 0.8495566 0.9440116
0.8591762 0.8591767 0.9634874
0.9897945 0.8899260 0.9897939
0.8754709 0.9973765 0.9973757
0.8754709 0.9973765 0.9973757
0.8754710 0.9973766 0.9973758
0.8754720 0.9973777 0.9973768
0.8754841 0.9973897 0.9973889
0.8756278 0.9975334 0.9975326
0.8773088 0.9992138 0.9992135
1.0000000 1.0000000 1.0000000
