release/datafiles/colormanagement/luts/luminance_compensation_bt2020.cube
TITLE "Pre-formation 2012 Luminance Compensation for BT.2020 Target"
# Use CIE 2012 Luminance to Compensate for Some Out-of-Domain Values
# This LUT assumes input and output to be E Gamut encoded in Log2 (-10 stop to +15 stop)
# LUT resolution 50
LUT_3D_SIZE 50
-0.0000000 0.0000000 -0.0000000
0.0204082 0.0000000 -0.0000000
0.0408163 0.0000000 -0.0000000
0.0612245 0.0000000 -0.0000000
0.0816327 0.0000000 -0.0000000
0.1020408 0.0000000 -0.0000000
0.1224490 0.0000000 -0.0000000
0.1427232 0.0029147 0.0029143
0.1623905 0.0225842 0.0225818
0.1822728 0.0424680 0.0424642
0.2023088 0.0625050 0.0625003
0.2224542 0.0826512 0.0826458
0.2426772 0.1028747 0.1028688
0.2629550 0.1231528 0.1231466
0.2832715 0.1434695 0.1434631
0.3036152 0.1638133 0.1638068
0.3239780 0.1841763 0.1841697
0.3443543 0.2045527 0.2045460
0.3647401 0.2249385 0.2249318
0.3851326 0.2453310 0.2453243
0.4055297 0.2657282 0.2657214
0.4259301 0.2861286 0.2861218
0.4463329 0.3065314 0.3065245
0.4667372 0.3269357 0.3269289
0.4871427 0.3473412 0.3473344
0.5075490 0.3677475 0.3677406
0.5279558 0.3881543 0.3881475
0.5483630 0.4085616 0.4085547
0.5687705 0.4289691 0.4289622
0.5891782 0.4493768 0.4493699
0.6095861 0.4697846 0.4697778
0.6299940 0.4901926 0.4901857
0.6504020 0.5106006 0.5105937
0.6708101 0.5310086 0.5310018
0.6912182 0.5514167 0.5514099
0.7116263 0.5718248 0.5718180
0.7320344 0.5922329 0.5922261
0.7524425 0.6126411 0.6126342
0.7728507 0.6330492 0.6330424
0.7932588 0.6534574 0.6534505
0.8136670 0.6738655 0.6738587
0.8340751 0.6942737 0.6942668
0.8544833 0.7146818 0.7146750
0.8748915 0.7350900 0.7350831
0.8952996 0.7554982 0.7554913
0.9157078 0.7759063 0.7758995
0.9361159 0.7963145 0.7963076
0.9565241 0.8167226 0.8167158
0.9769323 0.8371308 0.8371240
0.9973404 0.8575390 0.8575321
-0.0000000 0.0204082 -0.0000000
0.0204082 0.0204082 -0.0000000
0.0408163 0.0204082 -0.0000000
0.0612245 0.0204082 -0.0000000
0.0816327 0.0204082 -0.0000000
0.1020408 0.0204082 -0.0000000
0.1224490 0.0204082 -0.0000000
0.1426814 0.0237418 0.0049512
0.1624795 0.0377281 0.0241011
0.1823947 0.0533796 0.0435764
0.2024241 0.0703124 0.0633042
0.2225500 0.0882082 0.0832218
0.2427518 0.1068147 0.1032790
0.2630110 0.1259385 0.1234375
0.2833126 0.1454351 0.1436688
0.3036449 0.1651983 0.1639519
0.3239993 0.1851511 0.1842719
0.3443695 0.2052383 0.2046179
0.3647509 0.2254205 0.2249824
0.3851402 0.2456697 0.2453598
0.4055351 0.2659661 0.2657464
0.4259339 0.2862958 0.2861394
0.4463355 0.3066488 0.3065369
0.4667391 0.3270182 0.3269375
0.4871440 0.3473991 0.3473404
0.5075499 0.3677881 0.3677449
0.5279564 0.3881829 0.3881505
0.5483635 0.4085816 0.4085568
0.5687709 0.4289832 0.4289637
0.5891785 0.4493867 0.4493710
0.6095862 0.4697916 0.4697785
0.6299941 0.4901974 0.4901862
0.6504021 0.5106040 0.5105941
0.6708101 0.5310110 0.5310020
0.6912182 0.5514184 0.5514100
0.7116263 0.5718260 0.5718181
0.7320344 0.5922338 0.5922262
0.7524426 0.6126417 0.6126343
0.7728507 0.6330496 0.6330424
0.7932588 0.6534577 0.6534505
0.8136670 0.6738657 0.6738587
0.8340751 0.6942738 0.6942668
0.8544833 0.7146819 0.7146750
0.8748915 0.7350901 0.7350832
0.8952996 0.7554982 0.7554913
0.9157078 0.7759064 0.7758995
0.9361159 0.7963145 0.7963076
0.9565241 0.8167227 0.8167158
0.9769323 0.8371308 0.8371240
0.9973404 0.8575390 0.8575321
-0.0000000 0.0408163 0.0000000
0.0204082 0.0408163 0.0000000
0.0408163 0.0408163 0.0000000
0.0612245 0.0408163 0.0000000
0.0816327 0.0408163 0.0000000
0.1020408 0.0408163 0.0000000
0.1224490 0.0408163 0.0000000
0.1426795 0.0443193 0.0077625
0.1626148 0.0541081 0.0262027
0.1825649 0.0660513 0.0451229
0.2025838 0.0798881 0.0644281
0.2226831 0.0953101 0.0840308
0.2428560 0.1120058 0.1038573
0.2630897 0.1296914 0.1238487
0.2833706 0.1481261 0.1439601
0.3036870 0.1671163 0.1641578
0.3240296 0.1865123 0.1844171
0.3443911 0.2062013 0.2047202
0.3647662 0.2261003 0.2250544
0.3851510 0.2461488 0.2454104
0.4055427 0.2663034 0.2657820
0.4259393 0.2865330 0.2861644
0.4463393 0.3068155 0.3065544
0.4667417 0.3271354 0.3269499
0.4871459 0.3474814 0.3473491
0.5075512 0.3678460 0.3677510
0.5279574 0.3882235 0.3881547
0.5483641 0.4086101 0.4085598
0.5687713 0.4290032 0.4289658
0.5891788 0.4494007 0.4493724
0.6095865 0.4698014 0.4697795
0.6299943 0.4902044 0.4901870
0.6504022 0.5106089 0.5105946
0.6708102 0.5310144 0.5310024
0.6912183 0.5514208 0.5514103
0.7116263 0.5718277 0.5718183
0.7320345 0.5922350 0.5922263
0.7524426 0.6126425 0.6126344
0.7728507 0.6330502 0.6330425
0.7932589 0.6534581 0.6534506
0.8136670 0.6738660 0.6738587
0.8340752 0.6942740 0.6942669
0.8544833 0.7146821 0.7146750
0.8748915 0.7350902 0.7350832
0.8952996 0.7554983 0.7554913
0.9157078 0.7759064 0.7758995
0.9361160 0.7963145 0.7963076
0.9565241 0.8167227 0.8167158
0.9769323 0.8371308 0.8371240
0.9973404 0.8575390 0.8575321
-0.0000000 0.0612245 0.0000000
0.0204082 0.0612245 0.0000000
0.0408163 0.0612245 0.0000000
0.0612245 0.0612245 0.0000000
0.0816327 0.0612245 0.0000000
0.1020408 0.0612245 0.0000000
0.1224490 0.0612245 0.0000000
0.1427616 0.0647188 0.0115839
0.1628209 0.0714835 0.0290766
0.1828014 0.0803442 0.0472537
0.2028032 0.0912772 0.0659880
0.2228667 0.1041361 0.0851609
0.2430008 0.1186872 0.1046692
0.2631996 0.1346544 0.1244284
0.2834520 0.1517583 0.1443720
0.3037463 0.1697447 0.1644495
0.3240723 0.1883983 0.1846231
0.3444217 0.2075462 0.2048655
0.3647879 0.2270551 0.2251567
0.3851664 0.2468245 0.2454824
0.4055536 0.2667805 0.2658326
0.4259470 0.2868693 0.2861999
0.4463447 0.3070523 0.3065794
0.4667455 0.3273019 0.3269674
0.4871485 0.3475985 0.3473614
0.5075531 0.3679283 0.3677597
0.5279587 0.3882813 0.3881608
0.5483651 0.4086508 0.4085641
0.5687720 0.4290317 0.4289688
0.5891793 0.4494208 0.4493746
0.6095868 0.4698155 0.4697810
0.6299945 0.4902143 0.4901880
0.6504024 0.5106158 0.5105953
0.6708103 0.5310193 0.5310029
0.6912183 0.5514242 0.5514106
0.7116264 0.5718301 0.5718185
0.7320345 0.5922366 0.5922265
0.7524426 0.6126437 0.6126345
0.7728507 0.6330510 0.6330426
0.7932589 0.6534587 0.6534506
0.8136670 0.6738664 0.6738588
0.8340752 0.6942743 0.6942669
0.8544833 0.7146823 0.7146750
0.8748915 0.7350903 0.7350832
0.8952996 0.7554984 0.7554913
0.9157078 0.7759065 0.7758995
0.9361160 0.7963146 0.7963076
0.9565241 0.8167227 0.8167158
0.9769323 0.8371309 0.8371240
0.9973404 0.8575390 0.8575321
-0.0000000 0.0816327 0.0000000
0.0204082 0.0816327 0.0000000
0.0408163 0.0816327 0.0000000
0.0612245 0.0816327 0.0000000
0.0816327 0.0816327 0.0000000
0.1020408 0.0816327 0.0000000
0.1224912 0.0818809 0.0014979
0.1429930 0.0849994 0.0166732
0.1631342 0.0896337 0.0329470
0.1831284 0.0960498 0.0501548
0.2031015 0.1044161 0.0681331
0.2231171 0.1147783 0.0867280
0.2431998 0.1270570 0.1058028
0.2633520 0.1410706 0.1252420
0.2835657 0.1565732 0.1449525
0.3038296 0.1732969 0.1648617
0.3241326 0.1909845 0.1849150
0.3444649 0.2094104 0.2050716
0.3648187 0.2283889 0.2253020
0.3851883 0.2477737 0.2455848
0.4055691 0.2674533 0.2659046
0.4259579 0.2873449 0.2862506
0.4463524 0.3073879 0.3066150
0.4667509 0.3275383 0.3269924
0.4871523 0.3477649 0.3473790
0.5075558 0.3680453 0.3677720
0.5279606 0.3883636 0.3881695
0.5483664 0.4087086 0.4085702
0.5687729 0.4290723 0.4289731
0.5891799 0.4494493 0.4493776
0.6095873 0.4698355 0.4697831
0.6299948 0.4902283 0.4901895
0.6504026 0.5106257 0.5105964
0.6708105 0.5310263 0.5310036
0.6912185 0.5514291 0.5514112
0.7116265 0.5718335 0.5718189
0.7320345 0.5922390 0.5922267
0.7524426 0.6126454 0.6126347
0.7728508 0.6330522 0.6330427
0.7932589 0.6534595 0.6534507
0.8136670 0.6738670 0.6738588
0.8340752 0.6942747 0.6942669
0.8544833 0.7146826 0.7146751
0.8748915 0.7350905 0.7350832
0.8952996 0.7554985 0.7554913
0.9157078 0.7759066 0.7758995
0.9361160 0.7963147 0.7963076
0.9565241 0.8167228 0.8167158
0.9769323 0.8371309 0.8371240
0.9973404 0.8575390 0.8575321
-0.0000000 0.1020408 0.0000000
0.0204082 0.1020408 0.0000000
0.0408163 0.1020408 0.0000000
0.0612245 0.1020408 0.0000000
0.0816327 0.1020408 0.0000000
0.1020408 0.1020408 0.0000000
0.1229635 0.1031399 0.0098847
0.1434620 0.1052118 0.0232796
0.1636063 0.1083728 0.0380590
0.1835786 0.1129274 0.0540444
0.2035030 0.1191459 0.0710468
0.2234548 0.1272207 0.0888804
0.2434707 0.1372347 0.1073740
0.2635614 0.1491490 0.1263778
0.2837233 0.1628162 0.1457672
0.3039460 0.1780134 0.1654428
0.3242172 0.1944827 0.1853276
0.3445258 0.2119678 0.2053636
0.3648623 0.2302381 0.2255082
0.3852192 0.2490998 0.2457301
0.4055910 0.2683986 0.2660069
0.4259734 0.2880158 0.2863226
0.4463633 0.3078625 0.3066656
0.4667586 0.3278734 0.3270280
0.4871578 0.3480011 0.3474040
0.5075596 0.3682116 0.3677896
0.5279632 0.3884805 0.3881818
0.5483683 0.4087908 0.4085788
0.5687742 0.4291301 0.4289792
0.5891808 0.4494899 0.4493818
0.6095879 0.4698641 0.4697861
0.6299953 0.4902484 0.4901916
0.6504029 0.5106397 0.5105978
0.6708107 0.5310361 0.5310047
0.6912186 0.5514360 0.5514119
0.7116266 0.5718384 0.5718194
0.7320346 0.5922425 0.5922271
0.7524427 0.6126478 0.6126349
0.7728508 0.6330539 0.6330429
0.7932589 0.6534607 0.6534509
0.8136670 0.6738678 0.6738589
0.8340752 0.6942753 0.6942670
0.8544833 0.7146830 0.7146751
0.8748915 0.7350908 0.7350832
0.8952996 0.7554987 0.7554914
0.9157078 0.7759067 0.7758995
0.9361160 0.7963148 0.7963077
0.9565241 0.8167228 0.8167158
0.9769323 0.8371309 0.8371240
0.9973404 0.8575391 0.8575321
-0.0000000 0.1224490 0.0000000
0.0204082 0.1224490 0.0000000
0.0408163 0.1224490 0.0000000
0.0612245 0.1224490 0.0000000
0.0820711 0.1225756 0.0023177
0.1033164 0.1231155 0.0103995
0.1239962 0.1239962 0.0201588
0.1442809 0.1253975 0.0316023
0.1643087 0.1275528 0.0446511
0.1841963 0.1307381 0.0591600
0.2040386 0.1352449 0.0749437
0.2239042 0.1413422 0.0918002
0.2438342 0.1492344 0.1095304
0.2638459 0.1590258 0.1279513
0.2839398 0.1707027 0.1469042
0.3041072 0.1841406 0.1662582
0.3243353 0.1991326 0.1859090
0.3446113 0.2154292 0.2057764
0.3649236 0.2327757 0.2258003
0.3852630 0.2509386 0.2459364
0.4056220 0.2697194 0.2661523
0.4259953 0.2889584 0.2864250
0.4463788 0.3085320 0.3067377
0.4667696 0.3283474 0.3270787
0.4871655 0.3483358 0.3474396
0.5075650 0.3684475 0.3678146
0.5279671 0.3886467 0.3881994
0.5483709 0.4089077 0.4085912
0.5687761 0.4292123 0.4289878
0.5891822 0.4495477 0.4493879
0.6095888 0.4699047 0.4697904
0.6299960 0.4902769 0.4901946
0.6504034 0.5106598 0.5105999
0.6708110 0.5310502 0.5310061
0.6912188 0.5514459 0.5514129
0.7116267 0.5718453 0.5718201
0.7320347 0.5922473 0.5922276
0.7524428 0.6126512 0.6126353
0.7728508 0.6330563 0.6330431
0.7932589 0.6534624 0.6534510
0.8136671 0.6738690 0.6738590
0.8340752 0.6942761 0.6942671
0.8544833 0.7146836 0.7146752
0.8748915 0.7350912 0.7350833
0.8952996 0.7554990 0.7554914
0.9157078 0.7759069 0.7758995
0.9361160 0.7963149 0.7963077
0.9565241 0.8167229 0.8167158
0.9769323 0.8371310 0.8371240
0.9973404 0.8575391 0.8575321
0.0050918 0.1430125 0.0050913
0.0253576 0.1430841 0.0070939
0.0455812 0.1431920 0.0098236
0.0657478 0.1433566 0.0134878
0.0858419 0.1436108 0.0183124
0.1058499 0.1440067 0.0245188
0.1257640 0.1446254 0.0322923
0.1455870 0.1455871 0.0417497
0.1653360 0.1470606 0.0529182
0.1850427 0.1492660 0.0657337
0.2047485 0.1524656 0.0800568
0.2244952 0.1569418 0.0956996
0.2443152 0.1629614 0.1124532
0.2642267 0.1707348 0.1301099
0.2842334 0.1803795 0.1484792
0.3043284 0.1918980 0.1673961
0.3244990 0.2051811 0.1867248
0.3447306 0.2200335 0.2063580
0.3650097 0.2362117 0.2262132
0.3853246 0.2534625 0.2462285
0.4056659 0.2715509 0.2663586
0.4260265 0.2902754 0.2865704
0.4464008 0.3094727 0.3068400
0.4667851 0.3290159 0.3271507
0.4871764 0.3488093 0.3474902
0.5075727 0.3687820 0.3678501
0.5279725 0.3888826 0.3882244
0.5483747 0.4090738 0.4086087
0.5687788 0.4293292 0.4290002
0.5891840 0.4496299 0.4493966
0.6095902 0.4699624 0.4697965
0.6299969 0.4903175 0.4901988
0.6504040 0.5106883 0.5106029
0.6708115 0.5310702 0.5310082
0.6912192 0.5514600 0.5514144
0.7116270 0.5718552 0.5718212
0.7320349 0.5922543 0.5922283
0.7524429 0.6126561 0.6126358
0.7728509 0.6330597 0.6330435
0.7932590 0.6534648 0.6534513
0.8136671 0.6738707 0.6738592
0.8340752 0.6942773 0.6942672
0.8544834 0.7146844 0.7146753
0.8748915 0.7350918 0.7350833
0.8952997 0.7554994 0.7554914
0.9157078 0.7759072 0.7758996
0.9361160 0.7963151 0.7963077
0.9565241 0.8167231 0.8167158
0.9769323 0.8371311 0.8371240
0.9973404 0.8575392 0.8575321
0.0260172 0.1639361 0.0260150
0.0406214 0.1639958 0.0274027
0.0565332 0.1640832 0.0293201
0.0735014 0.1642123 0.0319395
0.0912829 0.1644047 0.0354657
0.1096627 0.1646941 0.0401248
0.1284627 0.1651327 0.0461433
0.1475449 0.1657997 0.0537162
0.1668113 0.1668114 0.0629739
0.1862014 0.1683300 0.0739578
0.2056875 0.1705667 0.0866142
0.2252653 0.1737752 0.1008087
0.2449428 0.1782311 0.1163531
0.2647289 0.1841992 0.1330343
0.2846260 0.1918935 0.1506392
0.3046284 0.2014395 0.1689719
0.3247235 0.2128506 0.1878632
0.3448960 0.2260281 0.2071742
0.3651300 0.2407845 0.2267950
0.3854112 0.2568809 0.2466415
0.4057278 0.2740653 0.2666508
0.4260705 0.2921019 0.2867767
0.4464320 0.3107871 0.3069854
0.4668071 0.3299553 0.3272531
0.4871919 0.3494772 0.3475623
0.5075836 0.3692552 0.3679008
0.5279802 0.3892169 0.3882600
0.5483802 0.4093096 0.4086337
0.5687826 0.4294953 0.4290177
0.5891867 0.4497467 0.4494089
0.6095920 0.4700446 0.4698051
0.6299982 0.4903752 0.4902049
0.6504050 0.5107289 0.5106072
0.6708121 0.5310987 0.5310112
0.6912196 0.5514800 0.5514165
0.7116273 0.5718693 0.5718226
0.7320351 0.5922641 0.5922294
0.7524430 0.6126630 0.6126365
0.7728510 0.6330646 0.6330440
0.7932591 0.6534682 0.6534517
0.8136672 0.6738731 0.6738595
0.8340753 0.6942790 0.6942674
0.8544834 0.7146856 0.7146754
0.8748915 0.7350926 0.7350834
0.8952997 0.7555000 0.7554915
0.9157078 0.7759076 0.7758996
0.9361160 0.7963154 0.7963077
0.9565241 0.8167233 0.8167159
0.9769323 0.8371313 0.8371240
0.9973404 0.8575393 0.8575322
0.0467858 0.1847034 0.0467824
0.0572430 0.1847497 0.0477480
0.0694520 0.1848167 0.0490945
0.0832853 0.1849141 0.0509569
0.0985373 0.1850565 0.0535048
0.1149619 0.1852665 0.0569410
0.1323085 0.1855783 0.0614917
0.1503485 0.1860440 0.0673860
0.1688901 0.1867419 0.0748251
0.1877857 0.1877858 0.0839483
0.2069319 0.1893334 0.0948064
0.2262653 0.1915905 0.1073533
0.2457531 0.1948046 0.1214586
0.2653813 0.1992468 0.1369341
0.2851427 0.2051802 0.1535644
0.3050290 0.2128209 0.1711328
0.3250278 0.2222996 0.1894397
0.3451229 0.2336371 0.2083130
0.3652965 0.2467419 0.2276114
0.3855320 0.2614319 0.2472234
0.4058147 0.2774714 0.2670638
0.4261325 0.2946097 0.2870689
0.4464761 0.3126101 0.3071918
0.4668384 0.3312678 0.3273985
0.4872140 0.3504156 0.3476646
0.5075992 0.3699226 0.3679728
0.5279911 0.3896898 0.3883106
0.5483879 0.4096438 0.4086693
0.5687880 0.4297310 0.4290427
0.5891905 0.4499128 0.4494265
0.6095947 0.4701615 0.4698175
0.6300001 0.4904574 0.4902136
0.6504063 0.5107866 0.5106133
0.6708131 0.5311393 0.5310155
0.6912203 0.5515085 0.5514195
0.7116278 0.5718893 0.5718247
0.7320354 0.5922782 0.5922308
0.7524433 0.6126729 0.6126376
0.7728512 0.6330715 0.6330447
0.7932592 0.6534730 0.6534522
0.8136672 0.6738765 0.6738598
0.8340753 0.6942814 0.6942676
0.8544834 0.7146873 0.7146756
0.8748916 0.7350938 0.7350835
0.8952997 0.7555008 0.7554916
0.9157078 0.7759082 0.7758997
0.9361160 0.7963158 0.7963078
0.9565241 0.8167236 0.8167159
0.9769323 0.8371315 0.8371240
0.9973404 0.8575394 0.8575322
0.0674457 0.2053624 0.0674414
0.0748953 0.2053970 0.0681151
0.0840679 0.2054467 0.0690607
0.0950184 0.2055185 0.0703799
0.1076922 0.2056223 0.0722058
0.1219356 0.2057736 0.0747062
0.1375277 0.2059950 0.0780825
0.1542182 0.2063214 0.0825604
0.1717622 0.2068049 0.0883710
0.1899436 0.2075231 0.0957194
0.2085881 0.2085882 0.1047507
0.2275669 0.2101551 0.1155223
0.2467943 0.2124256 0.1279934
0.2662189 0.2156434 0.1420365
0.2858120 0.2200762 0.1574639
0.3055556 0.2259859 0.1740585
0.3254341 0.2335898 0.1916011
0.3454302 0.2430223 0.2098898
0.3655250 0.2543091 0.2287504
0.3856994 0.2673634 0.2480399
0.4059359 0.2820072 0.2676458
0.4262196 0.2980072 0.2874819
0.4465383 0.3151132 0.3074840
0.4668825 0.3330884 0.3276048
0.4872452 0.3517269 0.3478101
0.5076212 0.3708603 0.3680752
0.5280067 0.3903569 0.3883827
0.5483988 0.4101165 0.4087200
0.5687957 0.4300651 0.4290783
0.5891959 0.4501484 0.4494515
0.6095985 0.4703275 0.4698350
0.6300028 0.4905742 0.4902259
0.6504082 0.5108688 0.5106220
0.6708144 0.5311971 0.5310216
0.6912212 0.5515491 0.5514238
0.7116284 0.5719178 0.5718277
0.7320359 0.5922982 0.5922330
0.7524436 0.6126869 0.6126390
0.7728514 0.6330814 0.6330458
0.7932594 0.6534800 0.6534529
0.8136674 0.6738814 0.6738603
0.8340754 0.6942848 0.6942680
0.8544835 0.7146897 0.7146758
0.8748916 0.7350955 0.7350837
0.8952997 0.7555020 0.7554917
0.9157078 0.7759090 0.7758998
0.9361160 0.7963164 0.7963078
0.9565241 0.8167240 0.8167159
0.9769323 0.8371317 0.8371241
0.9973405 0.8575396 0.8575322
0.0880299 0.2259460 0.0880251
0.0933161 0.2259713 0.0884961
0.1000910 0.2260076 0.0891600
0.1085359 0.2260596 0.0900920
0.1187484 0.2261345 0.0913928
0.1307188 0.2262427 0.0931941
0.1443315 0.2263997 0.0956623
0.1593890 0.2266289 0.0989979
0.1756489 0.2269650 0.1034264
0.1928616 0.2274604 0.1091798
0.2107991 0.2281923 0.1164660
0.2292714 0.2292716 0.1254341
0.2481345 0.2308514 0.1361458
0.2672880 0.2331311 0.1485642
0.2866683 0.2363513 0.1625640
0.3062366 0.2407776 0.1779576
0.3259675 0.2466710 0.1945270
0.3458403 0.2542495 0.2120516
0.3658344 0.2636500 0.2303275
0.3859290 0.2749015 0.2491791
0.4061039 0.2879208 0.2684624
0.4263411 0.3025325 0.2880640
0.4466255 0.3185048 0.3078971
0.4669447 0.3355882 0.3278971
0.4872894 0.3535457 0.3480164
0.5076525 0.3721708 0.3682206
0.5280288 0.3912942 0.3884850
0.5484144 0.4107834 0.4087920
0.5688067 0.4305377 0.4291290
0.5892036 0.4504825 0.4494871
0.6096039 0.4705631 0.4698601
0.6300066 0.4907402 0.4902435
0.6504108 0.5109856 0.5106343
0.6708163 0.5312792 0.5310303
0.6912225 0.5516068 0.5514299
0.7116293 0.5719584 0.5718320
0.7320365 0.5923268 0.5922360
0.7524440 0.6127070 0.6126411
0.7728517 0.6330955 0.6330472
0.7932596 0.6534899 0.6534539
0.8136675 0.6738883 0.6738611
0.8340755 0.6942897 0.6942685
0.8544836 0.7146931 0.7146762
0.8748916 0.7350979 0.7350840
0.8952998 0.7555037 0.7554919
0.9157079 0.7759102 0.7758999
0.9361160 0.7963172 0.7963079
0.9565242 0.8167246 0.8167160
0.9769323 0.8371322 0.8371241
0.9973405 0.8575399 0.8575322
0.1085613 0.2464770 0.1085562
0.1123013 0.2464953 0.1088858
0.1172390 0.2465214 0.1093520
0.1236090 0.2465587 0.1100092
0.1316087 0.2466123 0.1109320
0.1413601 0.2466893 0.1122202
0.1528821 0.2468005 0.1140047
0.1660849 0.2469615 0.1164509
0.1807890 0.2471958 0.1197585
0.1967601 0.2475386 0.1241531
0.2137481 0.2480421 0.1298672
0.2315184 0.2487832 0.1371105
0.2498720 0.2498722 0.1460347
0.2686547 0.2514609 0.1567048
0.2877567 0.2537467 0.1690865
0.3071058 0.2569686 0.1830559
0.3266566 0.2613904 0.1984258
0.3463785 0.2672724 0.2149777
0.3662472 0.2748334 0.2324895
0.3862399 0.2842116 0.2507564
0.4063343 0.2954386 0.2696018
0.4265095 0.3084334 0.2888807
0.4467472 0.3230226 0.3084792
0.4670321 0.3389756 0.3283102
0.4873517 0.3560433 0.3483087
0.5076967 0.3739884 0.3684270
0.5280600 0.3926040 0.3886305
0.5484365 0.4117204 0.4088944
0.5688222 0.4312044 0.4292010
0.5892146 0.4509551 0.4495377
0.6096116 0.4708971 0.4698956
0.6300120 0.4909759 0.4902685
0.6504147 0.5111516 0.5106519
0.6708189 0.5313961 0.5310426
0.6912244 0.5516890 0.5514385
0.7116307 0.5720161 0.5718381
0.7320375 0.5923673 0.5922402
0.7524447 0.6127355 0.6126441
0.7728522 0.6331155 0.6330493
0.7932599 0.6535039 0.6534554
0.8136677 0.6738982 0.6738621
0.8340757 0.6942966 0.6942692
0.8544837 0.7146980 0.7146767
0.8748917 0.7351013 0.7350843
0.8952998 0.7555061 0.7554921
0.9157079 0.7759119 0.7759001
0.9361160 0.7963184 0.7963080
0.9565242 0.8167254 0.8167161
0.9769323 0.8371327 0.8371242
0.9973405 0.8575403 0.8575323
0.1290559 0.2669713 0.1290505
0.1316962 0.2669844 0.1292815
0.1352584 0.2670030 0.1296088
0.1399776 0.2670297 0.1300716
0.1460913 0.2670678 0.1307242
0.1538056 0.2671224 0.1316406
0.1632575 0.2672009 0.1329202
0.1744844 0.2673140 0.1346931
0.1874142 0.2674777 0.1371241
0.2018802 0.2677156 0.1404125
0.2176548 0.2680629 0.1447836
0.2344887 0.2685720 0.1504704
0.2521437 0.2693194 0.1576838
0.2704150 0.2704151 0.1665776
0.2891416 0.2720099 0.1772187
0.3082074 0.2743000 0.1895747
0.3275347 0.2775229 0.2035228
0.3470732 0.2819416 0.2188762
0.3667888 0.2878158 0.2354157
0.3866546 0.2953645 0.2529186
0.4066462 0.3047272 0.2711792
0.4267404 0.3159370 0.2900201
0.4469159 0.3289148 0.3092959
0.4671540 0.3434883 0.3288923
0.4874391 0.3594278 0.3487218
0.5077590 0.3764843 0.3687193
0.5281043 0.3944207 0.3888368
0.5484678 0.4130297 0.4090398
0.5688443 0.4321412 0.4293034
0.5892302 0.4516216 0.4496097
0.6096226 0.4713696 0.4699463
0.6300197 0.4913099 0.4903041
0.6504201 0.5113873 0.5106769
0.6708228 0.5315621 0.5310602
0.6912271 0.5518058 0.5514509
0.7116325 0.5720983 0.5718468
0.7320388 0.5924251 0.5922463
0.7524456 0.6127761 0.6126484
0.7728528 0.6331440 0.6330523
0.7932604 0.6535240 0.6534575
0.8136681 0.6739123 0.6738636
0.8340759 0.6943065 0.6942703
0.8544838 0.7147049 0.7146774
0.8748918 0.7351062 0.7350848
0.8952999 0.7555095 0.7554925
0.9157080 0.7759143 0.7759003
0.9361161 0.7963201 0.7963082
0.9565242 0.8167266 0.8167162
0.9769323 0.8371336 0.8371242
0.9973405 0.8575409 0.8575323
0.1495246 0.2874399 0.1495191
0.1513857 0.2874492 0.1496810
0.1539362 0.2874624 0.1499108
0.1573833 0.2874813 0.1502365
0.1619604 0.2875083 0.1506970
0.1679061 0.2875469 0.1513464
0.1754319 0.2876023 0.1522584
0.1846845 0.2876818 0.1535320
0.1957132 0.2877963 0.1552968
0.2084580 0.2879619 0.1577174
0.2227615 0.2882022 0.1609923
0.2384012 0.2885527 0.1653471
0.2551287 0.2890655 0.1710150
0.2727036 0.2898174 0.1782077
0.2909175 0.2909177 0.1870802
0.3096051 0.2925167 0.1977010
0.3286456 0.2948097 0.2100390
0.3479575 0.2980334 0.2239723
0.3674874 0.3024499 0.2393141
0.3871985 0.3083186 0.2558448
0.4070622 0.3158587 0.2733414
0.4270531 0.3252107 0.2915976
0.4471472 0.3364085 0.3104354
0.4673228 0.3493742 0.3297091
0.4875611 0.3639368 0.3493039
0.5078465 0.3798668 0.3691324
0.5281666 0.3969156 0.3891291
0.5485120 0.4148459 0.4092462
0.5688756 0.4334502 0.4294488
0.5892523 0.4525582 0.4497121
0.6096382 0.4720361 0.4700183
0.6300307 0.4917823 0.4903547
0.6504278 0.5117212 0.5107125
0.6708282 0.5317977 0.5310852
0.6912309 0.5519718 0.5514684
0.7116352 0.5722151 0.5718591
0.7320407 0.5925072 0.5922550
0.7524469 0.6128338 0.6126545
0.7728538 0.6331846 0.6330566
0.7932610 0.6535525 0.6534605
0.8136685 0.6739323 0.6738657
0.8340762 0.6943206 0.6942718
0.8544841 0.7147148 0.7146784
0.8748920 0.7351131 0.7350856
0.8953000 0.7555144 0.7554930
0.9157080 0.7759177 0.7759007
0.9361161 0.7963225 0.7963085
0.9565242 0.8167283 0.8167164
0.9769324 0.8371348 0.8371244
0.9973405 0.8575417 0.8575324
0.1699753 0.3078904 0.1699696
0.1712856 0.3078970 0.1700832
0.1731016 0.3079064 0.1702445
0.1755926 0.3079197 0.1704735
0.1789633 0.3079388 0.1707981
0.1834456 0.3079661 0.1712570
0.1892787 0.3080051 0.1719042
0.1966777 0.3080609 0.1728132
0.2057953 0.3081411 0.1740825
0.2166891 0.3082566 0.1758418
0.2293072 0.3084235 0.1782550
0.2434988 0.3086655 0.1815207
0.2590452 0.3090181 0.1858641
0.2756988 0.3095337 0.1915187
0.2932180 0.3102886 0.1986969
0.3113919 0.3113920 0.2075546
0.3300520 0.3129939 0.2181612
0.3490749 0.3152891 0.2304866
0.3683761 0.3185133 0.2444095
0.3878998 0.3229283 0.2597430
0.4076077 0.3287931 0.2762677
0.4274700 0.3363273 0.2937599
0.4474603 0.3456716 0.3120129
0.4675544 0.3568610 0.3308486
0.4877301 0.3698184 0.3501207
0.5079686 0.3843732 0.3697145
0.5282541 0.4002966 0.3895423
0.5485744 0.4173399 0.4095385
0.5689199 0.4352660 0.4296552
0.5892836 0.4538670 0.4498576
0.6096603 0.4729726 0.4701207
0.6300462 0.4924487 0.4904268
0.6504387 0.5121936 0.5107631
0.6708359 0.5321316 0.5311208
0.6912363 0.5522074 0.5514934
0.7116390 0.5723811 0.5718767
0.7320434 0.5926241 0.5922673
0.7524488 0.6129160 0.6126632
0.7728551 0.6332424 0.6330627
0.7932619 0.6535930 0.6534648
