release/datafiles/colormanagement/LUTs/luminance_compensation_bt2020.cube
TITLE "Pre-formation 2012 Luminance Compensation for BT.2020 Target"
# Use CIE 2012 Luminance to Compensate for Some Out-of-Domain Values
# This LUT assumes input and output to be E Gamut encoded in Log2 (-10 stop to +15 stop)
# LUT resolution 50
LUT_3D_SIZE 50
-0.0000000 0.0000000 -0.0000000
0.0204082 0.0000000 -0.0000000
0.0408163 0.0000000 -0.0000000
0.0612245 0.0000000 -0.0000000
0.0816327 0.0000000 -0.0000000
0.1020408 0.0000000 -0.0000000
0.1224490 0.0000000 -0.0000000
0.1425847 0.0027762 0.0027758
0.1614404 0.0216341 0.0216316
0.1806784 0.0408736 0.0408698
0.2001963 0.0603925 0.0603878
0.2199166 0.0801135 0.0801081
0.2397813 0.0999787 0.0999728
0.2597477 0.1199455 0.1199393
0.2797845 0.1399825 0.1399761
0.2998685 0.1600667 0.1600602
0.3199828 0.1801811 0.1801745
0.3401147 0.2003131 0.2003064
0.3602547 0.2204531 0.2204463
0.3803953 0.2405938 0.2405870
0.4005309 0.2607293 0.2607225
0.4206564 0.2808549 0.2808481
0.4407677 0.3009662 0.3009594
0.4608610 0.3210595 0.3210527
0.4809323 0.3411308 0.3411240
0.5009778 0.3611764 0.3611695
0.5209934 0.3811919 0.3811850
0.5409742 0.4011728 0.4011659
0.5596161 0.4198146 0.4198078
0.5798663 0.4400649 0.4400580
0.6002729 0.4604715 0.4604646
0.6206800 0.4808785 0.4808717
0.6410874 0.5012859 0.5012791
0.6614950 0.5216935 0.5216867
0.6819028 0.5421013 0.5420945
0.7023107 0.5625092 0.5625023
0.7227186 0.5829172 0.5829103
0.7431267 0.6033252 0.6033184
0.7635347 0.6237333 0.6237264
0.7839428 0.6441414 0.6441345
0.8043510 0.6645495 0.6645426
0.8247591 0.6849576 0.6849508
0.8451672 0.7053658 0.7053589
0.8655754 0.7257739 0.7257671
0.8859835 0.7461821 0.7461752
0.9063917 0.7665902 0.7665834
0.9267998 0.7869984 0.7869915
0.9472080 0.8074065 0.8073997
0.9676162 0.8278147 0.8278078
0.9880243 0.8482229 0.8482160
-0.0000000 0.0204082 -0.0000000
0.0204082 0.0204082 -0.0000000
0.0408163 0.0204082 -0.0000000
0.0612245 0.0204082 -0.0000000
0.0816327 0.0204082 -0.0000000
0.1020408 0.0204082 -0.0000000
0.1224490 0.0204082 -0.0000000
0.1424590 0.0235194 0.0047288
0.1615045 0.0367530 0.0231261
0.1808025 0.0517874 0.0419843
0.2003244 0.0682127 0.0612045
0.2200276 0.0856858 0.0806994
0.2398702 0.1039331 0.1003974
0.2598159 0.1227434 0.1202424
0.2798354 0.1419579 0.1401915
0.2999059 0.1614593 0.1602129
0.3200100 0.1811617 0.1802825
0.3401343 0.2010031 0.2003827
0.3602687 0.2209384 0.2205002
0.3804054 0.2409349 0.2406250
0.4005381 0.2609691 0.2607494
0.4206615 0.2810234 0.2808670
0.4407714 0.3010846 0.3009727
0.4608636 0.3211427 0.3210620
0.4809342 0.3411893 0.3411306
0.5009792 0.3612174 0.3611742
0.5209943 0.3812207 0.3811883
0.5409749 0.4011930 0.4011682
0.5596163 0.4198286 0.4198092
0.5798668 0.4400749 0.4400592
0.6002732 0.4604785 0.4604655
0.6206802 0.4808835 0.4808723
0.6410875 0.5012894 0.5012795
0.6614951 0.5216960 0.5216870
0.6819028 0.5421030 0.5420947
0.7023107 0.5625104 0.5625025
0.7227187 0.5829180 0.5829104
0.7431267 0.6033258 0.6033184
0.7635348 0.6237337 0.6237265
0.7839429 0.6441417 0.6441346
0.8043510 0.6645497 0.6645427
0.8247591 0.6849578 0.6849508
0.8451672 0.7053659 0.7053589
0.8655754 0.7257740 0.7257671
0.8859835 0.7461821 0.7461752
0.9063917 0.7665903 0.7665834
0.9267998 0.7869984 0.7869915
0.9472080 0.8074066 0.8073997
0.9676162 0.8278147 0.8278078
0.9880243 0.8482229 0.8482160
-0.0000000 0.0408163 0.0000000
0.0204082 0.0408163 0.0000000
0.0408163 0.0408163 0.0000000
0.0612245 0.0408163 0.0000000
0.0816327 0.0408163 0.0000000
0.1020408 0.0408163 0.0000000
0.1224490 0.0408163 0.0000000
0.1423547 0.0439945 0.0074377
0.1616077 0.0531010 0.0251957
0.1809753 0.0644617 0.0435332
0.2005009 0.0778052 0.0623452
0.2201814 0.0928084 0.0815291
0.2399941 0.1091439 0.1009954
0.2599114 0.1265132 0.1206705
0.2799070 0.1446626 0.1404966
0.2999587 0.1633880 0.1604295
0.3200484 0.1825311 0.1804359
0.3401621 0.2019723 0.2004912
0.3602887 0.2216228 0.2205769
0.3804197 0.2414175 0.2406791
0.4005483 0.2613090 0.2607875
0.4206688 0.2812625 0.2808939
0.4407766 0.3012528 0.3009917
0.4608673 0.3212609 0.3210754
0.4809368 0.3412724 0.3411400
0.5009811 0.3612758 0.3611808
0.5209957 0.3812618 0.3811930
0.5409759 0.4012219 0.4011715
0.5596167 0.4198486 0.4198112
0.5798674 0.4400893 0.4400610
0.6002736 0.4604886 0.4604667
0.6206805 0.4808906 0.4808731
0.6410877 0.5012944 0.5012801
0.6614952 0.5216995 0.5216874
0.6819029 0.5421055 0.5420950
0.7023108 0.5625121 0.5625027
0.7227187 0.5829192 0.5829106
0.7431267 0.6033267 0.6033185
0.7635348 0.6237343 0.6237266
0.7839429 0.6441421 0.6441346
0.8043510 0.6645500 0.6645427
0.8247591 0.6849580 0.6849508
0.8451672 0.7053660 0.7053589
0.8655754 0.7257741 0.7257671
0.8859835 0.7461822 0.7461752
0.9063917 0.7665903 0.7665834
0.9267998 0.7869984 0.7869915
0.9472080 0.8074066 0.8073997
0.9676162 0.8278147 0.8278079
0.9880243 0.8482229 0.8482160
-0.0000000 0.0612245 0.0000000
0.0204082 0.0612245 0.0000000
0.0408163 0.0612245 0.0000000
0.0612245 0.0612245 0.0000000
0.0816327 0.0612245 0.0000000
0.1020408 0.0612245 0.0000000
0.1224490 0.0612245 0.0000000
0.1423171 0.0642743 0.0111394
0.1617738 0.0704364 0.0280294
0.1812142 0.0787570 0.0456665
0.2007418 0.0892159 0.0639267
0.2203924 0.1016618 0.0826867
0.2401656 0.1158521 0.1018340
0.2600446 0.1314993 0.1212734
0.2800075 0.1483138 0.1409275
0.3000330 0.1660314 0.1607361
0.3201027 0.1844287 0.1806535
0.3402014 0.2033260 0.2006453
0.3603170 0.2225842 0.2206858
0.3804400 0.2420981 0.2407560
0.4005628 0.2617897 0.2608418
0.4206792 0.2816015 0.2809322
0.4407840 0.3014916 0.3010187
0.4608726 0.3214290 0.3210945
0.4809406 0.3413906 0.3411535
0.5009837 0.3613589 0.3611903
0.5209976 0.3813202 0.3811997
0.5409772 0.4012629 0.4011763
0.5596172 0.4198770 0.4198141
0.5798682 0.4401097 0.4400635
0.6002742 0.4605030 0.4604685
0.6206809 0.4809006 0.4808744
0.6410880 0.5013014 0.5012810
0.6614955 0.5217044 0.5216880
0.6819031 0.5421090 0.5420954
0.7023109 0.5625146 0.5625030
0.7227188 0.5829210 0.5829108
0.7431268 0.6033279 0.6033187
0.7635348 0.6237351 0.6237267
0.7839429 0.6441427 0.6441347
0.8043510 0.6645504 0.6645428
0.8247591 0.6849583 0.6849509
0.8451673 0.7053662 0.7053590
0.8655754 0.7257742 0.7257671
0.8859835 0.7461823 0.7461752
0.9063917 0.7665904 0.7665834
0.9267999 0.7869985 0.7869915
0.9472080 0.8074066 0.8073997
0.9676162 0.8278148 0.8278079
0.9880243 0.8482229 0.8482160
-0.0000000 0.0816327 0.0000000
0.0204082 0.0816327 0.0000000
0.0408163 0.0816327 0.0000000
0.0612245 0.0816327 0.0000000
0.0816327 0.0816327 0.0000000
0.1020408 0.0816327 0.0000000
0.1224377 0.0818274 0.0014444
0.1424150 0.0844215 0.0160952
0.1620386 0.0885382 0.0318515
0.1815430 0.0944643 0.0485693
0.2010668 0.1023814 0.0660984
0.2206784 0.1123395 0.0842893
0.2404003 0.1242574 0.1030032
0.2602285 0.1379471 0.1221186
0.2801473 0.1531549 0.1415341
0.3001372 0.1696044 0.1611693
0.3201792 0.1870310 0.1809616
0.3402570 0.2052025 0.2008637
0.3603571 0.2239273 0.2208404
0.3804688 0.2430543 0.2408653
0.4005835 0.2624677 0.2609190
0.4206940 0.2820810 0.2809867
0.4407946 0.3018300 0.3010572
0.4608801 0.3216675 0.3211216
0.4809460 0.3415585 0.3411726
0.5009876 0.3614771 0.3612038
0.5210003 0.3814033 0.3812092
0.5409792 0.4013214 0.4011830
0.5596180 0.4199174 0.4198182
0.5798694 0.4401388 0.4400671
0.6002751 0.4605234 0.4604710
0.6206815 0.4809150 0.4808761
0.6410884 0.5013115 0.5012822
0.6614957 0.5217115 0.5216889
0.6819033 0.5421139 0.5420960
0.7023110 0.5625181 0.5625034
0.7227189 0.5829234 0.5829111
0.7431269 0.6033296 0.6033189
0.7635349 0.6237364 0.6237268
0.7839429 0.6441435 0.6441348
0.8043510 0.6645510 0.6645428
0.8247591 0.6849587 0.6849509
0.8451673 0.7053665 0.7053590
0.8655754 0.7257744 0.7257671
0.8859835 0.7461824 0.7461753
0.9063917 0.7665905 0.7665834
0.9267999 0.7869986 0.7869915
0.9472080 0.8074067 0.8073997
0.9676162 0.8278148 0.8278079
0.9880243 0.8482229 0.8482160
-0.0000000 0.1020408 0.0000000
0.0204082 0.1020408 0.0000000
0.0408163 0.1020408 0.0000000
0.0612245 0.1020408 0.0000000
0.0816327 0.1020408 0.0000000
0.1020408 0.1020408 0.0000000
0.1226543 0.1028307 0.0095755
0.1427422 0.1044920 0.0225598
0.1624545 0.1072209 0.0369071
0.1819930 0.1113419 0.0524589
0.2014995 0.1171423 0.0690432
0.2210604 0.1248262 0.0864860
0.2407172 0.1344812 0.1046205
0.2604800 0.1460676 0.1232963
0.2803405 0.1594334 0.1423844
0.3002822 0.1743496 0.1617790
0.3202863 0.1905518 0.1813966
0.3403352 0.2077772 0.2011730
0.3604138 0.2257896 0.2210597
0.3805096 0.2443902 0.2410206
0.4006127 0.2634204 0.2610287
0.4207149 0.2827574 0.2810642
0.4408095 0.3023088 0.3011119
0.4608908 0.3220056 0.3211602
0.4809536 0.3417969 0.3411998
0.5009930 0.3616450 0.3612230
0.5210042 0.3815215 0.3812228
0.5409820 0.4014045 0.4011926
0.5596191 0.4199750 0.4198240
0.5798712 0.4401802 0.4400722
0.6002763 0.4605525 0.4604745
0.6206824 0.4809354 0.4808786
0.6410891 0.5013259 0.5012840
0.6614962 0.5217216 0.5216901
0.6819036 0.5421210 0.5420969
0.7023113 0.5625230 0.5625040
0.7227191 0.5829269 0.5829115
0.7431270 0.6033320 0.6033192
0.7635349 0.6237381 0.6237270
0.7839430 0.6441447 0.6441349
0.8043511 0.6645519 0.6645429
0.8247592 0.6849593 0.6849510
0.8451673 0.7053669 0.7053591
0.8655754 0.7257747 0.7257672
0.8859836 0.7461826 0.7461753
0.9063917 0.7665906 0.7665834
0.9267999 0.7869987 0.7869916
0.9472080 0.8074067 0.8073997
0.9676162 0.8278148 0.8278079
0.9880243 0.8482230 0.8482160
-0.0000000 0.1224490 0.0000000
0.0204082 0.1224490 0.0000000
0.0408163 0.1224490 0.0000000
0.0612245 0.1224490 0.0000000
0.0820089 0.1225134 0.0022556
0.1030348 0.1228339 0.0101178
0.1234464 0.1234464 0.0196090
0.1434170 0.1245335 0.0307384
0.1630936 0.1263378 0.0434360
0.1826074 0.1291492 0.0575711
0.2020693 0.1332755 0.0729744
0.2215627 0.1390006 0.0894586
0.2411386 0.1465388 0.1068347
0.2608190 0.1559989 0.1249244
0.2806043 0.1673672 0.1435688
0.3004824 0.1805158 0.1626334
0.3204354 0.1952326 0.1820090
0.3404447 0.2112626 0.2016098
0.3604935 0.2283456 0.2213702
0.3805672 0.2462429 0.2412407
0.4006542 0.2647515 0.2611845
0.4207447 0.2837077 0.2811743
0.4408308 0.3029840 0.3011897
0.4609060 0.3224838 0.3212151
0.4809645 0.3421348 0.3412386
0.5010008 0.3618834 0.3612504
0.5210098 0.3816894 0.3812421
0.5409859 0.4015227 0.4012062
0.5596206 0.4200568 0.4198323
0.5798737 0.4402392 0.4400794
0.6002781 0.4605939 0.4604796
0.6206836 0.4809645 0.4808822
0.6410899 0.5013463 0.5012865
0.6614968 0.5217359 0.5216919
0.6819040 0.5421311 0.5420981
0.7023115 0.5625301 0.5625049
0.7227193 0.5829319 0.5829121
0.7431271 0.6033355 0.6033196
0.7635351 0.6237405 0.6237273
0.7839431 0.6441465 0.6441351
0.8043511 0.6645531 0.6645431
0.8247592 0.6849601 0.6849511
0.8451673 0.7053675 0.7053591
0.8655754 0.7257752 0.7257672
0.8859836 0.7461829 0.7461753
0.9063917 0.7665908 0.7665834
0.9267999 0.7869988 0.7869916
0.9472080 0.8074068 0.8073997
0.9676162 0.8278149 0.8278079
0.9880243 0.8482230 0.8482160
0.0049773 0.1428981 0.0049768
0.0251972 0.1429237 0.0069335
0.0453575 0.1429683 0.0095999
0.0654379 0.1430467 0.0131779
0.0854166 0.1431855 0.0178871
0.1052735 0.1434304 0.0239424
0.1249954 0.1438568 0.0315236
0.1445821 0.1445822 0.0407448
0.1640525 0.1457772 0.0516348
0.1834454 0.1476687 0.0641364
0.2028137 0.1505308 0.0781220
0.2222131 0.1546598 0.0934175
0.2416889 0.1603351 0.1098269
0.2612684 0.1677765 0.1271516
0.2809595 0.1771056 0.1452053
0.3007556 0.1883252 0.1638233
0.3206411 0.2013233 0.1828670
0.3405972 0.2159000 0.2022246
0.3606051 0.2318071 0.2218086
0.3806483 0.2487862 0.2415522
0.4007127 0.2665977 0.2614054
0.4207867 0.2850357 0.2813306
0.4408610 0.3039328 0.3013002
0.4609276 0.3231584 0.3212932
0.4809799 0.3426128 0.3412937
0.5010118 0.3622212 0.3612893
0.5210177 0.3819278 0.3812696
0.5409916 0.4016906 0.4012256
0.5596228 0.4201732 0.4198442
0.5798772 0.4403230 0.4400897
0.6002805 0.4606528 0.4604869
0.6206853 0.4810059 0.4808873
0.6410911 0.5013754 0.5012900
0.6614976 0.5217564 0.5216944
0.6819046 0.5421454 0.5420999
0.7023120 0.5625402 0.5625062
0.7227196 0.5829389 0.5829130
0.7431273 0.6033405 0.6033202
0.7635352 0.6237440 0.6237277
0.7839432 0.6441489 0.6441354
0.8043512 0.6645548 0.6645433
0.8247592 0.6849613 0.6849512
0.8451673 0.7053684 0.7053592
0.8655755 0.7257757 0.7257673
0.8859836 0.7461834 0.7461754
0.9063917 0.7665911 0.7665835
0.9267999 0.7869990 0.7869916
0.9472080 0.8074070 0.8073997
0.9676162 0.8278150 0.8278079
0.9880243 0.8482231 0.8482160
0.0255032 0.1634220 0.0255009
0.0400775 0.1634519 0.0268588
0.0559478 0.1634978 0.0287347
0.0728587 0.1635695 0.0312968
0.0905621 0.1636838 0.0347448
0.1088370 0.1638684 0.0392991
0.1274994 0.1641694 0.0451800
0.1464060 0.1646608 0.0525773
0.1654557 0.1654558 0.0616183
0.1845890 0.1667175 0.0723454
0.2037837 0.1686629 0.0847104
0.2230458 0.1715557 0.0985893
0.2423955 0.1756838 0.1138058
0.2618531 0.1813234 0.1301585
0.2814296 0.1886971 0.1474428
0.3011231 0.1979343 0.1654667
0.3209218 0.2090489 0.1840615
0.3408075 0.2219396 0.2030857
0.3607605 0.2364150 0.2224255
0.3807619 0.2522315 0.2419922
0.4007951 0.2691326 0.2617180
0.4208461 0.2868776 0.2815523
0.4409037 0.3052588 0.3014571
0.4609582 0.3241063 0.3214042
0.4810018 0.3432871 0.3413721
0.5010275 0.3626991 0.3613447
0.5210289 0.3822656 0.3813087
0.5409996 0.4019290 0.4012532
0.5596259 0.4203386 0.4198610
0.5798822 0.4404422 0.4401044
0.6002841 0.4607366 0.4604972
0.6206878 0.4810648 0.4808945
0.6410929 0.5014168 0.5012951
0.6614989 0.5217854 0.5216980
0.6819055 0.5421659 0.5421024
0.7023126 0.5625545 0.5625079
0.7227200 0.5829490 0.5829142
0.7431276 0.6033476 0.6033211
0.7635354 0.6237490 0.6237284
0.7839433 0.6441524 0.6441359
0.8043513 0.6645572 0.6645436
0.8247593 0.6849631 0.6849514
0.8451674 0.7053696 0.7053594
0.8655755 0.7257766 0.7257674
0.8859836 0.7461840 0.7461754
0.9063917 0.7665915 0.7665835
0.9267999 0.7869993 0.7869916
0.9472080 0.8074072 0.8073998
0.9676162 0.8278152 0.8278079
0.9880243 0.8482232 0.8482160
0.0459638 0.1838814 0.0459604
0.0564011 0.1839078 0.0469061
0.0685822 0.1839468 0.0482246
0.0823765 0.1840052 0.0500481
0.0975747 0.1840939 0.0525422
0.1139258 0.1842305 0.0559050
0.1311739 0.1844436 0.0603571
0.1490841 0.1847796 0.0661216
0.1674597 0.1853116 0.0733948
0.1861499 0.1861500 0.0823125
0.2050515 0.1874530 0.0929260
0.2241061 0.1894313 0.1051941
0.2432899 0.1923413 0.1189953
0.2625999 0.1964654 0.1341527
0.2820397 0.2020772 0.1504614
0.3016089 0.2094007 0.1677127
0.3212991 0.2185709 0.1857109
0.3410943 0.2296086 0.2042844
0.3609748 0.2424201 0.2232896
0.3809198 0.2568197 0.2426112
0.4009104 0.2725671 0.2621595
0.4209297 0.2894069 0.2818661
0.4409640 0.3070980 0.3016796
0.4610016 0.3254311 0.3215617
0.4810329 0.3442345 0.3414836
0.5010498 0.3633732 0.3614234
0.5210448 0.3827435 0.3813643
0.5410110 0.4022670 0.4012925
0.5596303 0.4205733 0.4198850
0.5798893 0.4406116 0.4401253
0.6002891 0.4608558 0.4605119
0.6206913 0.4811487 0.4809049
0.6410953 0.5014757 0.5013024
0.6615006 0.5218268 0.5217030
0.6819067 0.5421949 0.5421059
0.7023134 0.5625750 0.5625104
0.7227206 0.5829634 0.5829160
0.7431280 0.6033576 0.6033223
0.7635357 0.6237561 0.6237292
0.7839435 0.6441574 0.6441365
0.8043514 0.6645607 0.6645440
0.8247594 0.6849655 0.6849517
0.8451675 0.7053713 0.7053596
0.8655755 0.7257778 0.7257675
0.8859836 0.7461848 0.7461755
0.9063918 0.7665921 0.7665836
0.9267999 0.7869997 0.7869917
0.9472080 0.8074075 0.8073998
0.9676162 0.8278154 0.8278079
0.9880243 0.8482233 0.8482161
0.0663801 0.2042968 0.0663759
0.0738161 0.2043178 0.0670360
0.0829695 0.2043483 0.0679623
0.0938931 0.2043931 0.0692545
0.1065292 0.2044594 0.0710429
0.1207207 0.2045586 0.0734913
0.1362418 0.2047091 0.0767966
0.1528369 0.2049401 0.0811791
0.1702552 0.2052979 0.0868640
0.1882755 0.2058550 0.0940512
0.2067199 0.2067200 0.1028826
0.2254598 0.2080480 0.1134152
0.2444137 0.2100451 0.1256128
0.2635385 0.2129631 0.1393562
0.2828160 0.2170802 0.1544679
0.3022383 0.2226686 0.1707411
0.3217973 0.2299530 0.1879643
0.3414797 0.2390718 0.2059393
0.3612669 0.2500510 0.2244923
0.3811377 0.2628017 0.2434782
0.4010708 0.2771421 0.2627807
0.4210468 0.2928344 0.2823091
0.4410488 0.3096238 0.3019946
0.4610628 0.3272687 0.3217851
0.4810769 0.3455586 0.3416417
0.5010814 0.3643205 0.3615353
0.5210675 0.3834177 0.3814434
0.5410273 0.4027450 0.4013484
0.5596365 0.4209059 0.4199191
0.5798995 0.4408520 0.4401550
0.6002962 0.4610252 0.4605328
0.6206964 0.4812678 0.4809195
0.6410989 0.5015595 0.5013127
0.6615031 0.5218858 0.5217103
0.6819084 0.5422363 0.5421110
0.7023147 0.5626040 0.5625140
0.7227214 0.5829838 0.5829185
0.7431286 0.6033720 0.6033241
0.7635361 0.6237661 0.6237305
0.7839438 0.6441644 0.6441374
0.8043516 0.6645657 0.6645446
0.8247596 0.6849690 0.6849522
0.8451676 0.7053738 0.7053599
0.8655756 0.7257795 0.7257677
0.8859837 0.7461860 0.7461757
0.9063918 0.7665930 0.7665837
0.9267999 0.7870003 0.7869918
0.9472081 0.8074079 0.8073999
0.9676162 0.8278157 0.8278080
0.9880244 0.8482235 0.8482161
0.0867659 0.2246820 0.0867611
0.0920425 0.2246978 0.0872225
0.0988040 0.2247206 0.0878730
0.1072300 0.2247536 0.0887860
0.1174158 0.2248019 0.0900602
0.1293491 0.2248730 0.0918244
0.1429105 0.2249788 0.0942414
0.1578979 0.2251378 0.0975068
0.1740634 0.2253796 0.1018410
0.1911518 0.2257505 0.1074700
0.2089294 0.2263226 0.1145963
0.2272030 0.2272031 0.1233657
0.2458280 0.2285450 0.1338393
0.2647081 0.2305512 0.1459843
0.2837874 0.2334703 0.1596830
0.3030371 0.2375781 0.1747581
0.3224418 0.2431453 0.1910013
0.3419881 0.2503973 0.2081993
0.3616592 0.2594747 0.2261523
0.3814346 0.2704071 0.2446847
0.4012920 0.2831088 0.2636505
0.4212096 0.2974009 0.2829324
0.4411676 0.3130469 0.3024392
0.4611488 0.3297924 0.3221012
0.4811390 0.3473953 0.3418660
0.5011261 0.3656443 0.3616942
0.5210996 0.3843650 0.3815558
0.5410503 0.4034193 0.4014279
0.5596454 0.4213765 0.4199677
0.5799139 0.4411928 0.4401974
0.6003064 0.4612656 0.4605625
0.6207035 0.4814372 0.4809404
0.6411039 0.5016787 0.5013274
0.6615066 0.5219696 0.5217206
0.6819109 0.5422953 0.5421183
0.7023164 0.5626454 0.5625191
0.7227227 0.5830129 0.5829221
0.7431295 0.6033924 0.6033266
0.7635367 0.6237805 0.6237322
0.7839442 0.6441745 0.6441386
0.8043519 0.6645728 0.6645455
0.8247598 0.6849740 0.6849528
0.8451677 0.7053772 0.7053603
0.8655757 0.7257820 0.7257680
0.8859838 0.7461877 0.7461759
0.9063919 0.7665942 0.7665839
0.9268000 0.7870012 0.7869919
0.9472081 0.8074085 0.8073999
0.9676162 0.8278161 0.8278080
0.9880244 0.8482238 0.8482161
0.1071300 0.2450458 0.1071249
0.1108633 0.2450573 0.1074478
0.1157914 0.2450738 0.1079044
0.1221479 0.2450977 0.1085481
0.1301286 0.2451322 0.1094519
0.1398533 0.2451826 0.1107134
0.1513380 0.2452565 0.1124607
0.1644893 0.2453659 0.1148554
0.1791230 0.2455298 0.1180925
0.1949992 0.2457777 0.1223923
0.2118620 0.2461560 0.1279811
0.2294713 0.2467360 0.1350633
0.2476243 0.2476244 0.1437870
0.2661661 0.2489723 0.1542163
0.2849907 0.2509807 0.1663205
0.3040333 0.2538961 0.1799834
0.3232584 0.2579922 0.1950277
0.3426451 0.2635390 0.2112442
0.3621763 0.2707625 0.2284186
0.3818330 0.2798048 0.2463496
0.4015933 0.2906976 0.2648608
0.4214340 0.3033579 0.2838052
0.4413327 0.3176081 0.3030647
0.4612694 0.3332130 0.3225475
0.4812264 0.3499180 0.3421834
0.5011892 0.3674808 0.3619194
0.5211450 0.3856889 0.3817154
0.5410829 0.4043668 0.4015409
0.5596580 0.4220402 0.4200368
0.5799345 0.4416749 0.4402576
0.6003208 0.4616063 0.4606048
0.6207137 0.4816775 0.4809702
0.6411110 0.5018480 0.5013483
0.6615116 0.5220887 0.5217353
0.6819145 0.5423791 0.5421286
0.7023189 0.5627044 0.5625263
0.7227244 0.5830543 0.5829272
0.7431307 0.6034215 0.6033302
0.7635376 0.6238009 0.6237347
0.7839448 0.6441889 0.6441404
0.8043524 0.6645828 0.6645467
0.8247601 0.6849810 0.6849536
0.8451679 0.7053822 0.7053609
0.8655759 0.7257855 0.7257685
0.8859839 0.7461902 0.7461762
0.9063919 0.7665959 0.7665841
0.9268000 0.7870024 0.7869920
0.9472081 0.8074093 0.8074000
0.9676162 0.8278167 0.8278081
0.9880244 0.8482242 0.8482162
0.1274786 0.2653940 0.1274732
0.1301141 0.2654022 0.1276993
0.1336694 0.2654140 0.1280198
0.1383789 0.2654310 0.1284729
0.1444788 0.2654553 0.1291118
0.1521738 0.2654906 0.1300089
0.1615986 0.2655420 0.1312613
0.1727877 0.2656173 0.1329963
0.1856650 0.2657286 0.1353750
0.2000593 0.2658948 0.1385916
0.2157374 0.2661455 0.1428661
0.2324437 0.2665269 0.1484254
0.2499344 0.2671101 0.1554746
0.2680007 0.2680009 0.1641634
0.2864809 0.2693492 0.1745581
0.3052622 0.2713547 0.1866294
0.3242741 0.2742623 0.2002622
0.3434762 0.2783446 0.2152792
0.3628440 0.2838711 0.2314709
0.3823581 0.2910680 0.2486221
0.4019976 0.3000786 0.2665306
0.4217396 0.3109362 0.2850193
0.4415604 0.3235592 0.3039404
0.4614369 0.3377713 0.3231753
0.4813488 0.3533374 0.3426315
0.5012779 0.3700032 0.3622382
0.5212091 0.3875256 0.3819417
0.5411292 0.4056911 0.4017012
0.5596758 0.4229727 0.4201349
0.5799636 0.4423551 0.4403432
0.6003414 0.4620884 0.4606650
0.6207281 0.4820183 0.4810125
0.6411212 0.5020884 0.5013780
0.6615188 0.5222581 0.5217562
0.6819195 0.5424982 0.5421433
0.7023224 0.5627882 0.5625366
0.7227269 0.5831132 0.5829344
0.7431325 0.6034629 0.6033353
0.7635388 0.6238300 0.6237383
0.7839457 0.6442093 0.6441429
0.8043530 0.6645972 0.6645485
0.8247605 0.6849911 0.6849549
0.8451682 0.7053893 0.7053618
0.8655761 0.7257904 0.7257691
0.8859840 0.7461937 0.7461766
0.9063920 0.7665984 0.7665844
0.9268001 0.7870041 0.7869922
0.9472082 0.8074106 0.8074002
0.9676163 0.8278175 0.8278082
0.9880244 0.8482248 0.8482163
0.1478151 0.2857304 0.1478095
0.1496727 0.2857361 0.1479680
0.1522182 0.2857444 0.1481928
0.1556583 0.2857563 0.1485115
0.1602255 0.2857734 0.1489621
0.1661570 0.2857979 0.1495974
0.1736630 0.2858334 0.1504896
0.1828877 0.2858851 0.1517353
0.1938776 0.2859607 0.1534612
0.2065686 0.2860725 0.1558280
0.2207985 0.2862392 0.1590293
0.2363389 0.2864904 0.1632848
0.2529352 0.2868720 0.1688215
0.2703410 0.2874548 0.1758451
0.2883437 0.2883439 0.1845064
0.3067768 0.2896884 0.1948728
0.3255230 0.2916871 0.2069163
0.3445077 0.2945836 0.2205225
0.3636875 0.2986500 0.2355142
0.3830353 0.3041555 0.2516817
0.4025299 0.3113265 0.2688091
0.4221495 0.3203071 0.2866940
0.4418702 0.3311315 0.3051585
0.4616678 0.3437193 0.3240541
0.4815188 0.3578945 0.3432616
0.5014022 0.3734224 0.3626881
0.5212993 0.3900483 0.3822619
0.5411944 0.4075283 0.4019286
0.5597010 0.4242755 0.4202742
0.5800049 0.4433108 0.4404648
0.6003705 0.4627685 0.4607506
0.6207486 0.4825003 0.4810727
0.6411357 0.5024291 0.5014203
0.6615289 0.5224984 0.5217859
0.6819266 0.5426676 0.5421642
0.7023274 0.5629073 0.5625513
0.7227304 0.5831970 0.5829447
0.7431349 0.6035218 0.6033425
0.7635405 0.6238714 0.6237434
0.7839469 0.6442384 0.6441464
0.8043538 0.6646176 0.6645510
0.8247611 0.6850055 0.6849566
0.8451686 0.7053994 0.7053630
0.8655764 0.7257975 0.7257700
0.8859842 0.7461986 0.7461772
0.9063922 0.7666019 0.7665848
0.9268002 0.7870065 0.7869925
0.9472082 0.8074123 0.8074004
0.9676163 0.8278187 0.8278083
0.9880244 0.8482257 0.8482164
0.1681419 0.3060570 0.1681362
0.1694497 0.3060611 0.1682473
0.1712621 0.3060668 0.1684050
0.1737479 0.3060751 0.1686289
0.1771114 0.3060869 0.1689462
0.1815834 0.3061039 0.1693948
0.1874020 0.3061283 0.1700275
0.1947805 0.3061637 0.1709159
0.2038692 0.3062151 0.1721565
0.2147228 0.3062904 0.1738756
0.2272853 0.3064016 0.1762331
0.2414008 0.3065675 0.1794226
0.2568444 0.3068174 0.1836633
0.2733621 0.3071970 0.1891821
0.2907061 0.3077766 0.1961850
0.3086608 0.3086609 0.2048235
0.3270565 0.3099984 0.2151657
0.3457728 0.3119870 0.2271845
0.3647325 0.3148697 0.2407659
0.3838897 0.3189182 0.2557330
0.4032160 0.3244014 0.2718760
0.4226888 0.3315461 0.2889787
0.4422857 0.3404969 0.3068383
0.4619821 0.3512887 0.3252763
0.4817531 0.3638414 0.3441437
0.5015748 0.3779795 0.3633208
0.5214256 0.3934680 0.3827137
0.5412862 0.4100517 0.4022503
0.5597393 0.4260854 0.4204746
0.5800633 0.4446468 0.4406373
0.6004118 0.4637241 0.4608722
0.6207778 0.4831803 0.4811583
0.6411562 0.5029111 0.5014805
0.6615434 0.5228391 0.5218282
0.6819368 0.5429079 0.5421939
0.7023346 0.5630766 0.5625722
0.7227354 0.5833161 0.5829594
0.7431385 0.6036056 0.6033528
0.7635430 0.6239303 0.6237506
0.7839487 0.6442798 0.6441515
