release/datafiles/colormanagement/config.ocio
# OpenColorIO configuration file for Blender, replacing Filmic

# Based on original AgX by Troy Sobotka: https://github.com/sobotka/AgX https://github.com/sobotka/SB2383-Configuration-Generation

# Further Developed by Zijun Eary Zhou法纤净, Mark Faderbauer, and Sakari Kapanen
# Repository for this version: https://github.com/EaryChow/AgX

ocio_profile_version: 2

environment:
  {}
search_path: LUTs:filmic
strictparsing: true
luma: [0.2126, 0.7152, 0.0722]

roles:
  # When using Spectral Cycles, Change color_picking role to I-E
  color_picking: sRGB
  color_timing: AgX Log
  compositing_log: AgX Log
  data: Non-Color
  default: sRGB
  default_byte: sRGB
  default_float: Linear BT.709 I-D65
  default_sequencer: sRGB
  matte_paint: sRGB
  reference: Linear CIE-XYZ I-E
  # When using Spectral Cycles, Change scene_linear and rendering role to I-E
  scene_linear: Linear BT.709 I-D65
  rendering: Linear BT.709 I-D65
  texture_paint: sRGB
  # When using Spectral Cycles, Change XYZ role to I-E, and comment out the aces_interchange role
  XYZ: Linear CIE-XYZ I-D65
  aces_interchange: ACES2065-1
  cie_xyz_d65_interchange: Linear CIE-XYZ I-D65

file_rules:
  - !<Rule> {name: Default, colorspace: default}

displays:
  sRGB:
    - !<View> {name: Guard Rail, colorspace: Guard Rail sRGB}
    - !<View> {name: AgX, colorspace: AgX Base sRGB}
    - !<View> {name: Filmic, colorspace: Filmic sRGB}
    - !<View> {name: AgX Log,colorspace: AgX Log}
    - !<View> {name: AgX False Color, colorspace: AgX False Color}
    - !<View> {name: Standard, colorspace: sRGB}
    - !<View> {name: None, colorspace: Non-Color}
  Display P3:
    - !<View> {name: Guard Rail, colorspace: Guard Rail P3}
    - !<View> {name: AgX, colorspace: AgX Base Display P3}
    - !<View> {name: AgX Log,colorspace: AgX Log}
    - !<View> {name: AgX False Color, colorspace: AgX False Color}
    - !<View> {name: Standard, colorspace: Display P3}
    - !<View> {name: None, colorspace: Non-Color}
  BT.1886:
    - !<View> {name: Guard Rail, colorspace: Guard Rail BT.1886}
    - !<View> {name: AgX, colorspace: AgX Base BT.1886}
    - !<View> {name: AgX Log,colorspace: AgX Log}
    - !<View> {name: AgX False Color, colorspace: AgX False Color}
    - !<View> {name: Standard, colorspace: BT.1886}
    - !<View> {name: None, colorspace: Non-Color}
  BT.2020:
    - !<View> {name: Guard Rail, colorspace: Guard Rail BT.2020}
    - !<View> {name: AgX, colorspace: AgX Base BT.2020}
    - !<View> {name: AgX Log,colorspace: AgX Log}
    - !<View> {name: AgX False Color, colorspace: AgX False Color}
    - !<View> {name: Standard, colorspace: BT.2020}
    - !<View> {name: None, colorspace: Non-Color}
active_displays: []
active_views: []
inactive_colorspaces: [Guard Rail sRGB, Guard Rail P3, Guard Rail BT.1886, Guard Rail BT.2020, Luminance Compensation BT.2020, Display P3 I-E, sRGB I-E, BT.2020 I-E, AgX False Color]

looks:
  - !<Look>
    name: Punchy
    process_space: AgX Base BT.2020
    description: A post-formation punchy look
    transform: !<GroupTransform>
      children:
        - !<CDLTransform> {power: [1.35, 1.35, 1.35]}
        - !<ColorSpaceTransform> {src: BT.2020, dst: Guard Rail BT.2020}

  - !<Look>
    name: Green Ink
    process_space: AgX Base BT.2020
    description: A Post-Formation Look with Green Tint in Lower Range and Warm Tint in Higher Range
    transform: !<GroupTransform>
      children:
        - !<CDLTransform> {slope: [1, 0.85, 0.9]}
        - !<GradingToneTransform>
         shadows: {rgb: [0.5, 0.8, 0.7], master: 1, start: 2, pivot: 0.001}
        - !<GradingToneTransform>
         shadows: {rgb: [0.9, 1.2, 0.9], master: 0.2, start: 0.5, pivot: 0.001}
        - !<CDLTransform> {power: [0.78, 0.78377, 0.7799]}
        - !<CDLTransform> {slope: [1.09696, 1.0972, 1.0969]}
        - !<ColorSpaceTransform> {src: BT.2020, dst: Guard Rail BT.2020}

  - !<Look>
    name: Greyscale
    process_space: AgX Log
    description: A Black and White Look
    transform: !<GroupTransform>
      children:
        - !<AllocationTransform> {allocation: lg2, vars: [-12.47393, 12.5260688117], direction: inverse}
        - !<MatrixTransform> {matrix: [0.2658180370250449, 0.59846986045365, 0.1357121025213052, 0, 0.2658180370250449, 0.59846986045365, 0.1357121025213052, 0, 0.2658180370250449, 0.59846986045365, 0.1357121025213052, 0, 0, 0, 0, 1]}
        - !<AllocationTransform> {allocation: lg2, vars: [-12.47393, 12.5260688117]}

  - !<Look>
    name: Very High Contrast
    process_space: AgX Log
    description: A Very High Contrast Look
    transform: !<GroupTransform>
      children:
        - !<GradingPrimaryTransform>
          style: log
          contrast: {rgb: [1.57, 1.57, 1.57], master: 1}
          saturation: 0.9
          pivot: {contrast: -0.2}

  - !<Look>
    name: High Contrast
    process_space: AgX Log
    description: A High Contrast Look
    transform: !<GroupTransform>
      children:
        - !<GradingPrimaryTransform>
          style: log
          contrast: {rgb: [1.4, 1.4, 1.4], master: 1}
          saturation: 0.95
          pivot: {contrast: -0.2}

  - !<Look>
    name: Medium High Contrast
    process_space: AgX Log
    description: A Medium High Contrast Look
    transform: !<GroupTransform>
      children:
        - !<GradingPrimaryTransform>
          style: log
          contrast: {rgb: [1.2, 1.2, 1.2], master: 1}
          saturation: 1
          pivot: {contrast: -0.2}

  - !<Look>
    name: Base Contrast
    process_space: AgX Log
    description: A Base Contrast Look
    transform: !<GroupTransform>
      children:
        - !<GradingPrimaryTransform>
          style: log
          contrast: {rgb: [1, 1, 1], master: 1}
          pivot: {contrast: -0.2}

  - !<Look>
    name: Medium Low Contrast
    process_space: AgX Log
    description: A Medium Low Contrast Look
    transform: !<GroupTransform>
      children:
        - !<GradingPrimaryTransform>
          style: log
          contrast: {rgb: [0.9, 0.9, 0.9], master: 1}
          saturation: 1.05
          pivot: {contrast: -0.2}

  - !<Look>
    name: Low Contrast
    process_space: AgX Log
    description: A Low Contrast Look
    transform: !<GroupTransform>
      children:
        - !<GradingPrimaryTransform>
          style: log
          contrast: {rgb: [0.8, 0.8, 0.8], master: 1}
          saturation: 1.1
          pivot: {contrast: -0.2}

  - !<Look>
    name: Very Low Contrast
    process_space: AgX Log
    description: A Very Low Contrast Look
    transform: !<GroupTransform>
      children:
        - !<GradingPrimaryTransform>
          style: log
          contrast: {rgb: [0.7, 0.7, 0.7], master: 1}
          saturation: 1.15
          pivot: {contrast: -0.2}

colorspaces:
  - !<ColorSpace>
    name: Linear CIE-XYZ I-E
    aliases: ["FilmLight: Linear - XYZ"]
    family: Chromaticity
    equalitygroup: ""
    bitdepth: 32f
    description: |
      1931 CIE XYZ with assumed I-E white point
    isdata: false
    allocation: uniform
    allocationvars: [-12.4739, 12.5261]

  - !<ColorSpace>
    name: Linear CIE-XYZ I-D65
    aliases: [cie_xyz_d65, CIE-XYZ-D65]
    family: Chromaticity
    equalitygroup:
    bitdepth: 32f
    description: |
      1931 CIE XYZ with adapted I-D65 white point
    isdata: false
    allocation: uniform
    from_scene_reference: !<FileTransform> {src: xyz_E_to_D65.spimtx, interpolation: linear}
    to_scene_reference: !<FileTransform> {src: xyz_D65_to_E.spimtx, interpolation: linear}

  - !<ColorSpace>
    name: Linear BT.709 I-E
    aliases: []
    family: Colourspaces
    equalitygroup: ""
    bitdepth: 32f
    description: Open Domain Linear BT.709 Tristimulus with I-E white point
    isdata: false
    allocation: uniform
    from_scene_reference: !<GroupTransform>
      children:
        - !<MatrixTransform> {matrix: [2.6896551724137931, -1.2758620689655173, -0.4137931034482757, 0, -1.0221081721279115, 1.9782866166600865, 0.0438215554678247, 0, 0.0612244897959184, -0.2244897959183672, 1.1632653061224481, 0, 0, 0, 0, 1]}

  - !<ColorSpace>
    name: Linear BT.709 I-D65
    aliases: [Linear, Linear BT.709, Linear Tristimulus, Linear Rec.709, linrec709, Utility - Linear - sRGB, Utility - Linear - Rec.709, lin_srgb, Linear Rec.709 (sRGB), lin_rec709_srgb, lin_rec709, lin_srgb, "CGI: Linear - Rec.709"]
    family: Colourspaces
    equalitygroup: ""
    bitdepth: 32f
    description: Open Domain Linear BT.709 Tristimulus with I-D65 white point
    isdata: false
    allocation: uniform
    from_scene_reference: !<GroupTransform>
      children:
        - !<ColorSpaceTransform> {src: Linear CIE-XYZ I-E, dst: Linear CIE-XYZ I-D65}
        - !<MatrixTransform> {matrix: [ 3.2410032329763587, -1.5373989694887855, -0.4986158819963629, 0, -0.9692242522025164, 1.8759299836951759, 0.0415542263400847, 0, 0.0556394198519755, -0.2040112061239099, 1.0571489771875333, 0, 0, 0, 0, 1]}

  - !<ColorSpace>
    name: ACES2065-1
    aliases: [Linear ACES, aces2065_1, ACES - ACES2065-1, lin_ap0, "ACES: Linear - AP0"]
    family: Colourspaces
    equalitygroup: ""
    bitdepth: unknown
    description: Open Domain Linear AP0 Tristimulus with ACES white point
    isdata: false
    allocation: uniform
    from_scene_reference: !<GroupTransform>
      children:
        - !<ColorSpaceTransform> {src: Linear CIE-XYZ I-E, dst: Linear CIE-XYZ I-D65}
        - !<BuiltinTransform> {style: "UTILITY - ACES-AP0_to_CIE-XYZ-D65_BFD", direction: inverse}

  - !<ColorSpace>
    name: ACEScg
    aliases: [Linear ACEScg, lin_ap1, ACES - ACEScg, "ACEScg: Linear - AP1"]
    family: Colourspaces
    equalitygroup: ""
    bitdepth: unknown
    description: Open Domain Linear AP1 Tristimulus with ACES white point
    isdata: false
    allocation: uniform
    from_scene_reference: !<GroupTransform>
      children:
        - !<ColorSpaceTransform> {src: Linear CIE-XYZ I-E, dst: Linear CIE-XYZ I-D65}
        - !<BuiltinTransform> {style: "UTILITY - ACES-AP1_to_CIE-XYZ-D65_BFD", direction: inverse}

  - !<ColorSpace>
    name: Linear DCI-P3 I-E
    family: Colourspaces
    equalitygroup: ""
    bitdepth: 32f
    description: Open Domain Linear DCI-P3 Tristimulus with I-E white point
    isdata: false
    allocation: uniform
    allocationvars: [-12.4739, 12.5261]
    from_scene_reference: !<GroupTransform>
      children:
        - !<MatrixTransform> {matrix: [2.1506740681998422, -0.8033306899286285, -0.3473433782712135, 0, -0.8669410150891632, 1.8422496570644722, 0.0246913580246913, 0, 0.0391091797935906, -0.0831070070613798, 1.0439978272677890, 0, 0, 0, 0, 1]}

  - !<ColorSpace>
    name: Linear DCI-P3 I-D65
    aliases: [Linear P3-D65, lin_p3d65, Utility - Linear - P3-D65]
    family: Colourspaces
    equalitygroup: ""
    bitdepth: 32f
    description: Open Domain Linear DCI-P3 Tristimulus with I-D65 white point
    isdata: false
    allocation: uniform
    allocationvars: [-12.4739, 12.5261]
    from_scene_reference: !<GroupTransform>
      children:
        - !<ColorSpaceTransform> {src: Linear CIE-XYZ I-E, dst: Linear CIE-XYZ I-D65}
        - !<MatrixTransform> {matrix: [2.4935091239346101, -0.9313881794047790, -0.4027127567416516, 0, -0.8294732139295544, 1.7626305796003032, 0.0236242371055886, 0, 0.0358512644339181, -0.0761839369220759, 0.9570295866943110, 0, 0, 0, 0, 1]}

  - !<ColorSpace>
    name: Linear BT.2020 I-E
    family: Colourspaces
    equalitygroup: ""
    bitdepth: 32f
    description: Open Domain Linear BT.2020 Tristimulus with I-E white point
    isdata: false
    allocation: uniform
    from_scene_reference: !<GroupTransform>
      children:
        - !<MatrixTransform> {matrix: [1.5498639396171363, -0.3211143451931252, -0.2287495944240111, 0, -0.6904600461999933, 1.6741291531150519, 0.0163308930849413, 0,  0.0192370654890717, -0.0466432957748727, 1.0274062302858002, 0, 0, 0, 0, 1]}

  - !<ColorSpace>
    name: Linear BT.2020 I-D65
    aliases: [Linear Rec.2020, lin_rec2020, Utility - Linear - Rec.2020]
    family: Colourspaces
    equalitygroup: ""
    bitdepth: 32f
    description: Open Domain Linear BT.2020 Tristimulus with I-D65 white point
    isdata: false
    allocation: uniform
    from_scene_reference: !<GroupTransform>
      children:
        - !<ColorSpaceTransform> {src: Linear CIE-XYZ I-E, dst: Linear CIE-XYZ I-D65}
        - !<MatrixTransform> {matrix: [ 1.7166634277958805, -0.3556733197301399, -0.2533680878902478, 0, -0.6666738361988869, 1.6164557398246981, 0.0157682970961337, 0, 0.0176424817849772, -0.0427769763827532, 0.9422432810184308, 0, 0, 0, 0, 1]}

  - !<ColorSpace>
    name: Linear E-Gamut I-D65
    aliases: ["FilmLight: Linear - E-Gamut"]
    family: Colourspaces
    equalitygroup: ""
    bitdepth: 32f
    description: Open Domain Linear E Gamut Tristimulus with I-D65 white point
    isdata: false
    allocation: uniform
    from_scene_reference: !<GroupTransform>
      children:
        - !<ColorSpaceTransform> {src: Linear CIE-XYZ I-E, dst: Linear CIE-XYZ I-D65}
        - !<MatrixTransform> {matrix: [ 0.7053968501, 0.1640413283, 0.08101774865, 0, 0.2801307241, 0.8202066415, -0.1003373656, 0, -0.1037815116, -0.07290725703, 1.265746519, 0, 0, 0, 0, 1], direction: inverse}

  - !<ColorSpace>
    name: AgX Log
    aliases: []
    family: Log Encodings
    equalitygroup: ""
    bitdepth: unknown
    description: Chroma-inset Log Encoding with 25 Stops of Dynamic Range
    isdata: false
    allocation: uniform
    from_scene_reference: !<GroupTransform>
      children:
        - !<ColorSpaceTransform> {src: Linear CIE-XYZ I-E, dst: Luminance Compensation BT.2020}
        - !<ColorSpaceTransform> {src: Linear CIE-XYZ I-E, dst: Linear BT.2020 I-D65}
        - !<MatrixTransform> {matrix: [0.8127985426204, 0.10575541804334, 0.0814460393362595, 0, 0.101729546302339, 0.751545638069437, 0.146724815628225, 0, 0.0722395899390781, 0.0879927925471106, 0.839767617513811, 0, 0, 0, 0, 1]}
        - !<AllocationTransform> {allocation: lg2, vars: [-12.47393, 12.5260688117]}
    to_scene_reference: !<GroupTransform>
      children:
        - !<AllocationTransform> {allocation: lg2, vars: [-12.47393, 12.5260688117], direction: inverse}
        - !<MatrixTransform> {matrix: [0.8127985426204, 0.10575541804334, 0.0814460393362595, 0, 0.101729546302339, 0.751545638069437, 0.146724815628225, 0, 0.0722395899390781, 0.0879927925471106, 0.839767617513811, 0, 0, 0, 0, 1], direction: inverse}
        - !<ColorSpaceTransform> {src: Linear CIE-XYZ I-E, dst: Linear BT.2020 I-D65, direction: inverse}

  - !<ColorSpace>
    name: Filmic sRGB
    family: Imagery
    equalitygroup:
    bitdepth: unknown
    description: |
      Filmic sRGB Image Encoding
    isdata: false
    allocation: uniform
    from_scene_reference: !<GroupTransform>
      children:
        - !<ColorSpaceTransform> {src: Linear CIE-XYZ I-E, dst: Filmic Log}
        - !<FileTransform> {src: filmic_to_0-70_1-03.spi1d, interpolation: linear}

  - !<ColorSpace>
    name: Filmic Log
    family: Log Encodings
    equalitygroup:
    bitdepth: unknown
    description: |
      Log based filmic shaper with 16.5 stops of latitude, and 25 stops of dynamic range
    isdata: false
    allocation: uniform
    allocationvars: [-12.473931188, 12.526068812]
    from_scene_reference: !<GroupTransform>
      children:
        - !<ColorSpaceTransform> {src: Linear CIE-XYZ I-E, dst: Linear BT.709 I-D65}
        - !<AllocationTransform> {allocation: lg2, vars: [-12.473931188, 12.526068812]}
        - !<FileTransform> {src: filmic_desat_33.cube, interpolation: best}
        - !<AllocationTransform> {allocation: uniform, vars: [0, 0.66]}
    to_scene_reference: !<GroupTransform>
      children:
        - !<AllocationTransform> {allocation: lg2, vars: [-12.473931188, 4.026068812], direction: inverse}
        - !<ColorSpaceTransform> {src: Linear CIE-XYZ I-E, dst: Linear BT.709 I-D65, direction: inverse}

  - !<ColorSpace>
    name: Guard Rail BT.2020
    family: Imagery
    equalitygroup: ""
    bitdepth: unknown
    description: A default Guard Rail image formation for BT.2020 displays
    isdata: false
    allocation: unknown
    from_scene_reference: !<GroupTransform>
      children:
        - !<ColorSpaceTransform> {src: Linear CIE-XYZ I-E, dst: Linear E-Gamut I-D65}
        - !<MatrixTransform> {matrix: [0.905439357429719, 0.0470580990629187, 0.0475025435073628, 0, 0.0254393574297188, 0.927058099062918, 0.0475025435073628, 0, 0.0254393574297189, 0.0470580990629184, 0.927502543507363, 0, 0, 0, 0, 1]}
        - !<RangeTransform> {min_in_value: 0, min_out_value: 0, max_in_value: 10, max_out_value: 100, style: noclamp}
        - !<BuiltinTransform> {style: CURVE - LINEAR_to_ST-2084}
        - !<ExponentTransform> {value: 1.5}
        - !<FileTransform> {src: guard_rail_bt2020.cube, interpolation: best}
        - !<ExponentTransform> {value: 1.5, direction: inverse}
        - !<BuiltinTransform> {style: CURVE - LINEAR_to_ST-2084, direction: inverse}
        - !<RangeTransform> {min_in_value: 0, min_out_value: 0, max_in_value: 10, max_out_value: 100, style: noclamp, direction: inverse}
        - !<MatrixTransform> {matrix: [0.898453996637762, 0.0557444797582201, 0.0458015236040178, 0, 0.0252430957049507, 0.928955380691032, 0.0458015236040178, 0, 0.0252430957049507, 0.05574447975822, 0.919012424536829, 0, 0, 0, 0, 1], direction: inverse}
        - !<ColorSpaceTransform> {src: Linear E-Gamut I-D65, dst: BT.2020}
        - !<RangeTransform> {max_in_value: 1, max_out_value: 1}
    to_scene_reference: !<GroupTransform>
      children:
        - !<ColorSpaceTransform> {src: BT.2020, dst: Linear CIE-XYZ I-E}

  - !<ColorSpace>
    name: Guard Rail sRGB
    family: Imagery
    equalitygroup: ""
    bitdepth: unknown
    description: A default Guard Rail image formation for sRGB displays
    isdata: false
    allocation: unknown
    from_scene_reference: !<GroupTransform>
      children:
        - !<ColorSpaceTransform> {src: Linear CIE-XYZ I-E, dst: Linear E-Gamut I-D65}
        - !<MatrixTransform> {matrix: [0.905439357429719, 0.0470580990629187, 0.0475025435073628, 0, 0.0254393574297188, 0.927058099062918, 0.0475025435073628, 0, 0.0254393574297189, 0.0470580990629184, 0.927502543507363, 0, 0, 0, 0, 1]}
        - !<RangeTransform> {min_in_value: 0, min_out_value: 0, max_in_value: 10, max_out_value: 100, style: noclamp}
        - !<BuiltinTransform> {style: CURVE - LINEAR_to_ST-2084}
        - !<ExponentTransform> {value: 1.5}
        - !<FileTransform> {src: guard_rail_srgb.cube, interpolation: best}
        - !<ExponentTransform> {value: 1.5, direction: inverse}
        - !<BuiltinTransform> {style: CURVE - LINEAR_to_ST-2084, direction: inverse}
        - !<RangeTransform> {min_in_value: 0, min_out_value: 0, max_in_value: 10, max_out_value: 100, style: noclamp, direction: inverse}
        - !<MatrixTransform> {matrix: [0.898453996637762, 0.0557444797582201, 0.0458015236040178, 0, 0.0252430957049507, 0.928955380691032, 0.0458015236040178, 0, 0.0252430957049507, 0.05574447975822, 0.919012424536829, 0, 0, 0, 0, 1], direction: inverse}
        - !<ColorSpaceTransform> {src: Linear E-Gamut I-D65, dst: sRGB}
        - !<RangeTransform> {max_in_value: 1, max_out_value: 1}
    to_scene_reference: !<GroupTransform>
      children:
        - !<ColorSpaceTransform> {src: sRGB, dst: Linear CIE-XYZ I-E}

  - !<ColorSpace>
    name: Guard Rail BT.1886
    family: Imagery
    equalitygroup: ""
    bitdepth: unknown
    description: A default Guard Rail image formation for BT.1886 displays
    isdata: false
    allocation: unknown
    from_scene_reference: !<GroupTransform>
      children:
        - !<ColorSpaceTransform> {src: Linear CIE-XYZ I-E, dst: Guard Rail sRGB}
        - !<ColorSpaceTransform> {src: sRGB, dst: BT.1886}
    to_scene_reference: !<GroupTransform>
      children:
        - !<ColorSpaceTransform> {src: BT.1886, dst: Linear CIE-XYZ I-E}

  - !<ColorSpace>
    name: Guard Rail P3
    family: Imagery
    equalitygroup: ""
    bitdepth: unknown
    description: A default Guard Rail image formation for Display P3 displays
    isdata: false
    allocation: unknown
    from_scene_reference: !<GroupTransform>
      children:
        - !<ColorSpaceTransform> {src: Linear CIE-XYZ I-E, dst: Linear E-Gamut I-D65}
        - !<MatrixTransform> {matrix: [0.905439357429719, 0.0470580990629187, 0.0475025435073628, 0, 0.0254393574297188, 0.927058099062918, 0.0475025435073628, 0, 0.0254393574297189, 0.0470580990629184, 0.927502543507363, 0, 0, 0, 0, 1]}
        - !<RangeTransform> {min_in_value: 0, min_out_value: 0, max_in_value: 10, max_out_value: 100, style: noclamp}
        - !<BuiltinTransform> {style: CURVE - LINEAR_to_ST-2084}
        - !<ExponentTransform> {value: 1.5}
        - !<FileTransform> {src: guard_rail_p3.cube, interpolation: best}
        - !<ExponentTransform> {value: 1.5, direction: inverse}
        - !<BuiltinTransform> {style: CURVE - LINEAR_to_ST-2084, direction: inverse}
        - !<RangeTransform> {min_in_value: 0, min_out_value: 0, max_in_value: 10, max_out_value: 100, style: noclamp, direction: inverse}
        - !<MatrixTransform> {matrix: [0.898453996637762, 0.0557444797582201, 0.0458015236040178, 0, 0.0252430957049507, 0.928955380691032, 0.0458015236040178, 0, 0.0252430957049507, 0.05574447975822, 0.919012424536829, 0, 0, 0, 0, 1], direction: inverse}
        - !<ColorSpaceTransform> {src: Linear E-Gamut I-D65, dst: Display P3}
        - !<RangeTransform> {max_in_value: 1, max_out_value: 1}
    to_scene_reference: !<GroupTransform>
      children:
        - !<ColorSpaceTransform> {src: Display P3, dst: Linear CIE-XYZ I-E}

  - !<ColorSpace>
    name: AgX Base BT.2020
    family: Imagery
    equalitygroup: ""
    bitdepth: unknown
    description: AgX Base Image Encoding for BT.2020 Display
    isdata: false
    allocation: uniform
    from_scene_reference: !<GroupTransform>
      children:
        - !<ColorSpaceTransform> {src: Linear CIE-XYZ I-E, dst: AgX Log}
        - !<FileTransform> {src: AgX_Formation.cube, interpolation: best}
        - !<ColorSpaceTransform> {src: BT.2020, dst: Linear BT.2020 I-D65}
        - !<MatrixTransform> {matrix: [0.826070114968099, 0.098987834519732, 0.0749420505121692, 0, 0.068801522808068, 0.856256426679763, 0.0749420505121692, 0, 0.0688015228080681, 0.0989878345197321, 0.8322106426722, 0, 0, 0, 0, 1], direction: inverse}
        - !<ColorSpaceTransform> {src: Linear BT.2020 I-D65, dst: BT.2020}
    to_scene_reference: !<GroupTransform>
      children:
        - !<ColorSpaceTransform> {src: BT.2020, dst: Linear BT.2020 I-D65}
        - !<MatrixTransform> {matrix: [0.826070114968099, 0.098987834519732, 0.0749420505121692, 0, 0.068801522808068, 0.856256426679763, 0.0749420505121692, 0, 0.0688015228080681, 0.0989878345197321, 0.8322106426722, 0, 0, 0, 0, 1]}
        - !<ColorSpaceTransform> {src: Linear BT.2020 I-D65, dst: BT.2020}
        - !<FileTransform> {src: AgX_Formation.cube, interpolation: best, direction: inverse}
        - !<ColorSpaceTransform> {src: AgX Log, dst: Linear CIE-XYZ I-E}

  - !<ColorSpace>
    name: AgX Base sRGB
    family: Imagery
    equalitygroup: ""
    bitdepth: unknown
    description: AgX Image Encoding for sRGB Display
    isdata: false
    allocation: uniform
    from_scene_reference: !<GroupTransform>
      children:
        - !<ColorSpaceTransform> {src: Linear CIE-XYZ I-E, dst: AgX Base BT.2020}
        - !<ColorSpaceTransform> {src: BT.2020, dst: Guard Rail sRGB}
